!!!!SEGMENT: pl-wumfc--n18053--010_noskowski-zygmunt--livia-quintilla-akt-pierwszy-scena-v.krn
!!!cenid: 18xx:4226
!!!COM: Noskowski, Zygmunt
!!!COM-rismID: pe106604
!!!CDT: 1846/05/02-1909/07/23
!!!CNT: Polish
!!!OPR: Livia Quintilla
!!!OTL: Akt pierwszy - Scena V
!!!OMV: 010
!!!PDT: 1898
!!!AGN:
!!!SMS-siglum: PL-Wumfc
!!!SMS-shelfmark: N18053
!!!SMS-shelfwork: 001-010 M
!!!SMS-variant:
!!!SMS-altvar:
!!!NIFC-rismSourceID: 1001161204
!!!NIFC-rismChildID: 1001161204
!!!NIFC-islandoraID: pl-wumfc:1491
!!!URL-pdf-islandora: https://repozytorium.nifc.pl/islandora/object/pl-wumfc:1491/datastream/PDF/view
!!!URL-scan: https://polish.musicsources.pl/pl/lokalizacje/galeria/druki-muzyczne/11843/36 @EN{Scan on Polish Music Sources Website} @PL{Skany w portalu Dziedzictwo Muzyki Polskiej w otwartym dostępie}
!!!IIIF:
!!!ONB-nifc: Skany 0036-0042
!!!AIN: 2 piano 2 vox
!!!key:
**kern	**kern	**dynam	**kern	**text	**dynam	**kern	**text	**dynam
*part4	*part3	*part3	*part2	*part2	*part2	*part1	*part1	*part1
*staff4	*staff3	*	*staff2	*staff2	*	*staff1	*staff1	*
*I"PIANO.	*I"PIANO.	*	*I"Proculus	*	*	*I"Livia	*	*
*I'pf	*I'pf	*	*I'P	*	*	*I'Liv.	*	*
*ICklav	*ICklav	*	*ICvox	*	*	*ICvox	*	*
*Ipiano	*Ipiano	*	*Ivox	*	*	*Ivox	*	*
*clefF4	*clefF4	*	*clefG2	*	*	*clefG2	*	*
*k[b-e-a-d-g-]	*k[b-e-a-d-g-]	*	*k[b-e-a-d-g-]	*	*	*k[b-e-a-d-g-]	*	*
*b-:	*b-:	*	*b-:	*	*	*b-:	*	*
*M3/4	*M3/4	*	*M3/4	*	*	*M3/4	*	*
=1	=1	=1	=1	=1	=1	=1	=1	=1
2BBB-/ 2BB-	(8C\L 8En	<	2.ryy	.	.	4r	.	.
.	8D#X\ 8F#X	.	.	.	.	.	.	.
.	8En\) 8Gn	.	.	.	.	4r	.	.
.	8F#'\J 8d#X	.	.	.	.	.	.	.
*	*clefG2	*	*	*	*	*	*	*
!	!	!	!	!	!	!LO:TX:a:t=Livia.	!	!LO:DY:a
8GGGn/L 8GGn	8c'/L 8en	.	.	.	.	4cc\	Za-	f
8FFF/J 8FF	8e'/J 8cc	.	.	.	.	.	.	.
=2	=2	=2	=2	=2	=2	=2	=2	=2
4EEEn/ 4EEn	4gn^^\ 4cc 4ggn	.	2.ryy	.	.	2ggn\	-wcze-	.
4r	4r	.	.	.	.	.	.	.
4r	4r	.	.	.	.	4gn/	-śnie	.
=3	=3	=3	=3	=3	=3	=3	=3	=3
4r	4r	.	2.ryy	.	.	8.cc\	w do-	.
.	.	.	.	.	.	16ddn\	-mu	.
4r	4r	.	.	.	.	4een\	mym	.
8BB-\L 8B-	4en/ 4gn 4cc	f	.	.	.	8r	.	.
8AA-X\J 8A-X	.	.	.	.	.	8cc\	chcesz	.
=4	=4	=4	=4	=4	=4	=4	=4	=4
8GGn/L 8Gn	4gn\ 4cc 4een	.	2.ryy	.	.	4een\	da-	.
8CC/J 8C	.	.	.	.	.	.	.	.
4r	4r	.	.	.	.	4ddn\	-wać	.
4r	4r	.	.	.	.	4cc\	roz-	.
=5	=5	=5	=5	=5	=5	=5	=5	=5
2.r	2.r	.	2.ryy	.	.	[2.aa-X\	-ka-	.
!!LO:LB:g=original	!	!	!	!	!	!	!	!
=6||	=6||	=6||	=6||	=6||	=6||	=6||	=6||	=6||
!	!	!	!	!	!	!LO:TX:a:B:t=Moderato.	!	!
4r	4r	.	2.ryy	.	.	4aa-\]	.	.
!	!LO:TX:b:i:t=marcato	!	!	!	!	!	!	!
!	!LO:TX:a:B:t=Moderato.	!	!	!	!	!	!	!
4.D-\ 4.A- 4.d-	4.f\ 4.a- 4.dd- 4.ff	.	.	.	.	4a-/	-zy.	.
.	.	.	.	.	.	4r	.	.
8D-\ 8A- 8d-	8f/ 8a- 8cc	.	.	.	.	.	.	.
=7	=7	=7	=7	=7	=7	=7	=7	=7
4FF/ 4F	4d-/ 4f 4a- 4dd-	.	2.ryy	.	.	2.r	.	.
4BB-\ 4B-	4d-/ 4f 4b- 4dd-	.	.	.	.	.	.	.
4AA-\ 4A-	4e-/ 4g- 4cc 4ee-	.	.	.	.	.	.	.
=8	=8	=8	=8	=8	=8	=8	=8	=8
4DD-/ 4D-	4f\ 4a- 4dd- 4ff	.	2.ryy	.	.	2.r	.	.
4.BBB-/ 4.BB-	4.f\ 4.b- 4.dd- 4.ff	.	.	.	.	.	.	.
8EE-/ 8E-	8c/ 8g- 8b- 8cc	.	.	.	.	.	.	.
=9	=9	=9	=9	=9	=9	=9	=9	=9
4DD-/ 4D-	4d-/ 4f 4b- 4dd-	.	2.ryy	.	.	2.r	.	.
4GG-/ 4G-	4d-/ 4g- 4b- 4dd-	.	.	.	.	.	.	.
4FF/ 4F	4e-/ 4an 4cc 4ee-	.	.	.	.	.	.	.
=10	=10	=10	=10	=10	=10	=10	=10	=10
4BBB-/ 4BB-	4f\ 4b- 4dd- 4ff	.	2.ryy	.	.	2.r	.	.
(4BB-\ 4B-	4r	p	.	.	.	.	.	.
4AA-\ 4A-	4r	.	.	.	.	.	.	.
=11	=11	=11	=11	=11	=11	=11	=11	=11
4GG-/ 4G-	2.r	.	2.ryy	.	.	2.r	.	.
4FF/ 4F	.	.	.	.	.	.	.	.
8EEn/L 8En	.	.	.	.	.	.	.	.
8FF/J) 8F	.	.	.	.	.	.	.	.
*	*	*	*	*	*	*clefF4	*	*
=12	=12	=12	=12	=12	=12	=12	=12	=12
!	!	!	!	!	!	!LO:TX:a:t=Proculus.	!	!LO:DY:a
(4BBB-/ 4BB-	2d-/ 2f 2dd-	.	2.ryy	.	.	2d-\	Tak,	p
4BB-\ 4B-	.	.	.	.	.	.	.	.
4AA-\ 4A-	4r	.	.	.	.	4r	.	.
=13	=13	=13	=13	=13	=13	=13	=13	=13
*	*^	*	*	*	*	*	*	*
4GG-/ 4G-	(2b-/	2.d-\ 2.f	.	2.ryy	.	.	2B-\	Li-	.
4FF/ 4F	.	.	.	.	.	.	.	.	.
8EEn/L 8En	4dd-/)	.	.	.	.	.	4d-\	-vio	.
8FF/J) 8F	.	.	.	.	.	.	.	.	.
*	*	*	*	*clefF4	*	*	*	*	*
!!LO:LB:g=original	!	!	!	!	!	!	!	!	!
=14	=14	=14	=14	=14	=14	=14	=14	=14	=14
(4BBB-/ 4BB-	(8.cc/L	2d-\ 2f	.	8.c\	prze-	.	2.ryy	.	.
.	16b-/Jk)	.	.	16B-\	-bacz	.	.	.	.
4BB-\ 4B-	4b-/	.	.	4B-\	mi!	.	.	.	.
4AA-\ 4A-	4r	4ryy	.	4r	.	.	.	.	.
*	*v	*v	*	*	*	*	*	*	*
=15	=15	=15	=15	=15	=15	=15	=15	=15
4GG-/ 4G-	4r	.	4r	.	.	2.ryy	.	.
4FF/ 4F	4r	.	4r	.	.	.	.	.
8EEn/L 8En	4b-\	.	4B-\	lecz	.	.	.	.
8FF/J) 8F	.	.	.	.	.	.	.	.
=16	=16	=16	=16	=16	=16	=16	=16	=16
(4BBB-/ 4BB-	[2.e-/ [>2.g- [2.ee-	.	[2.e-\	wiesz,	.	2.ryy	.	.
4BB-\ 4B-	.	.	.	.	.	.	.	.
4AA-\ 4A-	.	.	.	.	.	.	.	.
=17	=17	=17	=17	=17	=17	=17	=17	=17
*	*^	*	*	*	*	*	*	*
4GG-/ 4G-	4.ee-/]	2.e-\] 2.g-]	.	4.e-\]	.	.	2.ryy	.	.
4FF/ 4F	.	.	.	.	.	.	.	.	.
.	(8dd-/L	.	.	8d-\	że	.	.	.	.
8EEn/L 8En	8cc/	.	.	8c\	ty-	.	.	.	.
8FF/J) 8F	8b-/J)	.	.	8B-\	-le	.	.	.	.
*	*v	*v	*	*	*	*	*	*	*
=18	=18	=18	=18	=18	=18	=18	=18	=18
(4BBB-/ 4BB-	4d-/ 4g- 4dd-	.	4d-\	ra-	.	2.ryy	.	.
4BB-\ 4B-	4d-/ 4g-	.	4G-\	-zy	.	.	.	.
4AA-\ 4A-	4d-/ 4g- 4a-	.	4A-\	Przy-	.	.	.	.
=19	=19	=19	=19	=19	=19	=19	=19	=19
*	*^	*	*	*	*	*	*	*
4GG-/ 4G-	(2b-/	2.d-\ 2.g-	.	(2B-\	-cho-	.	2.ryy	.	.
4FF/ 4F	.	.	.	.	.	.	.	.	.
8EEn/L 8En	4dd-/)	.	.	4d-\)	.	.	.	.	.
8FF/J) 8F	.	.	.	.	.	.	.	.	.
*	*v	*v	*	*	*	*	*	*	*
=20	=20	=20	=20	=20	=20	=20	=20	=20
(4CC/ 4C	[2.e-/ [2.f	.	2F\	-dzę,	.	2.ryy	.	.
4C\ 4c	.	.	.	.	.	.	.	.
4BB-\ 4B-	.	.	4r	.	.	.	.	.
=21	=21	=21	=21	=21	=21	=21	=21	=21
4AAn\ 4An	4e-/] 4f]	.	4r	.	.	2.ryy	.	.
4GG-/ 4G-	4c/ 4an 4cc	.	4c\	by	.	.	.	.
8EEn/L 8En	4c/ 4a 4cc	.	4c\	z twych	.	.	.	.
8FF/J) 8F	.	.	.	.	.	.	.	.
!!LO:LB:g=original	!	!	!	!	!	!	!	!
=22	=22	=22	=22	=22	=22	=22	=22	=22
*	*^	*	*	*	*	*	*	*
(<4DD-/ 4D-	(4cc/	2f\	.	(4c\	ust	.	2.ryy	.	.
4D-\ 4d-	4b-/)	.	.	4.B-\)	.	.	.	.	.
4BB-\ 4B-	8r	4ryy	.	.	.	.	.	.	.
.	8f/ 8b- 8dd-	.	.	8d-\	wy-	.	.	.	.
*	*v	*v	*	*	*	*	*	*	*
=23	=23	=23	=23	=23	=23	=23	=23	=23
4AA-X\ 4A-X	(<4f\ 4b- 4ff	.	(4f\	-ro-	.	2.ryy	.	.
4GG-/ 4G-	4e-/ 4b- 4ee-	.	4e-\)	.	.	.	.	.
8EEn/L 8En	4d-/ 4b- 4dd-	.	4d-\	-ku	.	.	.	.
8FF/J) 8F	.	.	.	.	.	.	.	.
=24	=24	=24	=24	=24	=24	=24	=24	=24
(<4EE-X/ 4E-X	4c/ 4g- 4cc	.	(4c\	się◘	.	2.ryy	.	.
4E-\ 4e-	4g-/	.	4G-\)	.	.	.	.	.
4D-\ 4d-	8f/L	.	(8F\L	do-	.	.	.	.
.	8b-/J)	.	8B-\J)	.	.	.	.	.
=25	=25	=25	=25	=25	=25	=25	=25	=25
4C\ 4c	2.e-/ 2.an	.	2.An\	-cze-	.	2.ryy	.	.
4FF/ 4F	.	.	.	.	.	.	.	.
8GG-/L 8G-	.	.	.	.	.	.	.	.
8FF/J) 8F	.	.	.	.	.	.	.	.
=26	=26	=26	=26	=26	=26	=26	=26	=26
*	*^	*	*	*	*	*	*	*
(4AAAn/ 4AAn	2f/	(4e-\	.	2F\	-kać,	.	2.ryy	.	.
4EE-/ 4E-	.	4c\	.	.	.	.	.	.	.
4DD-/) 4D-	4r	4B-\)	.	4r	.	.	.	.	.
=27	=27	=27	=27	=27	=27	=27	=27	=27	=27
(4CC/ 4C	4r	(4An\	.	2.r	.	.	2.ryy	.	.
4GGG-/ 4GG-	4ryy	4B-\	.	.	.	.	.	.	.
4FFF/) 4FF	4f/ 4an	4c\)	.	.	.	.	.	.	.
*	*v	*v	*	*	*	*	*	*	*
=28	=28	=28	=28	=28	=28	=28	=28	=28
*^	*	*	*	*	*	*	*	*
(4D-/	2.DD-\	2.B-/ 2.f 2.b-	.	2.d-\	Dziś	.	2.ryy	.	.
4C/	.	.	.	.	.	.	.	.	.
4BB-/)	.	.	.	.	.	.	.	.	.
=29	=29	=29	=29	=29	=29	=29	=29	=29	=29
(4E-/	2.EE-\	2.B-/ 2.g- 2.b-	.	2G-\	mi	.	2.ryy	.	.
4C/	.	.	.	.	.	.	.	.	.
4BB-/)	.	.	.	4d-\	od-	.	.	.	.
!!LO:LB:g=original	!	!	!	!	!	!	!	!	!
=30	=30	=30	=30	=30	=30	=30	=30	=30	=30
(4En/	2.EEn\	2.B-/ 2.gn 2.b-	.	[2.B-\	-po-	.	2.ryy	.	.
4C/	.	.	.	.	.	.	.	.	.
4BB-/)	.	.	.	.	.	.	.	.	.
*v	*v	*	*	*	*	*	*	*	*
=31	=31	=31	=31	=31	=31	=31	=31	=31
2CC/ 2C	2c/ 2en 2cc	.	4B-\]	.	.	2.ryy	.	.
.	.	.	4An\	-wiedź	.	.	.	.
4BBB-/ 4BB-	4Gn/ 4c 4e	.	4Gn\	swą	.	.	.	.
=32	=32	=32	=32	=32	=32	=32	=32	=32
2AAAn/ 2AAn	8F/L 8c 8f	.	2c\	daj!	.	2.ryy	.	.
.	8Gn/	.	.	.	.	.	.	.
.	8F/	.	.	.	.	.	.	.
.	8An/	.	.	.	.	.	.	.
4r	8d-/	.	4r	.	.	.	.	.
.	8c/J	.	.	.	.	.	.	.
=33	=33	=33	=33	=33	=33	=33	=33	=33
2.FF/ 2.F	8b-/L	<	2.r	.	.	2.ryy	.	.
.	8an/	.	.	.	.	.	.	.
.	8g-X/	.	.	.	.	.	.	.
.	8f/	.	.	.	.	.	.	.
.	8en/	.	.	.	.	.	.	.
.	8f/J	[[	.	.	.	.	.	.
*	*	*	*clefG2	*	*	*	*	*
=34	=34	=34	=34	=34	=34	=34	=34	=34
!	!	!	!LO:TX:a:t=Livia.	!	!	!	!	!
2.EE-/ 2.E-	8g-/L	.	2gg-\	Dziś?	.	2.ryy	.	.
.	8B-/	.	.	.	.	.	.	.
.	8e-X/	.	.	.	.	.	.	.
.	8f/	.	.	.	.	.	.	.
.	8g-/	.	4r	.	.	.	.	.
.	8b-/J	.	.	.	.	.	.	.
=35	=35	=35	=35	=35	=35	=35	=35	=35
2DD-/ 2D-	8g-/L	.	2.r	.	.	2.ryy	.	.
.	8B--/	.	.	.	.	.	.	.
.	8e-/	.	.	.	.	.	.	.
.	8f/	.	.	.	.	.	.	.
4BBB--/ 4BB--	8g-/	.	.	.	.	.	.	.
.	8dd-/J	.	.	.	.	.	.	.
*	*	*	*clefF4	*	*	*	*	*
=36	=36	=36	=36	=36	=36	=36	=36	=36
*	*^	*	*	*	*	*	*	*
!	!	!	!	!LO:TX:a:t=Proculus.	!	!LO:DY:a	!	!	!
(4AAA-/ 4AA-	4ee-/	2e-\ 2g-	mf	4e-\	Li-	mf	2.ryy	.	.
4BB--\ 4B--	4cc/	.	.	4c\	-vio!	.	.	.	.
4AA-\ 4A-	4r	4ryy	.	4r	.	.	.	.	.
!!LO:LB:g=original	!	!	!	!	!	!	!	!	!
=37	=37	=37	=37	=37	=37	=37	=37	=37	=37
4GG-/ 4G-	4r	4ryy	.	4r	.	.	2.ryy	.	.
4EE-/ 4E-	(4cc/	2e-\ 2g-	.	4c\	nie	.	.	.	.
8DD-/L 8D-	4dd-/)	.	.	4d-\	chciej	.	.	.	.
8EE-/J) 8E-	.	.	.	.	.	.	.	.	.
=38	=38	=38	=38	=38	=38	=38	=38	=38	=38
(4AAA-/ 4AA-	4ee-/	2e-\ 2g-	.	4e-\	zwle-	.	2.ryy	.	.
4BB--\ 4B--	4cc/	.	.	4c\	-kać	.	.	.	.
4AA-\ 4A-	4r	4ryy	.	4r	.	.	.	.	.
*	*v	*v	*	*	*	*	*	*	*
=39	=39	=39	=39	=39	=39	=39	=39	=39
4GG-/ 4G-	4r	.	4r	.	.	2.ryy	.	.
4EE-/ 4E-	4r	.	4r	.	.	.	.	.
4AAA-/) 4AA-	4c/ 4f#X 4cc	.	4c\	Czy	.	.	.	.
=40	=40	=40	=40	=40	=40	=40	=40	=40
(4GGGn/ 4GGn	2dn/ 2f#X 2cc	.	2c\	od-	.	2.ryy	.	.
4AAn\ 4An	.	.	.	.	.	.	.	.
4GGn/ 4Gn	4d/ 4fn 4bn	.	4Bn\	-dasz	.	.	.	.
=41||	=41||	=41||	=41||	=41||	=41||	=41||	=41||	=41||
*k[]	*k[]	*	*k[]	*	*	*k[]	*	*
!	!	!	!	!	!LO:HP:a	!	!	!
4FF/ 4F	2d/ 2g 2b 2dd	<	2d\	mi	<	2.ryy	.	.
4DD/ 4D	.	.	.	.	.	.	.	.
8CC#X/L 8C#X	4g\ 4a 4ee	.	4e\	wą	[[	.	.	.
8DD/J) 8D	.	.	.	.	.	.	.	.
=42	=42	=42	=42	=42	=42	=42	=42	=42
!	!	!	!	!	!LO:DY:a	!	!	!
(4GGG/ 4GG	2.f\ 2.b 2.ff	f	[2.f\	dłoń?	f	2.ryy	.	.
4AA\ 4A	.	.	.	.	.	.	.	.
4GG/ 4G	.	.	.	.	.	.	.	.
=43	=43	=43	=43	=43	=43	=43	=43	=43
4FF/ 4F	2B/ 2d 2g	.	4f\]	.	.	2.ryy	.	.
4DD/ 4D	.	.	4r	.	.	.	.	.
8CCn/L 8Cn	4r	.	4r	.	.	.	.	.
8BBB/J) 8BB	.	.	.	.	.	.	.	.
=44	=44	=44	=44	=44	=44	=44	=44	=44
2.r	[2.d/ [2.f	p	2.r	.	.	2.ryy	.	.
=45	=45	=45	=45	=45	=45	=45	=45	=45
2.r	2.d/_ 2.f_	.	2.r	.	.	2.ryy	.	.
!!LO:PB:g=original	!	!	!	!	!	!	!	!
=46	=46	=46	=46	=46	=46	=46	=46	=46
2.r	2.d/_ 2.f_	.	4B\	Mil-	.	2.ryy	.	.
.	.	.	4D\	-czysz?	.	.	.	.
.	.	.	4r	.	.	.	.	.
=47	=47	=47	=47	=47	=47	=47	=47	=47
2.r	(8d/L] 8f]	.	2.r	.	.	2.ryy	.	.
.	8e/ 8g	.	.	.	.	.	.	.
.	8f/ 8a-X	.	.	.	.	.	.	.
.	8a-/ 8b	.	.	.	.	.	.	.
.	8f/ 8a-	.	.	.	.	.	.	.
.	8e/J) 8g	.	.	.	.	.	.	.
=48	=48	=48	=48	=48	=48	=48	=48	=48
[2.GG/	(8f/L 8a-X	.	4r	.	.	2.ryy	.	.
.	8e/ 8g	.	.	.	.	.	.	.
.	8f/ 8a-	.	4r	.	.	.	.	.
.	8a-/ 8b	.	.	.	.	.	.	.
.	8f/ 8a-	.	4B\	a	.	.	.	.
.	8d/J) 8f	.	.	.	.	.	.	.
=49	=49	=49	=49	=49	=49	=49	=49	=49
2.GG/_	(8f/L 8a-X	.	(4d\	chmur-	.	2.ryy	.	.
.	8e/ 8g	.	.	.	.	.	.	.
.	8f/ 8a-	.	4.D\)	.	.	.	.	.
.	8a-/ 8b	.	.	.	.	.	.	.
.	8f/ 8a-	.	.	.	.	.	.	.
.	8e-X/J) 8g	.	8E-X\	-ny	.	.	.	.
=50	=50	=50	=50	=50	=50	=50	=50	=50
2.GG/]	(8d/L 8f	.	2F\	cień	.	2.ryy	.	.
.	8e-X/ 8g	.	.	.	.	.	.	.
.	8d/ 8f	.	.	.	.	.	.	.
.	8c/ 8e-	.	.	.	.	.	.	.
.	8B/ 8d	.	4A-X\	na	.	.	.	.
.	8c/J) 8e-	.	.	.	.	.	.	.
=51	=51	=51	=51	=51	=51	=51	=51	=51
[2.GG/	(8d/L 8f	.	2BB/	czo-	.	2.ryy	.	.
.	8e-X/ 8g	.	.	.	.	.	.	.
.	8d/ 8f	.	.	.	.	.	.	.
.	8e-/ 8g	.	.	.	.	.	.	.
.	8f/ 8a-X	.	4C/	-le	.	.	.	.
.	8e-/J) 8g	.	.	.	.	.	.	.
=52	=52	=52	=52	=52	=52	=52	=52	=52
2.GG/_	(8d/L 8f	.	2D\	za-	.	2.ryy	.	.
.	8e-X/ 8g	.	.	.	.	.	.	.
.	8d/ 8f	.	.	.	.	.	.	.
.	8e-/ 8g	.	.	.	.	.	.	.
.	8d/ 8f	.	4G\	-legł	.	.	.	.
.	8c/J) 8e-	.	.	.	.	.	.	.
!!LO:LB:g=original	!	!	!	!	!	!	!	!
=53	=53	=53	=53	=53	=53	=53	=53	=53
2GG/]	2B/ 2d	.	[2.F\	twem,	.	2.ryy	.	.
4r	4r	.	.	.	.	.	.	.
=54	=54	=54	=54	=54	=54	=54	=54	=54
2.r	2.r	.	4F\]	.	.	2.ryy	.	.
.	.	.	4r	.	.	.	.	.
!	!	!	!	!	!LO:DY:a	!	!	!
.	.	.	4F\	zło-	mf	.	.	.
=55	=55	=55	=55	=55	=55	=55	=55	=55
2.r	2.r	.	2c\	-wro-	.	2.ryy	.	.
.	.	.	4B\	-gi	.	.	.	.
=56	=56	=56	=56	=56	=56	=56	=56	=56
!	!	!	!	!	!LO:HP:a	!	!	!
2.r	2.r	.	2d\	za-	<	2.ryy	.	.
.	.	.	4G\	-miar	[[	.	.	.
=57	=57	=57	=57	=57	=57	=57	=57	=57
!	!	!	!	!	!LO:DY:a	!	!	!
2.r	2.r	.	[2.e\	zmień.	f	2.ryy	.	.
=58	=58	=58	=58	=58	=58	=58	=58	=58
(<2EE\ (<2E	2.G</ 2.B< 2.e	f	2.e\_	.	.	2.ryy	.	.
4DD#X\) 4D#X)	.	.	.	.	.	.	.	.
=59	=59	=59	=59	=59	=59	=59	=59	=59
(<2CC#X\ (2C#X	2.G#X</ 2.c#X 2.e	.	2e\]	.	.	2.ryy	.	.
4BBB\) 4BB)	.	.	4r	.	.	.	.	.
=60	=60	=60	=60	=60	=60	=60	=60	=60
(<2AAA\ (2AA	2.A</ 2.c#X 2.e	.	4r	.	.	2.ryy	.	.
.	.	.	4r	.	.	.	.	.
4GGG#X\) 4GG#X)	.	.	4e\	i	.	.	.	.
=61	=61	=61	=61	=61	=61	=61	=61	=61
2.FFF#X/ 2.FF#X	[2.A/ [2.c [2.e	>	2e\	rę-	.	2.ryy	.	.
.	.	.	4A\	-kę	.	.	.	.
=62	=62	=62	=62	=62	=62	=62	=62	=62
2.EEE/ 2.EE	2.A/] 2.c] 2.e]	]]	(4c#X\	przyj-	.	2.ryy	.	.
.	.	.	4B\)	.	.	.	.	.
.	.	.	4A\	-mij	.	.	.	.
!!LO:LB:g=original	!	!	!	!	!	!	!	!
=63	=63	=63	=63	=63	=63	=63	=63	=63
(4DDD#X/ 4DD#X	2.A/ 2.B 2.f#X	.	[2.B\	mą.	.	2.ryy	.	.
4DD#/ 4D#X	.	.	.	.	.	.	.	.
4CC#X/ 4C#X	.	.	.	.	.	.	.	.
=64	=64	=64	=64	=64	=64	=64	=64	=64
4BBB/ 4BB	(>2B/ 2d 2f	.	4B\]	.	.	2.ryy	.	.
4AAA/ 4AA	.	.	4r	.	.	.	.	.
8GGG#X/L 8GG#X	4d/) 4f 4cc#X	.	4r	.	.	.	.	.
8AAA/J) 8AA	.	.	.	.	.	.	.	.
=65	=65	=65	=65	=65	=65	=65	=65	=65
(4GGG#X/ 4GG#X	2e/ 2g#X 2b	<	2.r	.	.	2.ryy	.	.
4GG#X/ 4G#X	.	.	.	.	.	.	.	.
4FF#X/ 4F#X	4d#X/ 4a 4b	.	.	.	.	.	.	.
=66	=66	=66	=66	=66	=66	=66	=66	=66
4EE/ 4E	(4e/ 4g#X 4ee	.	2.r	.	.	2.ryy	.	.
4DD#X/ 4D#X	4b\ 4ff#X 4aa	.	.	.	.	.	.	.
8FF#X/L 8F#X	4b\) 4ee 4gg#X	.	.	.	.	.	.	.
8EE/J) 8E	.	.	.	.	.	.	.	.
=67	=67	=67	=67	=67	=67	=67	=67	=67
2.CCn/ 2.Cn	2.ccn\ 2.ee 2.gg#X 2.cccn	p	4r	.	.	2.ryy	.	.
.	.	.	4r	.	.	.	.	.
!	!	!	!	!	!LO:DY:a	!	!	!
.	.	.	4e\	i	p	.	.	.
=68	=68	=68	=68	=68	=68	=68	=68	=68
2.AAA/ 2.AA	2.cc\ 2.ee 2.aa 2.ccc	.	4c\	po-	.	2.ryy	.	.
.	.	.	4A\	-tem	.	.	.	.
.	.	.	4r	.	.	.	.	.
=69	=69	=69	=69	=69	=69	=69	=69	=69
2.DD/ 2.D	2.b\ 2.ee 2.gg#X	.	4r	.	.	2.ryy	.	.
.	.	.	4.G#X\	co	.	.	.	.
.	.	.	8B\	wi-	.	.	.	.
=70	=70	=70	=70	=70	=70	=70	=70	=70
2.CC/ 2.C	2.a\ 2.ee 2.aa	.	4A\	-dzia-	.	2.ryy	.	.
.	.	.	4E\	-łem,	.	.	.	.
.	.	.	4r	.	.	.	.	.
=71	=71	=71	=71	=71	=71	=71	=71	=71
2.EE/ 2.E	2.e/ 2.a 2.cc	>]	4r	.	.	2.ryy	.	.
.	.	.	4r	.	.	.	.	.
!	!	!	!LO:TX:a:i:t=dolce	!	!LO:DY:a	!	!	!
.	.	.	4A\	ja	p	.	.	.
!!LO:LB:g=original	!	!	!	!	!	!	!	!
=72	=72	=72	=72	=72	=72	=72	=72	=72
2.DD/ 2.D	2.B/ 2.f 2.a 2.b	.	[2.f\	pro-	.	2.ryy	.	.
=73	=73	=73	=73	=73	=73	=73	=73	=73
2.CC/ 2.C	2.c/ 2.f 2.a 2.cc	.	2f\]	.	.	2.ryy	.	.
.	.	.	4e\	-szę	.	.	.	.
=74	=74	=74	=74	=74	=74	=74	=74	=74
[2.BBB/ [2.BB	((2.e/ 2.f 2.a 2.ee	.	(2.e\	cię!	.	2.ryy	.	.
=75	=75	=75	=75	=75	=75	=75	=75	=75
2BBB/] 2BB]	2d/)) 2f 2a 2dd	.	4d\)	.	.	2.ryy	.	.
.	.	.	4r	.	.	.	.	.
4r;	4r;	.	4r;	.	.	.	.	.
=76||	=76||	=76||	=76||	=76||	=76||	=76||	=76||	=76||
!	!LO:TX:a:B:t=Allegro.	!	!LO:TX:a:B:t=Allegro.	!	!	!	!	!
!	!	!	!LO:TX:t=Livia	!	!	!	!	!
2.r	2.r	.	4r	.	.	2.ryy	.	.
.	.	.	4r	.	.	.	.	.
*	*	*	*clefG2	*	*	*	*	*
!	!	!	!	!	!LO:DY:a	!	!	!
.	.	.	4dd\	Ach	f	.	.	.
=77	=77	=77	=77	=77	=77	=77	=77	=77
2.r	2.r	.	[2.aa\	po	.	2.ryy	.	.
=78	=78	=78	=78	=78	=78	=78	=78	=78
4FFF/ 4FF	8cc\L 8ee-X 8gg-X 8aa	f	2.aa\_	.	.	2.ryy	.	.
.	8a\	.	.	.	.	.	.	.
4E-X\ 4e-X	8cc\ 8ee- 8gg- 8aa	.	.	.	.	.	.	.
.	8a\	.	.	.	.	.	.	.
4D-X\ 4d-X	8cc\ 8ee- 8gg- 8aa	.	.	.	.	.	.	.
.	8a\J	.	.	.	.	.	.	.
=79	=79	=79	=79	=79	=79	=79	=79	=79
4C\ 4c	8cc\L 8ee-X 8gg-X 8aa	.	2.aa\_	.	.	2.ryy	.	.
.	8a\	.	.	.	.	.	.	.
4AA\ 4A	8cc\ 8ee- 8gg- 8aa	.	.	.	.	.	.	.
.	8a\	.	.	.	.	.	.	.
8GG-X\L 8G-X	8cc\ 8ee- 8gg- 8aa	.	.	.	.	.	.	.
8AA-X\J 8A-X	8a\J	.	.	.	.	.	.	.
=80	=80	=80	=80	=80	=80	=80	=80	=80
4FF^^/ 4F	4cc^^\ 4ee-X 4gg-X 4aa	.	2.aa\]	.	.	2.ryy	.	.
4r	4r	.	.	.	.	.	.	.
4r	4r	.	.	.	.	.	.	.
*	*	*	*	*	*	*clefG2	*	*
!!LO:LB:g=original	!	!	!	!	!	!	!	!
=81	=81	=81	=81	=81	=81	=81	=81	=81
2.r	2.r	.	2.ryy	.	.	4a/	dły!	.
.	.	.	.	.	.	4r	.	.
*	*	*	*	*	*	*clefF4	*	*
!	!	!	!	!	!	!LO:TX:a:t=Proculus.	!	!LO:DY:a
.	.	.	.	.	.	4c\	O	f
=82	=82	=82	=82	=82	=82	=82	=82	=82
2.r	2.r	.	2.ryy	.	.	[2.e-X\	tak!	.
=83	=83	=83	=83	=83	=83	=83	=83	=83
4FF/ 4F	4c/ 4e-X 4g-X 4a	f	2.ryy	.	.	4e-\]	.	.
4r	4r	.	.	.	.	4r	.	.
4r	4r	.	.	.	.	4A\	spo-	.
=84	=84	=84	=84	=84	=84	=84	=84	=84
2.r	2.r	.	2.ryy	.	.	[2.B-X\	-dlo-	.
=85	=85	=85	=85	=85	=85	=85	=85	=85
4FF/ 4F	4d-X/ 4en 4gn 4b-X	f	2.ryy	.	.	2B-\]	.	.
4r	4r	.	.	.	.	.	.	.
4r	4r	.	.	.	.	4En\	-ny	.
=86	=86	=86	=86	=86	=86	=86	=86	=86
2.r	2.r	.	2.ryy	.	.	4G-X\	sza-	.
.	.	.	.	.	.	4F\	-łem	.
.	.	.	.	.	.	4r	.	.
=87	=87	=87	=87	=87	=87	=87	=87	=87
4FF/ 4F	4c/ 4e-X 4f 4a	sf	2.ryy	.	.	2.r	.	.
4r	4r	.	.	.	.	.	.	.
4r	4r	.	.	.	.	.	.	.
=88	=88	=88	=88	=88	=88	=88	=88	=88
*tremolo	*	*	*	*	*	*	*	*
32FFF/LLL	2.r	f	2.ryy	.	.	2.r	.	.
32FF/	.	.	.	.	.	.	.	.
32FFF/	.	.	.	.	.	.	.	.
32FF/	.	.	.	.	.	.	.	.
32FFF/	.	.	.	.	.	.	.	.
32FF/	.	.	.	.	.	.	.	.
32FFF/	.	.	.	.	.	.	.	.
32FF/	.	.	.	.	.	.	.	.
32FFF/	.	.	.	.	.	.	.	.
32FF/	.	.	.	.	.	.	.	.
32FFF/	.	.	.	.	.	.	.	.
32FF/	.	.	.	.	.	.	.	.
32FFF/	.	.	.	.	.	.	.	.
32FF/	.	.	.	.	.	.	.	.
32FFF/	.	.	.	.	.	.	.	.
32FF/	.	.	.	.	.	.	.	.
32FFF/	.	.	.	.	.	.	.	.
32FF/	.	.	.	.	.	.	.	.
32FFF/	.	.	.	.	.	.	.	.
32FF/	.	.	.	.	.	.	.	.
32FFF/	.	.	.	.	.	.	.	.
32FF/	.	.	.	.	.	.	.	.
32FFF/	.	.	.	.	.	.	.	.
32FF/JJJ	.	.	.	.	.	.	.	.
=89	=89	=89	=89	=89	=89	=89	=89	=89
32FFF/LLL	2.r	.	2.ryy	.	.	2.r	.	.
32FF/	.	.	.	.	.	.	.	.
32FFF/	.	.	.	.	.	.	.	.
32FF/	.	.	.	.	.	.	.	.
32FFF/	.	.	.	.	.	.	.	.
32FF/	.	.	.	.	.	.	.	.
32FFF/	.	.	.	.	.	.	.	.
32FF/	.	.	.	.	.	.	.	.
32FFF/	.	.	.	.	.	.	.	.
32FF/	.	.	.	.	.	.	.	.
32FFF/	.	.	.	.	.	.	.	.
32FF/	.	.	.	.	.	.	.	.
32FFF/	.	.	.	.	.	.	.	.
32FF/	.	.	.	.	.	.	.	.
32FFF/	.	.	.	.	.	.	.	.
32FF/	.	.	.	.	.	.	.	.
32FFF/	.	.	.	.	.	.	.	.
32FF/	.	.	.	.	.	.	.	.
32FFF/	.	.	.	.	.	.	.	.
32FF/	.	.	.	.	.	.	.	.
32FFF/	.	.	.	.	.	.	.	.
32FF/	.	.	.	.	.	.	.	.
32FFF/	.	.	.	.	.	.	.	.
32FF/JJJ	.	.	.	.	.	.	.	.
=90	=90	=90	=90	=90	=90	=90	=90	=90
4FFF/ 4FF	2.r;	.	2.ryy	.	.	2.r;	.	.
4r	.	.	.	.	.	.	.	.
4r;	.	.	.	.	.	.	.	.
*	*	*	*clefF4	*	*	*	*	*
!!LO:PB:g=original	!	!	!	!	!	!	!	!
=91||	=91||	=91||	=91||	=91||	=91||	=91||	=91||	=91||
*k[b-e-a-d-g-]	*k[b-e-a-d-g-]	*	*k[b-e-a-d-g-]	*	*	*k[b-e-a-d-g-]	*	*
*M3/4	*M3/4	*	*M3/4	*	*	*M3/4	*	*
!	!LO:TX:a:B:t=Andante maestoso.	!	!LO:TX:a:B:t=Andante maestoso.	!	!	!	!	!
8.BBB-/L 8.BB-	8.b-\L 8.dd- 8.ff 8.bb-	ff	2.r	.	.	2.ryy	.	.
16DD-/Jk 16D-	16an\Jk 16dd- 16ff 16aan	.	.	.	.	.	.	.
4..DD-^^/ 4..D-	4..a^^\ 4..dd- 4..ff 4..aa	.	.	.	.	.	.	.
16GG-/ 16G-	16b-\ 16dd- 16gg- 16bb-	.	.	.	.	.	.	.
=92	=92	=92	=92	=92	=92	=92	=92	=92
8.GG-/L 8.G-	8.b-\L 8.dd- 8.gg- 8.bb-	.	2.r	.	.	2.ryy	.	.
16EEn/Jk 16En	16cc\Jk 16gg- 16bb- 16ccc	.	.	.	.	.	.	.
4..EE/ 4..E	4..cc\ 4..gg- 4..bb- 4..ccc	.	.	.	.	.	.	.
16FF/ 16F	16dd-\ 16ff 16bb- 16ddd-	.	.	.	.	.	.	.
=93	=93	=93	=93	=93	=93	=93	=93	=93
8.BBB-/L 8.BB-	8.dd-\L 8.ff 8.bb- 8.ddd-	.	2.r	.	.	2.ryy	.	.
16GG-/Jk 16G-	16b-\Jk 16dd- 16gg- 16bb-	.	.	.	.	.	.	.
8.EEn/L 8.En	8.cc\L 8.gg- 8.bb- 8.ccc	.	.	.	.	.	.	.
16FF/Jk 16F	16b-\Jk 16dd- 16ff 16bb-	.	.	.	.	.	.	.
8.EE-X/L 8.E-X	8.dd-\L 8.gg- 8.bb- 8.ddd-	.	.	.	.	.	.	.
16CC/Jk 16C	16ee-\Jk 16gg- 16bb- 16eee-	.	.	.	.	.	.	.
=94	=94	=94	=94	=94	=94	=94	=94	=94
[4BBB-/ [4BB-	[4ff\ [4bb- [4ddd- [4fff	.	2.r;	.	.	2.ryy	.	.
8BBB-/] 8BB-]	8ff\] 8bb-] 8ddd-] 8fff]	.	.	.	.	.	.	.
8r	8r	.	.	.	.	.	.	.
4r;	4r;	.	.	.	.	.	.	.
=95	=95	=95	=95	=95	=95	=95	=95	=95
!	!	!	!	!	!LO:DY:a	!	!	!
4r	4r	.	4.F\	Je-	f	2.ryy	.	.
8FF^^/ 8F	8e-^^\ 8an 8cc 8ff	.	.	.	.	.	.	.
8r	8r	.	8An\	-dnak	.	.	.	.
*	*	*	*Xbrackettup	*	*	*	*	*
4r	4r	.	(12c\L	Li-	.	.	.	.
.	.	.	12d-\J)	.	.	.	.	.
.	.	.	12A\	-vio	.	.	.	.
=96	=96	=96	=96	=96	=96	=96	=96	=96
4r	4r	.	8c\	pom-	.	2.ryy	.	.
.	.	.	8B-\	-nić	.	.	.	.
4r	4r	.	2f\	chciej.	.	.	.	.
8BBB-^^/ 8BB-	8b-^^\ 8dd- 8ff 8bb-	.	.	.	.	.	.	.
8r	8r	.	.	.	.	.	.	.
=97	=97	=97	=97	=97	=97	=97	=97	=97
4r	4r	.	4.e-\	je-	.	2.ryy	.	.
8EE-^^/ 8E-	8g-^^\ 8b- 8ee- 8gg-	.	.	.	.	.	.	.
8r	8r	.	8f\	-śli	.	.	.	.
4r	4r	.	(12e-\L	uj-	.	.	.	.
.	.	.	12B-\J)	.	.	.	.	.
.	.	.	12c\	-rzę	.	.	.	.
!!LO:LB:g=original	!	!	!	!	!	!	!	!
=98	=98	=98	=98	=98	=98	=98	=98	=98
4r	4r	.	8d-\	w chwi-	.	2.ryy	.	.
.	.	.	8B-\	-li	.	.	.	.
8r	8r	.	2F\	złej,	.	.	.	.
8DD-^^/ 8D-	8f^^\ 8b- 8ff	.	.	.	.	.	.	.
8BBB-^^/ 8BB-	8b-^^\ 8dd- 8ff 8bb-	.	.	.	.	.	.	.
8r	8r	.	.	.	.	.	.	.
=99	=99	=99	=99	=99	=99	=99	=99	=99
4r	4r	.	4.E-\	Że	.	2.ryy	.	.
8EE-^^/ 8E-	8g-^^\ 8b- 8ee- 8gg-	.	.	.	.	.	.	.
8r	8r	.	8F\	w twem	.	.	.	.
4r	4r	.	(12G-\L	ser-	.	.	.	.
.	.	.	12A-X\J)	.	.	.	.	.
.	.	.	12B-\	-cu	.	.	.	.
=100	=100	=100	=100	=100	=100	=100	=100	=100
4r	4r	.	4.c\	in-	.	2.ryy	.	.
8GG-^^/ 8G-	8c^^/ 8e- 8b- 8cc	.	.	.	.	.	.	.
8r	8r	.	8d-\	-na	.	.	.	.
4r	4r	.	(12e-\L	mi-	.	.	.	.
.	.	.	12f\J)	.	.	.	.	.
.	.	.	12g-\	-łość	.	.	.	.
=101	=101	=101	=101	=101	=101	=101	=101	=101
8r	8r	.	[2.g-\	wre,	.	2.ryy	.	.
*Xtremolo	*	*	*	*	*	*	*	*
32BB-\LLL	32g-/LLL 32b-	p	.	.	.	.	.	.
32B-\	32e-/	.	.	.	.	.	.	.
32BB-\	32g-/ 32b-	.	.	.	.	.	.	.
32B-\JJJ	32e-/JJJ	.	.	.	.	.	.	.
32EE-/LLL	32g-/LLL 32b- 32cc	.	.	.	.	.	.	.
32E-/	32c/	.	.	.	.	.	.	.
32EE-/	32g-/ 32b- 32cc	.	.	.	.	.	.	.
32E-/JJJ	32c/JJJ	.	.	.	.	.	.	.
32C\LLL	32g-/LLL 32b- 32ee-	<	.	.	.	.	.	.
32c\	32e-/	.	.	.	.	.	.	.
32C\	32g-/ 32b- 32ee-	.	.	.	.	.	.	.
32c\JJJ	32e-/JJJ	.	.	.	.	.	.	.
32BB-\LLL	32g-/LLL 32cc	.	.	.	.	.	.	.
32B-\	32e-/	.	.	.	.	.	.	.
32BB-\	32g-/ 32cc	.	.	.	.	.	.	.
32B-\JJJ	32e-/JJJ	.	.	.	.	.	.	.
32EE-/LLL	32b-\LLL 32cc 32gg-	.	.	.	.	.	.	.
32E-/	32g-\	.	.	.	.	.	.	.
32EE-/	32b-\ 32cc 32gg-	.	.	.	.	.	.	.
32E-/JJJ	32g-\JJJ	.	.	.	.	.	.	.
!!LO:LB:g=original	!	!	!	!	!	!	!	!
=102	=102	=102	=102	=102	=102	=102	=102	=102
8CC^^/ 8C	8b-^^\ 8ee- 8gg- 8bb-	.	8g-\]	.	.	2.ryy	.	.
8r	8r	.	8dn\	O	.	.	.	.
4r	4r	.	8f\	wte-	.	.	.	.
.	.	.	8e-\	-dy	.	.	.	.
4r	4r	.	8d-X\	Li-	.	.	.	.
.	.	.	8c\	-vio	.	.	.	.
=103	=103	=103	=103	=103	=103	=103	=103	=103
4r	4r	.	8.B-\	bia-	.	2.ryy	.	.
.	.	.	16G-\	-da	.	.	.	.
8.r	8.r	.	2F\	ci!	.	.	.	.
16FF/ 16D- 16F	16f/ 16b- 16dd-	f	.	.	.	.	.	.
8FF/ 8D- 8F	8f\ 8b- 8dd- 8ff	.	.	.	.	.	.	.
8r	8r	.	.	.	.	.	.	.
=104	=104	=104	=104	=104	=104	=104	=104	=104
4r	4r	.	8.d-\	strzeż	.	2.ryy	.	.
.	.	.	16G-\	się	.	.	.	.
8.r	8.r	.	2F\	mnie!	.	.	.	.
16FF/ 16D- 16F	16f\ 16b- 16dd- 16ff	.	.	.	.	.	.	.
8FF/ 8D- 8F	8b-\ 8dd- 8ff 8bb-	.	.	.	.	.	.	.
8r	8r	.	.	.	.	.	.	.
=105	=105	=105	=105	=105	=105	=105	=105	=105
4r	4r	.	(12d-\L	ja	.	2.ryy	.	.
.	.	.	12c\J)	.	.	.	.	.
.	.	.	12d-\	nad	.	.	.	.
8.r	8.r	.	[2e-\	to-	.	.	.	.
16FF/ 16BB- 16C 16E-	16c/ 16e- 16g- 16b- 16cc	.	.	.	.	.	.	.
8.FF\L 8.BB- 8.C 8.E-	8.c/L 8.e- 8.g- 8.b- 8.cc	.	.	.	.	.	.	.
16F\Jk 16B- 16c 16e-	16g-/Jk 16b- 16cc 16gg-	.	.	.	.	.	.	.
=106	=106	=106	=106	=106	=106	=106	=106	=106
!	!LO:TX:b:i:t=colla parte	!	!	!	!	!	!	!
8F\ 8B- 8c 8e-	8g-^^\ 8b- 8cc 8gg-	.	8e-\]	.	.	2.ryy	.	.
!	!	!	!LO:TX:a:i:t=sosten.	!	!	!	!	!
8r	8r	.	8E-\	-bą	.	.	.	.
4r	4r	.	8B-\	zem-	.	.	.	.
.	.	.	8G-\	-szczę,	.	.	.	.
!	!	!	!LO:TX:a:i:t=ten.	!	!	!	!	!
((4FF/ 4F	((4An^^/ 4e- 4an	.	8.d-\	zem-	.	.	.	.
.	.	.	16c\	-szczę	.	.	.	.
!!LO:LB:g=original	!	!	!	!	!	!	!	!
=107	=107	=107	=107	=107	=107	=107	=107	=107
8BBB-/L)) 8BB-	8B-/)) 8d- 8b-	.	2B-\	się!	.	2.ryy	.	.
(8AAA-X/ 8AA-X	4f\ 4b- 4dd- 4ff	.	.	.	.	.	.	.
8GGG-/ 8GG-	.	.	.	.	.	.	.	.
8FFF/J) 8FF	[8f\ [8b- [8dd- [8ff	.	.	.	.	.	.	.
4AAA-/ 4AA-	16f\LL] 16b-] 16dd-] 16ff]	.	4r	.	.	.	.	.
.	(16g-\ 16gg-	.	.	.	.	.	.	.
.	16a-\ 16aa-	.	.	.	.	.	.	.
.	16b-\JJ) 16bb-	.	.	.	.	.	.	.
=108	=108	=108	=108	=108	=108	=108	=108	=108
(8.GGG-/L 8.GG-	8b-\ 8bb-	.	4r	.	.	2.ryy	.	.
.	4c/ 4g- 4b- 4cc	.	.	.	.	.	.	.
16FF/Jk) 16F	.	.	.	.	.	.	.	.
*	*	*	*clefG2	*	*	*	*	*
!	!	!	!LO:TX:a:t=Livia.	!	!LO:DY:a	!	!	!
((4.EE-/ 4.E-	.	.	4gg-\	Ty	f	.	.	.
.	[8c/ [8g- [8cc	.	.	.	.	.	.	.
.	16c/LL] 16g-] 16cc]	.	8.g-/	mi	.	.	.	.
.	(16d-/ 16dd-	.	.	.	.	.	.	.
8DD-/)) 8D-	16B-/ 16b-	.	.	.	.	.	.	.
.	16f/JJ) 16ff	.	16ff\	u-	.	.	.	.
=109	=109	=109	=109	=109	=109	=109	=109	=109
4CC/ 4C	8f\L 8ff	.	2ff\	-rą-	.	2.ryy	.	.
.	[8g-\J	.	.	.	.	.	.	.
4G-\ 4B- 4e-	16g-\LL]	.	.	.	.	.	.	.
.	(16ff\	.	.	.	.	.	.	.
.	16ee-\	.	.	.	.	.	.	.
.	16dd-\JJ	.	.	.	.	.	.	.
8GG-/L 8G-	16e-/LL 16cc	.	4ee-\	-gać,	.	.	.	.
.	16b-/	.	.	.	.	.	.	.
8FF/J 8F	16e-/ 16an	.	.	.	.	.	.	.
.	16cc/JJ)	.	.	.	.	.	.	.
=110	=110	=110	=110	=110	=110	=110	=110	=110
4BBB-/ 4BB-	8f\ 8b- 8ee-	.	8.gg-\	gro-	.	2.ryy	.	.
.	4f/ 4b- 4dd-	.	.	.	.	.	.	.
.	.	.	16ff\	-zić	.	.	.	.
(8BB-\L 8B-	.	.	4dd-\	śmiesz?	.	.	.	.
8AA-\ 8A-	[<8f/ [>8b- [>8dd-	<	.	.	.	.	.	.
8GG-\ 8G-	16f\LL] 16b-] 16dd-]	.	8r	.	.	.	.	.
.	(16cc\	.	.	.	.	.	.	.
8FF\J) 8F	16dd-\	.	8dd-\	Zu-	.	.	.	.
.	16ff\JJ)	[[	.	.	.	.	.	.
=111	=111	=111	=111	=111	=111	=111	=111	=111
(4.DD-/ 4.D-	8b-\ 8ff 8bb-	mf	4ff\	-chwal-	.	2.ryy	.	.
.	4b-\ 4ff 4bb-	.	.	.	.	.	.	.
.	.	.	4b-\	-cze!	.	.	.	.
8BBB-/ 8BB-	[8b-\ [8dd- [8ff [8bb-	.	.	.	.	.	.	.
8EE-/L 8E-	16b-\LL] 16dd-] 16ff] 16bb-]	.	4r	.	.	.	.	.
.	(16cc\ 16ccc	.	.	.	.	.	.	.
8DD-/J) 8D-	16dd-\ 16ddd-	.	.	.	.	.	.	.
.	16ee-\JJ) 16eee-	.	.	.	.	.	.	.
*	*	*	*clefF4	*	*	*	*	*
!!LO:LB:g=original	!	!	!	!	!	!	!	!
=112	=112	=112	=112	=112	=112	=112	=112	=112
!	!	!	!LO:TX:a:t=Proculus,	!	!	!	!	!
4CC/ 4C	8ee-\ 8eee-	.	4A-\	A	.	2.ryy	.	.
.	4a-\ 4ee- 4aa-	.	.	.	.	.	.	.
4AAA-/ 4AA-	.	.	4.A-^^\	ty	.	.	.	.
.	[8g-\ [8ee- [8gg-	.	.	.	.	.	.	.
4E-\ 4G- 4c	16g-\LL] 16ee-] 16gg-]	.	.	.	.	.	.	.
.	(16b-\ 16bb-	.	.	.	.	.	.	.
.	16a-\ 16aa-	.	8c\	zu-	.	.	.	.
.	16g-\JJ) 16gg-	.	.	.	.	.	.	.
=113	=113	=113	=113	=113	=113	=113	=113	=113
!	!	!	!LO:TUP:b	!	!	!	!	!
4DD-/ 4D-	4g-\ 4cc 4ee- 4gg-	.	(12e-\L	-chwa-	.	2.ryy	.	.
.	.	.	12f\J)	.	.	.	.	.
.	.	.	12c\	-łym	.	.	.	.
8BB-\L 8B-	[4f\ [4dd- [4ff	.	2d-\	zwiesz	.	.	.	.
8AA-\J 8A-	.	.	.	.	.	.	.	.
8FF/L 8F	16f\LL] 16dd-] 16ff]	.	.	.	.	.	.	.
.	(16g-\ 16gg-	.	.	.	.	.	.	.
8DD-/J 8D-	16a-\ 16aa-	.	.	.	.	.	.	.
.	16dd-\JJ) 16ddd-	.	.	.	.	.	.	.
=114	=114	=114	=114	=114	=114	=114	=114	=114
4GGG-/ 4GG-	4.b--\ 4.dd- 4.gg- 4.bb--	<	2e-\	te-	.	2.ryy	.	.
4DD-/ 4D-	.	.	.	.	.	.	.	.
.	(8a-\ 8aa-	.	.	.	.	.	.	.
4BBB--/ 4BB--	16g-\LL 16gg-	[	8d-\	-go,	.	.	.	.
.	16a-\ 16aa-	.	.	.	.	.	.	.
.	16b--\ 16bb--	.	8G-\	co	.	.	.	.
.	16dd-\JJ) 16ddd-	.	.	.	.	.	.	.
=115	=115	=115	=115	=115	=115	=115	=115	=115
4DD-/ 4D-	8a-\ 8dd- 8ff 8aa-	.	8.d-\	pa-	.	2.ryy	.	.
.	4a-\ 4dd- 4ff	.	.	.	.	.	.	.
.	.	.	16F\	-nem	.	.	.	.
4F\ 4A- 4d-	.	.	2A-\	twym,	.	.	.	.
.	[8a-\ [8dd- [8ff	.	.	.	.	.	.	.
4D-\ 4d-	16a-\LL] 16dd-] 16ff]	.	.	.	.	.	.	.
.	(16een\	.	.	.	.	.	.	.
.	16ff\	.	.	.	.	.	.	.
.	16aa-\JJ)	.	.	.	.	.	.	.
=116	=116	=116	=116	=116	=116	=116	=116	=116
(<8qC/	.	.	.	.	.	.	.	.
!LO:TX:i:b:t=marcato	!	!	!LO:N:vis=1	!	!	!	!	!
4.c^^\)	4b-\ 4cc 4een 4aa-	f	2.r	.	.	2.ryy	.	.
.	8b-\L 8cc 8ee 8bb-	.	.	.	.	.	.	.
8en\	8b-\J 8cc 8ee 8aa-	.	.	.	.	.	.	.
*clefG2	*	*	*	*	*	*	*	*
!LO:TUP:b	!	!	!	!	!	!	!	!
12gn/L	4b-\ 4cc 4ee 4ggn	.	.	.	.	.	.	.
12a-/	.	.	.	.	.	.	.	.
12en/J	.	.	.	.	.	.	.	.
!!LO:PB:g=original	!	!	!	!	!	!	!	!
=117	=117	=117	=117	=117	=117	=117	=117	=117
8gn^^/L	4cc\ 4ff 4ccc	.	4r	.	.	2.ryy	.	.
8f^^/J	.	.	.	.	.	.	.	.
!	!	!	!	!	!LO:DY:a	!	!	!
2cc^^\	4.ff\ 4.aa-	.	4c\	Słu-	f	.	.	.
.	.	.	8.e-X\	-chaj	.	.	.	.
.	8ff\ 8aa- 8ddd-	.	.	.	.	.	.	.
.	.	.	16d-\	i	.	.	.	.
=118	=118	=118	=118	=118	=118	=118	=118	=118
[4c/ [4b-	4een\ 4ggn 4ccc	.	2Gn\	drżyj!	.	2.ryy	.	.
8c/] 8b-]	8cc\L 8ee 8gg	.	.	.	.	.	.	.
8r	8cc^^\J	.	.	.	.	.	.	.
!	!LO:TUP:b	!	!	!	!	!	!	!
4r	12b-/L	>	4r	.	.	.	.	.
.	12f/	.	.	.	.	.	.	.
.	12gn/J	]]	.	.	.	.	.	.
*clefF4	*	*	*	*	*	*	*	*
=119	=119	=119	=119	=119	=119	=119	=119	=119
(8qFF/	.	.	.	.	.	.	.	.
*	*^	*	*	*	*	*	*	*
4.F\)	(8a-/L	4A-\ 4c	p	2.r	.	.	2.ryy	.	.
.	8f/J)	.	.	.	.	.	.	.	.
.	4ryy	4A-\ 4c	.	.	.	.	.	.	.
8Gn\	.	.	.	.	.	.	.	.	.
!LO:TUP:a	!	!	!	!	!	!	!	!	!
12F\L	8A-/L 8d-	4ryy	.	.	.	.	.	.	.
12D-\	.	.	.	.	.	.	.	.	.
.	8d-/J 8f	.	.	.	.	.	.	.	.
12E-X\J	.	.	.	.	.	.	.	.	.
=120	=120	=120	=120	=120	=120	=120	=120	=120	=120
!	!	!	!	!	!	!LO:HP:a	!	!	!
2FF/ 2F	(8a-/L	4A-\ 4c	.	2c\	Słów	<	2.ryy	.	.
.	8f/J)	.	.	.	.	.	.	.	.
.	4.A-/ 4.c	2ryy	.	.	.	.	.	.	.
4EE-X/ 4E-X	.	.	.	8d-\	mo-	.	.	.	.
.	8A-/ 8c	.	.	8c\	-ich	.	.	.	.
*	*v	*v	*	*	*	*	*	*	*
=121	=121	=121	=121	=121	=121	=121	=121	=121
*tremolo	*	*	*	*	*	*	*	*
32DD-/LLL	4F/ 4c 4f	.	2f\	słu-	.	2.ryy	.	.
32D-/	.	.	.	.	.	.	.	.
32DD-/	.	.	.	.	.	.	.	.
32D-/	.	.	.	.	.	.	.	.
32DD-/	.	.	.	.	.	.	.	.
32D-/	.	.	.	.	.	.	.	.
32DD-/	.	.	.	.	.	.	.	.
32D-/	.	.	.	.	.	.	.	.
32DD-/	4.F^^/ 4.d- 4.f	.	.	.	.	.	.	.
32D-/	.	.	.	.	.	.	.	.
32DD-/	.	.	.	.	.	.	.	.
32D-/	.	.	.	.	.	.	.	.
32DD-/	.	.	.	.	.	.	.	.
32D-/	.	.	.	.	.	.	.	.
32DD-/	.	.	.	.	.	.	.	.
32D-/	.	.	.	.	.	.	.	.
32DD-/	.	.	4F\	-chaj	.	.	.	.
32D-/	.	.	.	.	.	.	.	.
32DD-/	.	.	.	.	.	.	.	.
32D-/	.	.	.	.	.	.	.	.
32DD-/	8F/ 8Bn 8f	.	.	.	.	.	.	.
32D-/	.	.	.	.	.	.	.	.
32DD-/	.	.	.	.	.	.	.	.
32D-/JJJ	.	.	.	.	.	.	.	.
!!LO:LB:g=original	!	!	!	!	!	!	!	!
=122	=122	=122	=122	=122	=122	=122	=122	=122
!	!	!	!	!	!LO:DY:a	!	!	!
4FFF/ 4FF	4A-/ 4c 4f 4a-	<	2A-\	kor-	f	2.ryy	.	.
4DD-/ 4D-	4.A-/ 4.d- 4.f	.	.	.	.	.	.	.
4BBB-/ 4BB-	.	.	8D-\	-na	.	.	.	.
.	8A-/ 8d- 8f 8a-	.	16r	.	.	.	.	.
.	.	.	16F\	nie	.	.	.	.
=123	=123	=123	=123	=123	=123	=123	=123	=123
!	!	!	!	!	!LO:DY:a	!	!	!
4FFF/ 4FF	8A-/ 8c 8f 8a-	.	8d-^^\	gnie-	f	2.ryy	.	.
.	4A-/ 4c 4f	.	8c\	-wna.	.	.	.	.
4DD-/ 4D-	.	.	4r	.	.	.	.	.
!	!LO:TX:a:i:t=poco più	!	!	!	!	!	!	!
.	[8A-/ [8c [8f	<	.	.	.	.	.	.
4CC/ 4C	16A-/LL] 16c] 16f]	.	4r	.	.	.	.	.
.	(16gn/	.	.	.	.	.	.	.
.	16a-/	.	.	.	.	.	.	.
.	16cc/JJ)	[[	.	.	.	.	.	.
=124	=124	=124	=124	=124	=124	=124	=124	=124
*^	*	*	*	*	*	*	*	*
4.D-^^/	2.BBn\	8d-/ 8f 8dd-	.	2d-\	Ty	.	2.ryy	.	.
.	.	4d-/ 4f 4dd-	.	.	.	.	.	.	.
8F/	.	8d-/ 8f 8dd-	.	.	.	.	.	.	.
!LO:TUP:b	!	!	!	!	!	!	!	!	!
12A-/L	.	4d-/ 4f 4dd-	.	8A-\	ra-	.	.	.	.
12B-X/	.	.	.	.	.	.	.	.	.
.	.	.	.	8B-\	-czej	.	.	.	.
12F/J	.	.	.	.	.	.	.	.	.
=125	=125	=125	=125	=125	=125	=125	=125	=125	=125
8Gn/L	4AA-\	8Bn/L 8f 8bn	.	8Bn\	ła-	.	2.ryy	.	.
8F/J	.	8c/J 8f 8cc	.	8c\	-ski	.	.	.	.
2c^^\	2ryy	4f\ 4a- 4cc 4ff	.	4.c\	bła-	.	.	.	.
.	.	8f/L 8a- 8bn	.	.	.	.	.	.	.
.	.	8f/J 8a- 8cc	.	8F\	-gaj	.	.	.	.
*v	*v	*	*	*	*	*	*	*	*
=126	=126	=126	=126	=126	=126	=126	=126	=126
(8qGGn/	.	.	.	.	.	.	.	.
4.B-\)	8d-/L 8f 8b-X 8dd-	.	2d-\	mej!	.	2.ryy	.	.
.	8e-/J 8f 8b- 8ee-	.	.	.	.	.	.	.
.	4d-/ 4f 4b- 4dd-	.	.	.	.	.	.	.
8c\	.	.	.	.	.	.	.	.
!LO:TUP:a	!	!	!	!	!	!	!	!
12C\L 12B-	8d-/L 8f 8b- 8dd-	>	4r	.	.	.	.	.
12F\	.	.	.	.	.	.	.	.
.	8c/J 8en 8b- 8cc	]]	.	.	.	.	.	.
12Gn\J	.	.	.	.	.	.	.	.
*	*	*	*clefG2	*	*	*	*	*
!!LO:LB:g=original	!	!	!	!	!	!	!	!
=127	=127	=127	=127	=127	=127	=127	=127	=127
!	!	!	!LO:TX:a:t=Livia.	!	!	!	!	!
8FF\L 8A-	8c/ 8f 8a- 8cc	.	4r	.	.	2.ryy	.	.
8F\J	4f\ 4a- 4cc 4ff	.	.	.	.	.	.	.
4FF/ 4C	.	.	4r	.	.	.	.	.
.	[8f\ [8a- [8cc [8ff	.	.	.	.	.	.	.
4FF/ 4F	16f\LL] 16a-] 16cc] 16ff]	.	8.r	.	.	.	.	.
.	(16f\ 16ff	.	.	.	.	.	.	.
.	16gn\ 16ggn	.	.	.	.	.	.	.
!	!	!	!	!	!LO:DY:a	!	!	!
.	16a-\JJ) 16aa-	.	16ff\	O-	f	.	.	.
=128	=128	=128	=128	=128	=128	=128	=128	=128
4FFF/ 4FF	8a-\ 8dd- 8aa-	p	(4ff\	-bel-	.	2.ryy	.	.
.	4d-/ 4a- 4dd-	.	.	.	.	.	.	.
4D-\ 4F 4A-	.	.	4.aa-\)	.	.	.	.	.
.	[8d-/ [8a- [8dd-	.	.	.	.	.	.	.
4FF/ 4D- 4F	16d-/LL] 16a-] 16dd-]	.	.	.	.	.	.	.
.	(16d-/ 16dd-	<	.	.	.	.	.	.
.	16e-X/ 16ee-X	.	8ggn\	-gi	.	.	.	.
.	16f/JJ) 16ff	[[	.	.	.	.	.	.
=129	=129	=129	=129	=129	=129	=129	=129	=129
4AAA-/ 4AA-	8f\ 8cc 8ff	mf	8.ff\	w do-	.	2.ryy	.	.
.	4c/ 4f 4cc	.	.	.	.	.	.	.
.	.	.	16een\	-mu	.	.	.	.
4C\ 4F 4A-	.	.	4ff\	mym!	.	.	.	.
.	[8f\ [8cc [8ff	.	.	.	.	.	.	.
4AAA-/ 4AA-	16f\LL] 16cc] 16ff]	.	4r	.	.	.	.	.
.	(16f\ 16ff	.	.	.	.	.	.	.
.	16gn\ 16ggn	.	.	.	.	.	.	.
.	16a-\JJ) 16aa-	.	.	.	.	.	.	.
=130	=130	=130	=130	=130	=130	=130	=130	=130
4FFF/ 4FF	8a-\ 8dd- 8aa-	.	16r	.	.	2.ryy	.	.
*	*	*	*clefF4	*	*	*	*	*
!	!	!	!LO:TX:a:t=Proculus.	!	!LO:DY:a	!	!	!
.	.	.	16A-\	Czyś	f	.	.	.
.	4d-/ 4a- 4dd-	.	16B-\	te-	.	.	.	.
.	.	.	16c\	-go	.	.	.	.
4D-\ 4F 4A-	.	.	(8d-\	pew-	.	.	.	.
.	[8d-/ [8a- [8dd-	.	4f\	.	.	.	.	.
4FFF/ 4FF	16d-/LL] 16a-] 16dd-]	.	.	.	.	.	.	.
.	(16d-/ 16dd-	.	.	.	.	.	.	.
.	16e-/ 16ee-	.	8Bn\)	.	.	.	.	.
.	16f/JJ) 16ff	.	.	.	.	.	.	.
!!LO:LB:g=original	!	!	!	!	!	!	!	!
=131	=131	=131	=131	=131	=131	=131	=131	=131
!	!	!	!LO:TX:a:i:t=accelerando	!	!	!	!	!
4AAA-/ 4AA-	8f\ 8cc 8ff	.	2c\	-na?	.	2.ryy	.	.
.	4c/ 4f 4cc	.	.	.	.	.	.	.
4C\ 4F 4A-	.	.	.	.	.	.	.	.
.	[8f\ [8cc [8ff	.	.	.	.	.	.	.
4AAA-/ 4AA-	16f\LL] 16cc] 16ff]	.	4r	.	.	.	.	.
.	(16f\ 16ff	.	.	.	.	.	.	.
.	16gn\ 16ggn	.	.	.	.	.	.	.
.	16a-\JJ) 16aa-	.	.	.	.	.	.	.
*	*	*	*clefG2	*	*	*	*	*
=132	=132	=132	=132	=132	=132	=132	=132	=132
*	*^	*	*	*	*	*	*	*
!	!	!	!	!LO:TX:a:t=Livia.	!	!LO:DY:a	!	!	!
8GGGn/ 8GGn	8bn\ 8ff 8ggn 8bbn	4ryy	f	2ff\	Ha!	f	2.ryy	.	.
8r	8r	.	.	.	.	.	.	.	.
!	!LO:TX:a:i:t=a tempo	!	!	!	!	!	!	!	!
!	!LO:N:vis=4	!	!	!	!	!	!	!	!
4r	(<32Bn^^/LLL	4Bn\	.	.	.	.	.	.	.
.	32dn/	.	.	.	.	.	.	.	.
.	32f/	.	.	.	.	.	.	.	.
.	32d/	.	.	.	.	.	.	.	.
.	32f/	.	.	.	.	.	.	.	.
.	32d/	.	.	.	.	.	.	.	.
.	32f/	.	.	.	.	.	.	.	.
.	32d/JJJ)	.	.	.	.	.	.	.	.
4r	(<32B^/LLL	4B\	.	4r	.	.	.	.	.
.	32d/	.	.	.	.	.	.	.	.
.	32f/	.	.	.	.	.	.	.	.
.	32d/	.	.	.	.	.	.	.	.
.	32f/	.	.	.	.	.	.	.	.
.	32d/	.	.	.	.	.	.	.	.
.	32f/	.	.	.	.	.	.	.	.
.	32d/JJJ)	.	.	.	.	.	.	.	.
*	*	*	*	*clefF4	*	*	*	*	*
=133	=133	=133	=133	=133	=133	=133	=133	=133	=133
!	!	!	!	!LO:TX:a:t=Proculus.	!	!	!	!	!
4.GGn^^/	(<32Bn/LLL	4B\	f	2dn\	Li-	.	2.ryy	.	.
.	32d-/	.	.	.	.	.	.	.	.
.	32f/	.	.	.	.	.	.	.	.
.	32d-/	.	.	.	.	.	.	.	.
.	32f/	.	.	.	.	.	.	.	.
.	32d-/	.	.	.	.	.	.	.	.
.	32f/	.	.	.	.	.	.	.	.
.	32d-/JJJ)	.	.	.	.	.	.	.	.
.	(<32B/LLL	4B\	.	.	.	.	.	.	.
.	32d-/	.	.	.	.	.	.	.	.
.	32f/	.	.	.	.	.	.	.	.
.	32d-/	.	.	.	.	.	.	.	.
8BBn/	32f/	.	.	.	.	.	.	.	.
.	32d-/	.	.	.	.	.	.	.	.
.	32f/	.	.	.	.	.	.	.	.
.	32d-/JJJ)	.	.	.	.	.	.	.	.
!LO:TUP:b	!	!	!	!	!	!	!	!	!
12Dn/L	(<32B/LLL	4B\	.	4F\	-vio!	.	.	.	.
.	32d-/	.	.	.	.	.	.	.	.
.	32f/	.	.	.	.	.	.	.	.
12E-/	.	.	.	.	.	.	.	.	.
.	32d-/	.	.	.	.	.	.	.	.
.	32f/	.	.	.	.	.	.	.	.
.	32d-/	.	.	.	.	.	.	.	.
12BB/J	.	.	.	.	.	.	.	.	.
.	32f/	.	.	.	.	.	.	.	.
.	32d-/JJJ)	.	.	.	.	.	.	.	.
!!LO:LB:g=original	!	!	!	!	!	!	!	!	!
=134	=134	=134	=134	=134	=134	=134	=134	=134	=134
4Dn\	(<32Bn/LLL	4B\	.	8A-\	po-	.	2.ryy	.	.
.	32dn/	.	.	.	.	.	.	.	.
.	32f/	.	.	.	.	.	.	.	.
.	32d/	.	.	.	.	.	.	.	.
.	32f/	.	.	8Gn\	-rzyć	.	.	.	.
.	32d/	.	.	.	.	.	.	.	.
.	32f/	.	.	.	.	.	.	.	.
.	32d/JJJ)	.	.	.	.	.	.	.	.
4r	(<32B/LLL	4B\	.	4B-X\	du-	.	.	.	.
.	32d/	.	.	.	.	.	.	.	.
.	32f/	.	.	.	.	.	.	.	.
.	32d/	.	.	.	.	.	.	.	.
.	32f/	.	.	.	.	.	.	.	.
.	32d/	.	.	.	.	.	.	.	.
.	32f/	.	.	.	.	.	.	.	.
.	32d/JJJ)	.	.	.	.	.	.	.	.
4r	(<32B/LLL	4B\	.	8A-\	-mę	.	.	.	.
.	32d/	.	.	.	.	.	.	.	.
.	32f/	.	.	.	.	.	.	.	.
.	32d/	.	.	.	.	.	.	.	.
.	32f/	.	.	8Dn\	nie-	.	.	.	.
.	32d/	.	.	.	.	.	.	.	.
.	32f/	.	.	.	.	.	.	.	.
.	32d/JJJ)	.	.	.	.	.	.	.	.
=135	=135	=135	=135	=135	=135	=135	=135	=135	=135
4.GGn^^/	(<32Bn/LLL	4B\	.	4dn\	-wcze-	.	2.ryy	.	.
.	32dn/	.	.	.	.	.	.	.	.
.	32f/	.	.	.	.	.	.	.	.
.	32d/	.	.	.	.	.	.	.	.
.	32f/	.	.	.	.	.	.	.	.
.	32d/	.	.	.	.	.	.	.	.
.	32f/	.	.	.	.	.	.	.	.
.	32d/JJJ)	.	.	.	.	.	.	.	.
.	(<32B/LLL	4B\	.	4Gn\	-sną,	.	.	.	.
.	32d/	.	.	.	.	.	.	.	.
.	32f/	.	.	.	.	.	.	.	.
.	32d/	.	.	.	.	.	.	.	.
8Dn\	32f/	.	.	.	.	.	.	.	.
.	32d/	.	.	.	.	.	.	.	.
.	32f/	.	.	.	.	.	.	.	.
.	32d/JJJ)	.	.	.	.	.	.	.	.
!LO:TUP:a	!	!	!	!	!	!	!	!	!
12F\L	(<32B/LLL	4B\	.	4r	.	.	.	.	.
.	32d/	.	.	.	.	.	.	.	.
.	32f/	.	.	.	.	.	.	.	.
12Gn\	.	.	.	.	.	.	.	.	.
.	32d/	.	.	.	.	.	.	.	.
.	32f/	.	.	.	.	.	.	.	.
.	32d/	.	.	.	.	.	.	.	.
12D\J	.	.	.	.	.	.	.	.	.
.	32f/	.	.	.	.	.	.	.	.
.	32d/JJJ)	.	.	.	.	.	.	.	.
*	*v	*v	*	*	*	*	*	*	*
!!LO:LB:g=original	!	!	!	!	!	!	!	!
=136	=136	=136	=136	=136	=136	=136	=136	=136
8A-^^\L	(32Bn/LLL	.	2e-\	Ty	.	2.ryy	.	.
.	32c/	.	.	.	.	.	.	.
.	32e-/	.	.	.	.	.	.	.
.	32c/	.	.	.	.	.	.	.
8Gn\J	32e-/	.	.	.	.	.	.	.
.	32c/	.	.	.	.	.	.	.
.	32e-/	.	.	.	.	.	.	.
.	32c/JJJ)	.	.	.	.	.	.	.
4C/	(32B/LLL	.	.	.	.	.	.	.
.	32c/	.	.	.	.	.	.	.
.	32e-/	.	.	.	.	.	.	.
.	32c/	.	.	.	.	.	.	.
.	32e-/	.	.	.	.	.	.	.
.	32c/	.	.	.	.	.	.	.
.	32e-/	.	.	.	.	.	.	.
.	32c/JJJ)	.	.	.	.	.	.	.
4r	(32B/LLL	.	4r	.	.	.	.	.
.	32c/	.	.	.	.	.	.	.
.	32e-/	.	.	.	.	.	.	.
.	32c/	.	.	.	.	.	.	.
.	32e-/	.	.	.	.	.	.	.
.	32c/	.	.	.	.	.	.	.
.	32e-/	.	.	.	.	.	.	.
.	32c/JJJ)	.	.	.	.	.	.	.
=137	=137	=137	=137	=137	=137	=137	=137	=137
8B-X\L	(32Bn/LLL	.	4dn^^\	cór-	.	2.ryy	.	.
.	32c/	.	.	.	.	.	.	.
.	32f/	.	.	.	.	.	.	.
.	32c/	.	.	.	.	.	.	.
8A-\J	32f/	.	.	.	.	.	.	.
.	32c/	.	.	.	.	.	.	.
.	32f/	.	.	.	.	.	.	.
.	32c/JJJ)	.	.	.	.	.	.	.
4C/	(32B/LLL	.	4c^^\	-ko	.	.	.	.
.	32c/	.	.	.	.	.	.	.
.	32f/	.	.	.	.	.	.	.
.	32c/	.	.	.	.	.	.	.
.	32f/	.	.	.	.	.	.	.
.	32c/	.	.	.	.	.	.	.
.	32f/	.	.	.	.	.	.	.
.	32c/JJJ)	.	.	.	.	.	.	.
4r	(32B/LLL	.	8Bn^^\	nie-	.	.	.	.
.	32c/	.	.	.	.	.	.	.
.	32f/	.	.	.	.	.	.	.
.	32c/	.	.	.	.	.	.	.
.	32f/	.	8c^^\	-wol-	.	.	.	.
.	32c/	.	.	.	.	.	.	.
.	32f/	.	.	.	.	.	.	.
.	32c/JJJ)	.	.	.	.	.	.	.
!!LO:LB:g=original	!	!	!	!	!	!	!	!
=138	=138	=138	=138	=138	=138	=138	=138	=138
(>8qCC/	.	.	.	.	.	.	.	.
8A-\L)	(32Bn/LLL	.	2.e-\	-ni-	.	2.ryy	.	.
.	32c/	.	.	.	.	.	.	.
.	32e-/	.	.	.	.	.	.	.
.	32c/	.	.	.	.	.	.	.
8Gn\J	32e-/	.	.	.	.	.	.	.
.	32c/	.	.	.	.	.	.	.
.	32e-/	.	.	.	.	.	.	.
.	32c/JJJ)	.	.	.	.	.	.	.
8C/L	(32B/LLL	.	.	.	.	.	.	.
.	32c/	.	.	.	.	.	.	.
.	32e-/	.	.	.	.	.	.	.
.	32c/	.	.	.	.	.	.	.
8EE-/J	32e-/	.	.	.	.	.	.	.
.	32c/	.	.	.	.	.	.	.
.	32e-/	.	.	.	.	.	.	.
.	32c/JJJ)	.	.	.	.	.	.	.
!LO:TUP:b	!	!	!	!	!	!	!	!
12GGn/L	(32B/LLL	.	.	.	.	.	.	.
.	32c/	.	.	.	.	.	.	.
.	32e-/	.	.	.	.	.	.	.
12BB-X/	.	.	.	.	.	.	.	.
.	32c/	.	.	.	.	.	.	.
.	32e-/	.	.	.	.	.	.	.
.	32c/	.	.	.	.	.	.	.
12AA-/J	.	.	.	.	.	.	.	.
.	32e-/	.	.	.	.	.	.	.
.	32c/JJJ)	.	.	.	.	.	.	.
=139	=139	=139	=139	=139	=139	=139	=139	=139
8AA-^^</L	(32Bn/LLL	.	4c\	-cy.	.	2.ryy	.	.
.	32c/	.	.	.	.	.	.	.
.	32e-/	.	.	.	.	.	.	.
.	32c/	.	.	.	.	.	.	.
8GGn/J	32e-/	.	.	.	.	.	.	.
.	32c/	.	.	.	.	.	.	.
.	32e-/	.	.	.	.	.	.	.
.	32c/JJJ)	.	.	.	.	.	.	.
4C/	(32B/LLL	.	4r	.	.	.	.	.
.	32c/	.	.	.	.	.	.	.
.	32e-/	.	.	.	.	.	.	.
.	32c/	.	.	.	.	.	.	.
.	32e-/	.	.	.	.	.	.	.
.	32c/	.	.	.	.	.	.	.
.	32e-/	.	.	.	.	.	.	.
.	32c/JJJ)	.	.	.	.	.	.	.
4r	(32B/LLL	>	8c\	Co	.	.	.	.
.	32c/	.	.	.	.	.	.	.
.	32e-/	.	.	.	.	.	.	.
.	32c/	.	.	.	.	.	.	.
.	32e-/	.	8c\	przez	.	.	.	.
.	32c/	.	.	.	.	.	.	.
.	32e-/	.	.	.	.	.	.	.
.	32c/JJJ)	]]	.	.	.	.	.	.
!!LO:LB:g=original	!	!	!	!	!	!	!	!
=140	=140	=140	=140	=140	=140	=140	=140	=140
*Xtremolo	*	*	*	*	*	*	*	*
(8FF-X/L 8F-X	(32An/LLL	p	2d-X\	pod-	.	2.ryy	.	.
.	32B-X/	.	.	.	.	.	.	.
.	32d-X/	.	.	.	.	.	.	.
.	32B-/	.	.	.	.	.	.	.
8GG-X/ 8G-X	32d-/	.	.	.	.	.	.	.
.	32B-/	.	.	.	.	.	.	.
.	32d-/	.	.	.	.	.	.	.
.	32B-/JJJ)	.	.	.	.	.	.	.
8FF-/ 8F-	(32A/LLL	.	.	.	.	.	.	.
.	32B-/	.	.	.	.	.	.	.
.	32d-/	.	.	.	.	.	.	.
.	32B-/	.	.	.	.	.	.	.
8GG-/ 8G-	32d-/	.	.	.	.	.	.	.
.	32B-/	.	.	.	.	.	.	.
.	32d-/	.	.	.	.	.	.	.
.	32B-/JJJ)	.	.	.	.	.	.	.
8FF-/ 8F-	(32A/LLL	.	8.B-\	-stęp	.	.	.	.
.	32B-/	.	.	.	.	.	.	.
.	32d-/	.	.	.	.	.	.	.
.	32B-/	.	.	.	.	.	.	.
8GG-/J) 8G-	32d-/	.	.	.	.	.	.	.
.	32B-/	.	.	.	.	.	.	.
.	32d-/	.	16d-\	swej	.	.	.	.
.	32B-/JJJ)	.	.	.	.	.	.	.
=141	=141	=141	=141	=141	=141	=141	=141	=141
(8FF-X/L 8F-X	(32An/LLL	.	4e-\	mat-	.	2.ryy	.	.
.	32B-/	.	.	.	.	.	.	.
.	32d-/	.	.	.	.	.	.	.
.	32B-/	.	.	.	.	.	.	.
8GG-/ 8G-	32d-/	.	.	.	.	.	.	.
.	32B-/	.	.	.	.	.	.	.
.	32d-/	.	.	.	.	.	.	.
.	32B-/JJJ)	.	.	.	.	.	.	.
8FF-/ 8F-	(32A/LLL	<	4d-\	-ki	.	.	.	.
.	32B-/	.	.	.	.	.	.	.
.	32d-/	.	.	.	.	.	.	.
.	32B-/	.	.	.	.	.	.	.
8GG-/ 8G-	32d-/	.	.	.	.	.	.	.
.	32B-/	.	.	.	.	.	.	.
.	32d-/	.	.	.	.	.	.	.
.	32B-/JJJ)	.	.	.	.	.	.	.
8FF-/ 8F-	(32A/LLL	.	4r	.	.	.	.	.
.	32B-/	.	.	.	.	.	.	.
.	32d-/	.	.	.	.	.	.	.
.	32B-/	.	.	.	.	.	.	.
8DD-/J) 8D-	32d-/	.	.	.	.	.	.	.
.	32B-/	.	.	.	.	.	.	.
.	32d-/	.	.	.	.	.	.	.
.	32B-/JJJ)	.	.	.	.	.	.	.
!!LO:LB:g=original	!	!	!	!	!	!	!	!
=142	=142	=142	=142	=142	=142	=142	=142	=142
*^	*	*	*	*	*	*	*	*
!	!	!	!	!	!	!LO:DY:a	!	!	!
(8Fn/L	2.BB-\	(32An/LLL	mf	8d-\	Dzie-	f	2.ryy	.	.
.	.	32B-/	.	.	.	.	.	.	.
.	.	32d-/	.	.	.	.	.	.	.
.	.	32B-/	.	.	.	.	.	.	.
8G-/	.	32d-/	.	8An\	-rżysz	.	.	.	.
.	.	32B-/	.	.	.	.	.	.	.
.	.	32d-/	.	.	.	.	.	.	.
.	.	32B-/JJJ)	.	.	.	.	.	.	.
8F/	.	(32A/LLL	.	4c\	i-	.	.	.	.
.	.	32B-/	.	.	.	.	.	.	.
.	.	32d-/	.	.	.	.	.	.	.
.	.	32B-/	.	.	.	.	.	.	.
8G-/	.	32d-/	.	.	.	.	.	.	.
.	.	32B-/	.	.	.	.	.	.	.
.	.	32d-/	.	.	.	.	.	.	.
.	.	32B-/JJJ)	.	.	.	.	.	.	.
8F/	.	(32A/LLL	.	8.B-\	-mię	.	.	.	.
.	.	32B-/	.	.	.	.	.	.	.
.	.	32d-/	.	.	.	.	.	.	.
.	.	32B-/	.	.	.	.	.	.	.
8G-/J)	.	32d-/	.	.	.	.	.	.	.
.	.	32B-/	.	.	.	.	.	.	.
.	.	32d-/	.	16d-\	do-	.	.	.	.
.	.	32B-/JJJ)	.	.	.	.	.	.	.
=143	=143	=143	=143	=143	=143	=143	=143	=143	=143
(8F/L	2.BB-\	(32An/LLL	.	4e-\	-stat-	.	2.ryy	.	.
.	.	32B-/	.	.	.	.	.	.	.
.	.	32d-/	.	.	.	.	.	.	.
.	.	32B-/	.	.	.	.	.	.	.
8G-/	.	32d-/	.	.	.	.	.	.	.
.	.	32B-/	.	.	.	.	.	.	.
.	.	32d-/	.	.	.	.	.	.	.
.	.	32B-/JJJ)	.	.	.	.	.	.	.
8F/	.	(32A/LLL	<	4d-\	-ki.	.	.	.	.
.	.	32B-/	.	.	.	.	.	.	.
.	.	32d-/	.	.	.	.	.	.	.
.	.	32B-/	.	.	.	.	.	.	.
8G-/	.	32d-/	.	.	.	.	.	.	.
.	.	32B-/	.	.	.	.	.	.	.
.	.	32d-/	.	.	.	.	.	.	.
.	.	32B-/JJJ)	.	.	.	.	.	.	.
8F/	.	(32A/LLL	.	4r	.	.	.	.	.
.	.	32B-/	.	.	.	.	.	.	.
.	.	32d-/	.	.	.	.	.	.	.
.	.	32B-/	.	.	.	.	.	.	.
8D-/J)	.	32d-/	.	.	.	.	.	.	.
.	.	32B-/	.	.	.	.	.	.	.
.	.	32d-/	.	.	.	.	.	.	.
.	.	32B-/JJJ)	.	.	.	.	.	.	.
*v	*v	*	*	*	*	*	*	*	*
*	*	*	*	*	*	*clefG2	*	*
!!LO:LB:g=original	!	!	!	!	!	!	!	!
=144	=144	=144	=144	=144	=144	=144	=144	=144
*	*tremolo	*	*	*	*	*	*	*
8CC/L 8C	32ee-\LLL 32gg- 32bb-	ff	2.ryy	.	.	[2.bb-\	Prze-	.
.	32b-\	.	.	.	.	.	.	.
.	32ee-\ 32gg- 32bb-	.	.	.	.	.	.	.
.	32b-\	.	.	.	.	.	.	.
8DD-/ 8D-	32ee-\ 32gg- 32bb-	.	.	.	.	.	.	.
.	32b-\	.	.	.	.	.	.	.
.	32ee-\ 32gg- 32bb-	.	.	.	.	.	.	.
.	32b-\	.	.	.	.	.	.	.
8CC/ 8C	32ee-\ 32gg- 32bb-	.	.	.	.	.	.	.
.	32b-\	.	.	.	.	.	.	.
.	32ee-\ 32gg- 32bb-	.	.	.	.	.	.	.
.	32b-\	.	.	.	.	.	.	.
8DD-/ 8D-	32ee-\ 32gg- 32bb-	.	.	.	.	.	.	.
.	32b-\	.	.	.	.	.	.	.
.	32ee-\ 32gg- 32bb-	.	.	.	.	.	.	.
.	32b-\	.	.	.	.	.	.	.
8CC/ 8C	32ee-\ 32gg- 32bb-	.	.	.	.	.	.	.
.	32b-\	.	.	.	.	.	.	.
.	32ee-\ 32gg- 32bb-	.	.	.	.	.	.	.
.	32b-\	.	.	.	.	.	.	.
8GGG-/J 8GG-	32ee-\ 32gg- 32bb-	.	.	.	.	.	.	.
.	32b-\	.	.	.	.	.	.	.
.	32ee-\ 32gg- 32bb-	.	.	.	.	.	.	.
.	32b-\JJJ	.	.	.	.	.	.	.
=145	=145	=145	=145	=145	=145	=145	=145	=145
4CC^^</ 4C	4b-^^\ 4ee- 4gg- 4bb-	.	2.ryy	.	.	4bb-\]	.	.
4r	4r	.	.	.	.	4b-\	-bóg!	.
4r;	4r;	.	.	.	.	4r;	.	.
=146	=146	=146	=146	=146	=146	=146	=146	=146
*	*^	*	*	*	*	*	*	*
!	!LO:TX:a:i:t=tranquillo	!	!	!	!	!	!	!	!
2.FF/ 2.F	2.g-/	(>8e-\L 8g-	p	2.ryy	.	.	2.r	.	.
.	.	8d-\ 8f	.	.	.	.	.	.	.
.	.	8c\ 8e-	.	.	.	.	.	.	.
.	.	8B-\ 8d-	.	.	.	.	.	.	.
.	.	8A-X\ 8c	.	.	.	.	.	.	.
.	.	8G-\J) 8B-	.	.	.	.	.	.	.
=147	=147	=147	=147	=147	=147	=147	=147	=147	=147
2.FFF/ 2.FF	(2g-/	8e-\L 8g-	.	2.ryy	.	.	2.r	.	.
.	.	8d-\ 8f	.	.	.	.	.	.	.
.	.	8c\ 8e-	.	.	.	.	.	.	.
.	.	8B-\ 8d-	.	.	.	.	.	.	.
.	8f/L	8A-\ 8c	.	.	.	.	.	.	.
.	16e-X/L	8En\J 8B-	.	.	.	.	.	.	.
.	16d-/JJ)	.	.	.	.	.	.	.	.
*	*v	*v	*	*	*	*	*	*	*
*	*	*	*	*	*	*clefF4	*	*
=148	=148	=148	=148	=148	=148	=148	=148	=148
!	!	!	!	!	!	!LO:TX:a:t=Proculus.	!	!
(8FFF/L 8FF	4F/ 4An 4c	.	2.ryy	.	.	4.F\	Ra-	.
8CC/J 8C	.	.	.	.	.	.	.	.
8EE-/L 8E-	4.A/ 4.c	.	.	.	.	.	.	.
8GG-/J 8G-	.	.	.	.	.	8An\	-nę	.
*	*	*	*	*	*	*Xbrackettup	*	*
8FF/L 8F	.	.	.	.	.	12c\	wzna-	.
.	.	.	.	.	.	12d-\	-wiam	.
8FFF/J) 8FF	8G-/ 8A 8c	.	.	.	.	.	.	.
.	.	.	.	.	.	12A\	bo-	.
=149	=149	=149	=149	=149	=149	=149	=149	=149
4BBB-/ 4BB-	8A-/ 8d- 8f	.	2.ryy	.	.	(8c\L	-les-	.
.	(8dd-\L 8ff	.	.	.	.	8B-\J)	.	.
4r	8cc\ 8ee-	.	.	.	.	4F\	-ną.	.
.	8b-\ 8dd-	.	.	.	.	.	.	.
4r	8f\ 8cc	.	.	.	.	4r	.	.
.	8d-\J) 8b-	.	.	.	.	.	.	.
*	*	*	*clefF4	*	*	*	*	*
!!LO:PB:g=original	!	!	!	!	!	!	!	!
=150	=150	=150	=150	=150	=150	=150	=150	=150
!LO:TX:t=P:problem:mixed beam	!	!	!	!	!	!	!	!
8BBB-/L 8BB-	(4.g-\ 4.b- 4.ee-	.	4r	.	.	2.ryy	.	.
8E-\J 8G- 8B- 8c	.	.	.	.	.	.	.	.
4G-\ 4B- 4c 4e-	.	.	4B-\	Pra-	.	.	.	.
.	8ff\	>	.	.	.	.	.	.
!	!LO:TUP:a	!	!	!	!	!	!	!
4r	12ee-\L	.	4G-\	-wda?	.	.	.	.
.	12b-\	.	.	.	.	.	.	.
.	12cc\J)	] p	.	.	.	.	.	.
=151	=151	=151	=151	=151	=151	=151	=151	=151
*	*^	*	*	*	*	*	*	*
(8BBB-/L 8BB-	(8dd-/L	4d-\ 4f	.	4r	.	.	2.ryy	.	.
8DD-/ 8D-	8b-/J)	.	.	.	.	.	.	.	.
8AAAn/ 8AAn	[2d-/ [2f	2ryy	.	4r	.	.	.	.	.
8BBB-/ 8BB-	.	.	.	.	.	.	.	.	.
8DD-/ 8D-	.	.	.	8r	.	.	.	.	.
!	!	!	!	!	!	!LO:DY:a	!	!	!
8AAA/J 8AA	.	.	.	8d-\	U-	p	.	.	.
*	*v	*v	*	*	*	*	*	*	*
=152	=152	=152	=152	=152	=152	=152	=152	=152
8CC/L 8C	2d-/] 2f]	.	8An\	-chy-	.	2.ryy	.	.
8BBB-/J 8BB-	.	.	8B-\	-lam	.	.	.	.
4BBB-/) 4BB-	.	.	8d-\	rą-	.	.	.	.
.	.	.	8A\	-bek	.	.	.	.
4r	4r	.	8B-\	ta-	.	.	.	.
.	.	.	8d-\	-jem-	.	.	.	.
*	*clefF4	*	*	*	*	*	*	*
=153	=153	=153	=153	=153	=153	=153	=153	=153
*	*^	*	*	*	*	*	*	*
[2.GGG-X/	[2.D-/ [2.F-X	16r	.	2.F-X\	-ni-	.	2.ryy	.	.
*	*	*Xtremolo	*	*	*	*	*	*	*
.	.	(16C\LL	pp	.	.	.	.	.	.
.	.	16BB-\	.	.	.	.	.	.	.
.	.	16C\JJ	.	.	.	.	.	.	.
.	.	16BB-\LL	.	.	.	.	.	.	.
.	.	16C\	.	.	.	.	.	.	.
.	.	16BB-\	.	.	.	.	.	.	.
.	.	16C\JJ	.	.	.	.	.	.	.
.	.	16BB-\LL	.	.	.	.	.	.	.
.	.	16C\	.	.	.	.	.	.	.
.	.	16BB-\	.	.	.	.	.	.	.
.	.	16C\JJ	.	.	.	.	.	.	.
=154	=154	=154	=154	=154	=154	=154	=154	=154	=154
4GGG-/]	4D-/] 4F-X]	4BB-\)	.	2D-\	-cy.	.	2.ryy	.	.
4r	4r	4ryy	.	.	.	.	.	.	.
4r;	4r;	4ryy	.	4r;	.	.	.	.	.
*	*v	*v	*	*	*	*	*	*	*
*	*clefG2	*	*	*	*	*clefG2	*	*
!!LO:LB:g=original	!	!	!	!	!	!	!	!
=155||	=155||	=155||	=155||	=155||	=155||	=155||	=155||	=155||
*k[]	*k[]	*	*k[]	*	*	*k[]	*	*
!	!LO:TX:a:B:t=Allegro.	!	!	!	!	!LO:TX:a:B:t=Allegro.	!	!
16r	2.c#X^^</ 2.e	f	2.ryy	.	.	2.r	.	.
(16cn\LL	.	.	.	.	.	.	.	.
16B\	.	.	.	.	.	.	.	.
16c\JJ	.	.	.	.	.	.	.	.
16B\LL	.	.	.	.	.	.	.	.
16A#X\	.	.	.	.	.	.	.	.
16An\	.	.	.	.	.	.	.	.
16G#X\JJ	.	.	.	.	.	.	.	.
8Gn\)	.	.	.	.	.	.	.	.
8r	.	.	.	.	.	.	.	.
=156	=156	=156	=156	=156	=156	=156	=156	=156
16r	2.e^^</ 2.g	.	2.ryy	.	.	2.r	.	.
(16d#X\LL	.	.	.	.	.	.	.	.
16dn\	.	.	.	.	.	.	.	.
16d#X\JJ	.	.	.	.	.	.	.	.
16dn\LL	.	.	.	.	.	.	.	.
16c#X\	.	.	.	.	.	.	.	.
16cn\	.	.	.	.	.	.	.	.
16B\JJ	.	.	.	.	.	.	.	.
8A#X\)	.	.	.	.	.	.	.	.
8r	.	.	.	.	.	.	.	.
=157	=157	=157	=157	=157	=157	=157	=157	=157
16r	[2.g/ [2.a#X	.	2.ryy	.	.	2.r	.	.
(16f#X\LL	.	.	.	.	.	.	.	.
16e#X\	.	.	.	.	.	.	.	.
16f#\JJ	.	.	.	.	.	.	.	.
16e#\LL	.	.	.	.	.	.	.	.
16en\	.	.	.	.	.	.	.	.
16d#X\	.	.	.	.	.	.	.	.
16dn\JJ	.	.	.	.	.	.	.	.
16c#X\LL	.	.	.	.	.	.	.	.
16d\	.	.	.	.	.	.	.	.
16d#X\	.	.	.	.	.	.	.	.
16e\JJ	.	.	.	.	.	.	.	.
=158	=158	=158	=158	=158	=158	=158	=158	=158
16e#X\LL	2.g/] 2.a#X]	.	2.ryy	.	.	4r	.	.
16f#X\	.	.	.	.	.	.	.	.
16e#\	.	.	.	.	.	.	.	.
16f#\JJ	.	.	.	.	.	.	.	.
16e#\LL	.	.	.	.	.	4r	.	.
16en\	.	.	.	.	.	.	.	.
16d#X\	.	.	.	.	.	.	.	.
16dn\JJ	.	.	.	.	.	.	.	.
16c#X\LL	.	.	.	.	.	8r	.	.
16d\	.	.	.	.	.	.	.	.
!	!	!	!	!	!	!	!	!LO:DY:a
16c#\	.	.	.	.	.	8a#X/	Nik-	f
16d\JJ)	.	.	.	.	.	.	.	.
!!LO:LB:g=original	!	!	!	!	!	!	!	!
=159	=159	=159	=159	=159	=159	=159	=159	=159
*^	*	*	*	*	*	*	*	*
(16c#X/LL	[2.F#X\	4e^^/ 4g 4a#X 4dd	.	2.ryy	.	.	4dd\	-czem-	.
16d/	.	.	.	.	.	.	.	.	.
16c#/	.	.	.	.	.	.	.	.	.
16d/JJ	.	.	.	.	.	.	.	.	.
16c#/LL	.	4e^^/ 4g 4a# 4cc	.	.	.	.	4cc#X\	-ny!	.
16d/	.	.	.	.	.	.	.	.	.
16c#/	.	.	.	.	.	.	.	.	.
16d/JJ	.	.	.	.	.	.	.	.	.
16c#/LL	.	4r	.	.	.	.	4r	.	.
16d/	.	.	.	.	.	.	.	.	.
16c#/	.	.	.	.	.	.	.	.	.
16d/JJ)	.	.	.	.	.	.	.	.	.
*	*	*	*	*	*	*	*clefF4	*	*
=160	=160	=160	=160	=160	=160	=160	=160	=160	=160
!	!	!	!	!	!	!	!LO:TX:a:t=Proculus,	!	!
(16c#X/LL	2.F#X\_	4e/ 4f#X 4a#X 4dd	.	2.ryy	.	.	[2.c#X\	Milcz!	.
16d/	.	.	.	.	.	.	.	.	.
16c#/	.	.	.	.	.	.	.	.	.
16d/JJ	.	.	.	.	.	.	.	.	.
16c#/LL	.	[2e^^/ [2f# [2a# [2cc#X	.	.	.	.	.	.	.
16d/	.	.	.	.	.	.	.	.	.
16c#/	.	.	.	.	.	.	.	.	.
16d/JJ	.	.	.	.	.	.	.	.	.
16c#/LL	.	.	.	.	.	.	.	.	.
16d/	.	.	.	.	.	.	.	.	.
16c#/	.	.	.	.	.	.	.	.	.
16d/JJ	.	.	.	.	.	.	.	.	.
=161	=161	=161	=161	=161	=161	=161	=161	=161	=161
4c#X/)	4F#X\]	4e/] 4f#] 4a#] 4cc#]	.	2.ryy	.	.	4c#\]	.	.
4r	2ryy	4r	.	.	.	.	4r	.	.
!	!	!	!	!	!	!	!LO:TX:a:i:t=molto rallent.	!	!
4r	.	4r	.	.	.	.	4F#X\	i	.
*v	*v	*	*	*	*	*	*	*	*
=162	=162	=162	=162	=162	=162	=162	=162	=162
2.DD/ 2.D	2.An/ 2.d 2.f#X	p	2.ryy	.	.	4An\	słu-	.
.	.	.	.	.	.	4F#X\	-chaj	.
.	.	.	.	.	.	4B\	wy-	.
=163	=163	=163	=163	=163	=163	=163	=163	=163
[2.FFF#X/ [2.FF#X	[2.A/ [2.c#X [2.f#X	.	2.ryy	.	.	2.A\	-ro-	.
=164	=164	=164	=164	=164	=164	=164	=164	=164
2.FFF#/_ 2.FF#_	2.A/_ 2.c#_ 2.f#_	.	2.ryy	.	.	2C#X/	-ku.	.
.	.	.	.	.	.	4r	.	.
!!LO:LB:g=original	!	!	!	!	!	!	!	!
=165||	=165||	=165||	=165||	=165||	=165||	=165||	=165||	=165||
*k[f#c#]	*k[f#c#]	*	*k[f#c#]	*	*	*k[f#c#]	*	*
*M4/4	*M4/4	*	*M4/4	*	*	*M4/4	*	*
*met(c)	*met(c)	*	*met(c)	*	*	*met(c)	*	*
!	!LO:TX:a:B:t=Poco Andante.	!	!LO:TX:a:B:t=Poco Andante.	!	!	!	!	!
4FFF#/] 4FF#]	4A/] 4c#] 4f#]	.	1r	.	.	1ryy	.	.
4r	4r	.	.	.	.	.	.	.
4r	4r	.	.	.	.	.	.	.
8.r	8.r	.	.	.	.	.	.	.
(16EE/ 16E	(16A#X/ 16c# 16f#	p	.	.	.	.	.	.
=166	=166	=166	=166	=166	=166	=166	=166	=166
4..DD/ 4..D	4..B/ 4..d 4..g	.	1r	.	.	1ryy	.	.
16CC#/ 16C#	16c#/ 16e 16an	.	.	.	.	.	.	.
4..DD/) 4..D	4..B/) 4..d 4..g	.	.	.	.	.	.	.
(16EE/ 16E	(16A#X/ 16c# 16f#	.	.	.	.	.	.	.
=167	=167	=167	=167	=167	=167	=167	=167	=167
4..DD/ 4..D	4..B/ 4..d 4..g	.	1r	.	.	1ryy	.	.
16CC#/) 16C#	16B/) 16e 16g 16b	.	.	.	.	.	.	.
4CC#/ 4C#	4B/ 4e 4g 4b	.	.	.	.	.	.	.
4r	4r	.	.	.	.	.	.	.
=168	=168	=168	=168	=168	=168	=168	=168	=168
8GG'/ 8C# 8E	8B'/ 8c#	.	1r	.	.	1ryy	.	.
8r	8r	.	.	.	.	.	.	.
8r	8r	.	.	.	.	.	.	.
8FF#'/ 8C# 8E	8F#/ 8A#X 8f#	.	.	.	.	.	.	.
8FF#'/ 8C# 8E	8F#/ 8A# 8f#	.	.	.	.	.	.	.
8r	8r	.	.	.	.	.	.	.
4r	4r	.	.	.	.	.	.	.
=169	=169	=169	=169	=169	=169	=169	=169	=169
[1F#	1r	p	1r	.	.	1ryy	.	.
=170	=170	=170	=170	=170	=170	=170	=170	=170
*^	*	*	*	*	*	*	*	*
!	!	!	!	!	!	!LO:DY:a	!	!	!
1F#]	8BB'\L	8B/L 8d 8f#	.	4F#\	Ja	p	1ryy	.	.
.	8FF#'\J	8B/J 8d 8f#	.	.	.	.	.	.	.
.	[4BB\	4B/ 4d 4f#	.	8D\	ta-	.	.	.	.
.	.	.	.	8C#/	-jem-	.	.	.	.
.	8BB\L]	8B/L 8d 8f#	.	4.D\	-ni-	.	.	.	.
.	8FF#'\J	8B/J 8d 8f#	.	.	.	.	.	.	.
.	[4BB\	4B/ 4d 4f#	.	.	.	.	.	.	.
.	.	.	.	8F#\	-cę	.	.	.	.
!!LO:LB:g=original	!	!	!	!	!	!	!	!	!
=171	=171	=171	=171	=171	=171	=171	=171	=171	=171
2F#/	8BB\L]	8A#X/L 8d 8f#	.	4A#X\	two-	.	1ryy	.	.
.	8FF#'\J	8A#/J 8d 8f#	.	.	.	.	.	.	.
.	(4BB\	4B/ 4d 4f#	.	8B\	-ją	.	.	.	.
.	.	.	.	8A#\	u-	.	.	.	.
2ryy	8BB\L)	8F#</L 8d 8f#	.	4F#\	-kry-	.	.	.	.
.	8FF#'<\J	8F#</J 8d 8f#	.	.	.	.	.	.	.
.	4BB\	4G</ 4B 4e	.	8E\	-ję,	.	.	.	.
.	.	.	.	8r	.	.	.	.	.
*v	*v	*	*	*	*	*	*	*	*
=172	=172	=172	=172	=172	=172	=172	=172	=172
8BB\L	8G</L 8B< 8d 8g	.	8G\	Te-	.	1ryy	.	.
8FF#\J	8F#</J 8B< 8d 8f#	.	8F#\	-go	.	.	.	.
4BB\	4F#</ 4B< 4d 4f#	.	8C#/	co	.	.	.	.
.	.	.	8D\	ją	.	.	.	.
8D\L 8Fn	8A</L 8d 8fn	.	4An\	zdra-	.	.	.	.
8AA\J	8A</J 8d 8f	.	.	.	.	.	.	.
4D\	4A</ 4d 4f	.	8D\	-dził,	.	.	.	.
.	.	.	16r	.	.	.	.	.
.	.	.	16Fn\	za-	.	.	.	.
=173	=173	=173	=173	=173	=173	=173	=173	=173
8AA/L	8A/L 8cn 8e	.	4A\	-bi-	.	1ryy	.	.
8EE/J	8A/J 8c 8e	.	.	.	.	.	.	.
2AA/	4A/ 4c 4e	.	4Cn/	-ję,	.	.	.	.
.	8A/L 8c#X 8e#X	.	2r	.	.	.	.	.
.	8A/J 8c# 8e#	.	.	.	.	.	.	.
4GG/	4B/ 4c# 4e#	.	.	.	.	.	.	.
=174	=174	=174	=174	=174	=174	=174	=174	=174
8FF#'/L	8A#X/L 8c# 8f#	.	4F#\	Cie-	.	1ryy	.	.
8AA#X'/	8A#/ 8c# 8f#	.	.	.	.	.	.	.
8BB'/	8F#/ 8B 8d	.	8D\	-bie	.	.	.	.
8FF#'/J	8F#/J 8A# 8c#	.	8C#/	o-	.	.	.	.
8BB'/L	4.F#/ 4.B 4.d	.	4.D\	-sło-	.	.	.	.
8AA#'/	.	.	.	.	.	.	.	.
8BB'/	.	.	.	.	.	.	.	.
8FF#'/J	8B/ 8d 8f#	.	8F#\	-nię	.	.	.	.
!!LO:PB:g=original	!	!	!	!	!	!	!	!
=175	=175	=175	=175	=175	=175	=175	=175	=175
*	*^	*	*	*	*	*	*	*
!	!	!	!	!	!	!LO:HP:a	!	!	!
8BB'/L	4A#X/ 4d 4f# 4a#X	2ryy	.	4A#X\	zwol-	<	1ryy	.	.
8FF#'/	.	.	.	.	.	.	.	.	.
8BB'/	8B/L 8d 8f# 8b	.	<	8B\	-nię	.	.	.	.
8C#'/J	8A#/J 8e 8f# 8a#	.	.	8A#\	od	.	.	.	.
8E/L	4f#/	8A#X\L	.	4F#\	ka-	.	.	.	.
8D/	.	8B\J	.	.	.	.	.	.	.
8BB/	8G/L 8d 8f# 8g#X	4ryy	.	8G#X\	-ry,	.	.	.	.
(16AAn/L	8An/J 8c# 8e 8an	.	.	16r	.	.	.	.	.
16GGn/JJ)	.	.	.	16An\	Wy-	.	.	.	.
*	*v	*v	*	*	*	*	*	*	*
=176	=176	=176	=176	=176	=176	=176	=176	=176
4.FF#/	8d/L 8a 8dd	mf	2d\	-nio-	.	1ryy	.	.
.	8d/ 8a#X 8cc#	.	.	.	.	.	.	.
.	8d/ 8an 8ccn	.	.	.	.	.	.	.
8GG/	8d/J 8g 8b-X	.	.	.	.	.	.	.
4BB-X/	8d/L 8e 8g	.	8Gn\	-sę	.	.	.	.
.	8d/J 8e 8g	.	16r	.	.	.	.	.
.	.	.	16F#\	do	.	.	.	.
8GG'/L	4d/ 4g 4b-	.	8.G\	me-	.	.	.	.
8E'/J	.	.	.	.	.	.	.	.
.	.	.	16B-X\	-go	.	.	.	.
=177	=177	=177	=177	=177	=177	=177	=177	=177
1DD 1D	8d/L 8f# 8dd	.	2d\	bo-	.	1ryy	.	.
.	8d/J 8f# 8a	.	.	.	.	.	.	.
.	4d/ 4f# 4dd	.	.	.	.	.	.	.
.	8d/L 8f# 8a	.	4D\	-ku,	.	.	.	.
.	8A/J 8d 8f#	.	.	.	.	.	.	.
.	4d/ 4f# 4a	.	4r	.	.	.	.	.
=178	=178	=178	=178	=178	=178	=178	=178	=178
2CC#/ 2C#	8e/L 8f# 8a#X	.	4r	.	.	1ryy	.	.
.	8A#X/J 8e 8f#	.	.	.	.	.	.	.
!	!	!	!	!	!LO:DY:a	!	!	!
.	4e/ 4f# 4a#	.	4F#\	Lecz	p	.	.	.
2BBB/ 2BB	8d/L 8g 8b	.	4G\	ty	.	.	.	.
.	8B/J 8d 8g	.	.	.	.	.	.	.
.	4d/ 4g 4b	.	8.d\	mi	.	.	.	.
.	.	.	16G\	do-	.	.	.	.
!!LO:LB:g=original	!	!	!	!	!	!	!	!
=179	=179	=179	=179	=179	=179	=179	=179	=179
2AAA/ 2AA	8g/L 8an 8cc#	.	4.An\	-cho-	.	1ryy	.	.
.	8c#/J 8g 8a	.	.	.	.	.	.	.
.	4g/ 4a 4cc#	.	.	.	.	.	.	.
.	.	.	8B\	-wasz	.	.	.	.
2DD/ 2D	8f#/L 8a 8dd	.	4F#\	wia-	.	.	.	.
.	8d/J 8f# 8a	.	.	.	.	.	.	.
.	4f#/ 4a 4dd	.	8D\	-ry	.	.	.	.
.	.	.	8r	.	.	.	.	.
=180	=180	=180	=180	=180	=180	=180	=180	=180
!	!	!	!	!	!LO:DY:a	!	!	!
1GG 1G	8e/L 8b 8cc#	<	8c#\	bę-	f	1ryy	.	.
.	8c#/J 8e 8b	.	8d\	-dziesz	.	.	.	.
.	4e/ 4b 4cc#	.	2e\	mo-	.	.	.	.
.	8b/L 8cc# 8ee	.	.	.	.	.	.	.
.	8e/J 8b 8cc#	[[	.	.	.	.	.	.
.	4e/ 4b 4cc# 4ee	f	4E\	-ja!	.	.	.	.
*	*	*	*clefG2	*	*	*	*	*
=181	=181	=181	=181	=181	=181	=181	=181	=181
!	!	!	!LO:TX:a:t=Livia	!	!LO:DY:a	!	!	!
8CCn/L 8Cn	8ccn\L 8ee 8gg	.	[1gg	Nie!	f	1ryy	.	.
8BBB/ 8BB	8g\J 8cc 8ee	.	.	.	.	.	.	.
8CC/ 8C	[4cc\ [4ee [4gg	.	.	.	.	.	.	.
8EE/J 8E	.	.	.	.	.	.	.	.
8FF#\L 8F#	8cc\L] 8ee] 8gg]	.	.	.	.	.	.	.
8GG\ 8G	8g\J 8cc 8ee	.	.	.	.	.	.	.
8C\ 8cn	4cc\ 4ee 4gg	.	.	.	.	.	.	.
8AA-X\J 8A-X	.	.	.	.	.	.	.	.
=182	=182	=182	=182	=182	=182	=182	=182	=182
8.GG/L 8.G	4g\ 4ccn 4ee 4gg	.	4gg\]	.	.	1ryy	.	.
16CCn/Jk 16Cn	.	.	.	.	.	.	.	.
4CC/ 4C	4r	.	4r	.	.	.	.	.
*	*	*	*clefF4	*	*	*	*	*
!	!	!	!LO:TX:a:t=Proculus.	!	!	!	!	!
2r	2r	.	4cn\	Więc	.	.	.	.
.	.	.	8.B\	jesz-	.	.	.	.
.	.	.	16c\	-cze	.	.	.	.
!!LO:LB:g=original	!	!	!	!	!	!	!	!
=183	=183	=183	=183	=183	=183	=183	=183	=183
8AAA/L 8AA	8ccn\L 8ee 8gg#X	.	1e	ma-	.	1ryy	.	.
8GGG#X/ 8GG#X	8g#X\J 8cc 8ee	.	.	.	.	.	.	.
8AAA/ 8AA	[4cc\ [4ee [4gg#	.	.	.	.	.	.	.
8CCn/J 8Cn	.	.	.	.	.	.	.	.
8EE/L 8E	8cc\L] 8ee] 8gg#]	.	.	.	.	.	.	.
8GG#X/J 8G#X	8g#\J 8cc 8ee	.	.	.	.	.	.	.
8BB\L 8B	4cc\ 4ee 4gg#	.	.	.	.	.	.	.
8AA\J 8A	.	.	.	.	.	.	.	.
=184	=184	=184	=184	=184	=184	=184	=184	=184
4AA\ 4A	4a\ 4ccn 4ee 4aa	.	4E\	-ło?	.	1ryy	.	.
4r	4r	.	4r	.	.	.	.	.
2r	2r	.	4.cn\	Chcesz,	.	.	.	.
.	.	.	8c\	by	.	.	.	.
=185	=185	=185	=185	=185	=185	=185	=185	=185
8AA\L 8C#X 8Fn 8A	8a\L 8cc#X 8ffn 8aa	.	2fn\	chło-	.	1ryy	.	.
8AA\J 8C# 8F 8A	8a\J 8cc# 8ff 8aa	fz	.	.	.	.	.	.
8r	8r	.	.	.	.	.	.	.
8AA\ 8C# 8F 8A	8a\ 8cc# 8ff 8aa	fz	.	.	.	.	.	.
8r	8r	.	2Fn\	-sta	.	.	.	.
8AA\ 8C# 8F 8A	8a\ 8cc# 8ff 8aa	fz	.	.	.	.	.	.
8r	8r	.	.	.	.	.	.	.
8AA\ 8C# 8F 8A	8a\ 8cc# 8ff 8aa	fz	.	.	.	.	.	.
=186	=186	=186	=186	=186	=186	=186	=186	=186
8r	8r	.	4.A\	twe	.	1ryy	.	.
8BB\ 8D 8Fn 8A	8a\ 8dd 8ffn 8aa	fz	.	.	.	.	.	.
8r	8r	.	.	.	.	.	.	.
8BB\ 8D 8F 8A	8a\ 8dd 8ff 8aa	fz	8A\	po-	.	.	.	.
8r	8r	.	4B\	-cię-	.	.	.	.
8BB\ 8D 8F 8A	8a\ 8dd 8ff 8aa	fz	.	.	.	.	.	.
8r	8r	.	4d\	-ła	.	.	.	.
8BB\ 8D 8F 8A	8a\ 8dd 8ff 8aa	fz	.	.	.	.	.	.
*kcancel	*kcancel	*	*kcancel	*	*	*kcancel	*	*
=187||	=187||	=187||	=187||	=187||	=187||	=187||	=187||	=187||
*k[]	*k[]	*	*k[]	*	*	*k[]	*	*
8r	8r	.	1f	cia-	.	1ryy	.	.
8BB\ 8D 8F 8B	8b\ 8dd 8ff 8bb	fz	.	.	.	.	.	.
8r	8r	.	.	.	.	.	.	.
8BB\ 8D 8F 8B	8b\ 8dd 8ff 8bb	fz	.	.	.	.	.	.
8r	8r	.	.	.	.	.	.	.
8BB\ 8D 8F 8B	8b\ 8dd 8ff 8bb	fz	.	.	.	.	.	.
8r	8r	.	.	.	.	.	.	.
8BB\ 8D 8F 8B	8b\ 8dd 8ff 8bb	fz	.	.	.	.	.	.
!!LO:LB:g=original	!	!	!	!	!	!	!	!
=188	=188	=188	=188	=188	=188	=188	=188	=188
8r	8r	.	2F\	-ło?	.	1ryy	.	.
8GG/ 8D 8G	8dd\ 8ff 8aa-X 8bb 8ddd	fz	.	.	.	.	.	.
8r	8r	.	.	.	.	.	.	.
8GG/ 8D 8G	8dd\ 8ff 8aa- 8bb 8ddd	fz	.	.	.	.	.	.
8r	8r	.	4r	.	.	.	.	.
8GG/ 8D 8G	8dd\ 8ff 8aa- 8bb 8ddd	fz	.	.	.	.	.	.
*	*	*	*clefG2	*	*	*	*	*
!	!	!	!LO:TX:a:t=Livia.	!	!	!	!	!
8r	8r	.	8r	.	.	.	.	.
8GG/ 8D 8G	8dd\ 8ff 8aa- 8bb 8ddd	fz	8dd\	Li-	.	.	.	.
=189	=189	=189	=189	=189	=189	=189	=189	=189
4r	4r	.	8aa-X\	-to-	.	1ryy	.	.
.	.	.	8gg\	-ści	.	.	.	.
8GGG/ 8GG	8dd\ 8ff 8aa-X 8bb 8ddd	fz	4r	.	.	.	.	.
8r	8r	.	.	.	.	.	.	.
4r	4r	.	8ff#X\	pa-	.	.	.	.
.	.	.	8ee-X\	-nie!	.	.	.	.
8GGG/ 8GG	8ee-X\ 8ff#X 8aa- 8ccc 8eee-X	fz	8r	.	.	.	.	.
8r	8r	.	8dd\	li-	.	.	.	.
=190	=190	=190	=190	=190	=190	=190	=190	=190
4r	4r	.	8aa-X\	-to-	.	1ryy	.	.
.	.	.	8gg\	-ści!	.	.	.	.
16GGG/LL 16GG	16dd\LL 16ff 16aa-X 16bb 16ddd	.	4r	.	.	.	.	.
16BBB/ 16BB	16b\ 16bb	.	.	.	.	.	.	.
16DD/ 16D	16a-X\ 16aa-	.	.	.	.	.	.	.
16FF/JJ 16F	16f\JJ 16ff	.	.	.	.	.	.	.
4GG/ 4G	4d/ 4f 4a- 4b 4dd	.	4r	.	.	.	.	.
4r	4r	.	8r	.	.	.	.	.
*	*	*	*clefF4	*	*	*	*	*
!	!	!	!LO:TX:a:t=Proculus.	!	!LO:DY:a	!	!	!
.	.	.	8d\	Na-	f	.	.	.
=191	=191	=191	=191	=191	=191	=191	=191	=191
2r	2r	.	1g	-resz-	.	1ryy	.	.
4r	4r	.	.	.	.	.	.	.
8.r	8.r	.	.	.	.	.	.	.
16GG/	16g\ 16b 16ee-X 16gg	f	.	.	.	.	.	.
=192	=192	=192	=192	=192	=192	=192	=192	=192
*tremolo	*	*	*	*	*	*	*	*
32GGG/LLL	[2.g\ [2.b [2.ee-X [2.gg	.	2G\	-cie!	.	1ryy	.	.
32GG/	.	.	.	.	.	.	.	.
32GGG/	.	.	.	.	.	.	.	.
32GG/	.	.	.	.	.	.	.	.
32GGG/	.	.	.	.	.	.	.	.
32GG/	.	.	.	.	.	.	.	.
32GGG/	.	.	.	.	.	.	.	.
32GG/	.	.	.	.	.	.	.	.
32GGG/	.	.	.	.	.	.	.	.
32GG/	.	.	.	.	.	.	.	.
32GGG/	.	.	.	.	.	.	.	.
32GG/	.	.	.	.	.	.	.	.
32GGG/	.	.	.	.	.	.	.	.
32GG/	.	.	.	.	.	.	.	.
32GGG/	.	.	.	.	.	.	.	.
32GG/	.	.	.	.	.	.	.	.
32GGG/	.	.	2r	.	.	.	.	.
32GG/	.	.	.	.	.	.	.	.
32GGG/	.	.	.	.	.	.	.	.
32GG/	.	.	.	.	.	.	.	.
32GGG/	.	.	.	.	.	.	.	.
32GG/	.	.	.	.	.	.	.	.
32GGG/	.	.	.	.	.	.	.	.
32GG/JJJ	.	.	.	.	.	.	.	.
8.GGG/L 8.GG	8.g\L] 8.b] 8.ee-] 8.gg]	.	.	.	.	.	.	.
16GG/Jk 16G	16g\Jk 16b 16ee- 16gg	.	.	.	.	.	.	.
!!LO:LB:g=original	!	!	!	!	!	!	!	!
=193	=193	=193	=193	=193	=193	=193	=193	=193
4..FF/ 4..F	4..a-X\ 4..cc 4..ff 4..aa-X	.	1r	.	.	1ryy	.	.
16DD-X/ 16D-X	16b-X\ 16dd-X 16ff 16bb-X	.	.	.	.	.	.	.
4..FF/ 4..F	4..a-\ 4..cc 4..ff 4..aa-	.	.	.	.	.	.	.
16GG/ 16G	16g\ 16bn 16ddn 16gg	.	.	.	.	.	.	.
=194	=194	=194	=194	=194	=194	=194	=194	=194
4..DDn/ 4..Dn	4..a-X\ 4..cc 4..ff 4..aa-X	.	2r	.	.	1ryy	.	.
16AAA-X/ 16AA-X	16cc\ 16een 16aa- 16ccc	.	.	.	.	.	.	.
4AAA-/ 4AA-	4cc\ 4ee 4aa- 4ccc	.	4r	.	.	.	.	.
4FF/ 4F	4cc\ 4ff 4aa- 4ccc	.	8r	.	.	.	.	.
.	.	.	8c\	Więc	.	.	.	.
=195	=195	=195	=195	=195	=195	=195	=195	=195
4DDn/ 4Dn	4ddn\ 4ff 4aa-X 4dddn	fz	4.d\	zga-	.	1ryy	.	.
4r	4r	.	.	.	.	.	.	.
.	.	.	8F\	-dzasz	.	.	.	.
2r;	2r;	.	4F\	się?	.	.	.	.
.	.	.	4r;	.	.	.	.	.
=196	=196	=196	=196	=196	=196	=196	=196	=196
*^	*^	*	*	*	*	*	*	*
!	!	!	!	!	!LO:TX:a:t=(Livia drży)	!	!	!	!	!
4r	2ryy	4r	2ryy	.	1r	.	.	1ryy	.	.
(4BBBn/ 4BBn	.	4A-X/ 4e-X 4f	.	f	.	.	.	.	.	.
[8A-X/	8CC\ 8C	[8f/	8d\L	.	.	.	.	.	.	.
8ryy	8ryy	8ryy	8d-X\J	.	.	.	.	.	.	.
4A-/]	16DD-X\LL 16D-X	4f/]	16c\LL	.	.	.	.	.	.	.
.	16FF\ 16F	.	16B\	.	.	.	.	.	.	.
.	16DD-\ 16D-	.	16c\	.	.	.	.	.	.	.
.	16CC\JJ) 16C	.	16d-\JJ	.	.	.	.	.	.	.
*v	*v	*	*	*	*	*	*	*	*	*
=197	=197	=197	=197	=197	=197	=197	=197	=197	=197
(4BBB/ 4BB	8ryy	(<8e-X\L	.	1r	.	.	1ryy	.	.
!	!LO:N:vis=2	!	!	!	!	!	!	!	!
.	[4.f/	8dn\	.	.	.	.	.	.	.
8CC/L 8C	.	8d-X\	.	.	.	.	.	.	.
8DD-X/J) 8D-X	.	8c\J)	.	.	.	.	.	.	.
4FF/ 4F	4A-/ 4Bn 4f]	2ryy	.	.	.	.	.	.	.
4r;	4r;	.	.	.	.	.	.	.	.
*	*v	*v	*	*	*	*	*	*	*
*	*	*	*clefG2	*	*	*clefG2	*	*
!!LO:PB:g=original	!	!	!	!	!	!	!	!
=198	=198	=198	=198	=198	=198	=198	=198	=198
1r	2f/ 2a-X	pp	1ryy	.	.	4r	.	.
!	!	!	!	!	!	!	!	!LO:DY:a
.	.	.	.	.	.	(4a-X/	Tak!	pp
.	2r	.	.	.	.	8f/)	.	.
.	.	.	.	.	.	8r	.	.
.	.	.	.	.	.	4r	.	.
=199	=199	=199	=199	=199	=199	=199	=199	=199
*	*^	*	*	*	*	*	*	*
4r	4r	4ryy	.	1ryy	.	.	1r	.	.
4.DD-X/ 4.D-X	2.b^^/	4.f\ 4.a-X	f	.	.	.	.	.	.
(8EE-X/ 8E-X	.	(>8e-X\ 8g	p	.	.	.	.	.	.
16FF/LL 16F	.	16d-X\LL 16f	.	.	.	.	.	.	.
16GG/ 16G	.	16c\ 16e-	.	.	.	.	.	.	.
16FF/ 16F	.	16d-\ 16f	.	.	.	.	.	.	.
16EE-/JJ) 16E-	.	16e-\JJ) 16g	.	.	.	.	.	.	.
=200	=200	=200	=200	=200	=200	=200	=200	=200	=200
*^	*	*	*	*	*	*	*	*	*
[2Bn/	(4DD-X\ 4D-X	[2bn/	(8g\L 8b-X	.	1ryy	.	.	1r;	.	.
.	.	.	8f#X\ 8a	.	.	.	.	.	.	.
.	8DDn\L 8Dn	.	8fn\ 8a-X	.	.	.	.	.	.	.
.	16EE-X\L 16E-X	.	8e-X\J) 8g	.	.	.	.	.	.	.
.	16FF\JJ) 16F	.	.	.	.	.	.	.	.	.
4B/]	4GG\ 4G	4b/]	4d\ 4f	.	.	.	.	.	.	.
4r;	4ryy	4r;	4ryy	.	.	.	.	.	.	.
*v	*v	*	*	*	*	*	*	*	*	*
*	*	*	*	*	*	*	*clefF4	*	*
=201	=201	=201	=201	=201	=201	=201	=201	=201	=201
!	!	!	!	!	!	!	!LO:TX:a:t=Proculus.	!	!LO:DY:a
(4C/	(2g/	4c\ 4en	p	1ryy	.	.	(2G\	Ju-	mf
4GG/ 4G	.	4B\ 4d	.	.	.	.	.	.	.
4FF/ 4F	4c/) 4e 4a	2ryy	.	.	.	.	4c\)	.	.
4DD/) 4D	4c/ 4f 4a	.	.	.	.	.	(8B\L	-tro	.
.	.	.	.	.	.	.	8A\J)	.	.
=202	=202	=202	=202	=202	=202	=202	=202	=202	=202
2GG/	(4f/ 4a	2B\	.	1ryy	.	.	4A\	cze-	.
.	8e/L 8g	.	.	.	.	.	(8G\L	-kam	.
.	8d/J 8f	.	.	.	.	.	8F\J)	.	.
(4GG#X/	4B/) 4d 4e	2ryy	.	.	.	.	2E\	cię.	.
8FF#X/L	4d/ 4e 4b	.	.	.	.	.	.	.	.
8GG#/J)	.	.	.	.	.	.	.	.	.
*	*	*	*	*clefF4	*	*	*	*	*
!!LO:LB:g=original	!	!	!	!	!	!	!	!	!
=203	=203	=203	=203	=203	=203	=203	=203	=203	=203
[2AA/	(8b/L	[2c\ 2e	.	2r	.	.	1ryy	.	.
.	8a/	.	.	.	.	.	.	.	.
.	8g#X/	.	.	.	.	.	.	.	.
.	8a/J	.	.	.	.	.	.	.	.
*Xtremolo	*	*	*	*	*	*	*	*	*
8AA/L]	2ryy	2c/] 2e 2cc/)	.	4c\	I-	.	.	.	.
(8GGn/	.	.	.	.	.	.	.	.	.
8FF/	.	.	.	8.A\	-dę	.	.	.	.
8EE/J)	.	.	.	.	.	.	.	.	.
.	.	.	.	16B\	za-	.	.	.	.
=204	=204	=204	=204	=204	=204	=204	=204	=204	=204
*	*	*^	*	*	*	*	*	*	*
(2DD/	(4cc/	[2c\ 2f#X	2ryy	.	4c\	-pro-	.	1ryy	.	.
.	8b/L	.	.	.	(8B\L	-sić	.	.	.	.
.	8a/J	.	.	.	8A\J)	.	.	.	.	.
2GG/)	4fn/) 4g	8c\L]	4ryy	.	4d\	go-	.	.	.	.
.	.	8B\J	.	.	.	.	.	.	.	.
.	(8a/L	(8e\L	4f/	.	4G\	-ści	.	.	.	.
.	8b/J)	8d\J)	.	.	.	.	.	.	.	.
*	*	*v	*v	*	*	*	*	*	*	*
=205	=205	=205	=205	=205	=205	=205	=205	=205	=205
*^	*	*	*	*	*	*	*	*	*
2c/	2AA-X\	2a/	(8f\L	.	4r	.	.	1ryy	.	.
.	.	.	8d\	.	.	.	.	.	.	.
.	.	.	8e-X\	.	4c\	Bo	.	.	.	.
.	.	.	8f\J)	.	.	.	.	.	.	.
(4EE-X/	2ryy	2B-X/ 2g 2b-X	2ryy	.	4.e-X\	ju-	.	.	.	.
4GG/)	.	.	.	.	.	.	.	.	.	.
.	.	.	.	.	8d\	-tro	.	.	.	.
*v	*v	*	*	*	*	*	*	*	*	*
=206	=206	=206	=206	=206	=206	=206	=206	=206	=206
4BB-X/	(>4d/ 4f 4b-X	4ryy	.	4B-X\	nas	.	1ryy	.	.
4C/	8a-X/L	4c\ 4e-X	.	(8A-X\L	po-	.	.	.	.
.	8g/J)	.	.	8G\J)	.	.	.	.	.
(4.F\	4.c/ 4.f 4.a-	2ryy	.	4A-\	-łą-	.	.	.	.
.	.	.	.	4F\	-czy	.	.	.	.
8E-X\)	8c/ 8f 8an	.	.	.	.	.	.	.	.
*	*v	*v	*	*	*	*	*	*	*
=207	=207	=207	=207	=207	=207	=207	=207	=207
(4.D\	(4B-X/ 4f 4b-X	<	(2F\	ślub!	.	1ryy	.	.
.	4d/ 4f 4bn	.	.	.	.	.	.	.
8GG/)	.	.	.	.	.	.	.	.
(8C/L	4c/ 4en 4cc	.	4E\)	.	.	.	.	.
8BBn/	.	.	.	.	.	.	.	.
8BB-X/	4G/) 4c 4e	[[	4r	.	.	.	.	.
8AA/J)	.	.	.	.	.	.	.	.
*	*	*	*clefG2	*	*	*clefG2	*	*
!!LO:LB:g=original	!	!	!	!	!	!	!	!
=208	=208	=208	=208	=208	=208	=208	=208	=208
4..GG#X/	4..G#X^^/ 4..c#X 4..e 4..g#X	.	1ryy	.	.	4r	.	.
!	!	!	!	!	!	!	!	!LO:DY:a
.	.	.	.	.	.	2gg#X\	Ju-	f
16FF#X/	16A/ 16c# 16e 16a	.	.	.	.	.	.	.
4GG#/	4G#/ 4c# 4e 4g#	.	.	.	.	.	.	.
4C#X/	4G#/ 4c# 4e	.	.	.	.	4g#X/	-tro?	.
=209||	=209||	=209||	=209||	=209||	=209||	=209||	=209||	=209||
*k[f#c#g#d#]	*k[f#c#g#d#]	*	*k[f#c#g#d#]	*	*	*k[f#c#g#d#]	*	*
*^	*	*	*	*	*	*	*	*
2ryy	4..AA\	2.F#</ 2.c#< 2.d#	.	1ryy	.	.	1r	.	.
.	16BB\	.	.	.	.	.	.	.	.
4ryy	4AA\	.	.	.	.	.	.	.	.
4G#/ 4B#X	4GG#\	(8e/L	.	.	.	.	.	.	.
.	.	8f#/J)	.	.	.	.	.	.	.
*	*	*	*	*	*	*	*clefF4	*	*
=210	=210	=210	=210	=210	=210	=210	=210	=210	=210
!	!	!	!	!	!	!	!LO:TX:a:t=Proculus.	!	!
[1G#	8C#\L	8c#'/L 8e 8g#	.	1ryy	.	.	4G#\	Twą	.
.	8GG#\J	8c#'/J 8e 8g#	.	.	.	.	.	.	.
.	[4C#\	4c#/ 4e 4g#	.	.	.	.	8E\	ta-	.
.	.	.	.	.	.	.	8D#\	-jem-	.
.	8C#\L]	8c#'/L 8e 8g#	.	.	.	.	4E\	-ni-	.
.	8GG#\J	8c#'/J 8e 8g#	.	.	.	.	.	.	.
.	[4C#\	4c#/ 4e 4g#	.	.	.	.	8E\	-cę	.
.	.	.	.	.	.	.	8G#\	po-	.
!!LO:LB:g=original	!	!	!	!	!	!	!	!	!
=211	=211	=211	=211	=211	=211	=211	=211	=211	=211
2G#/]	8C#\L]	8B#X'/L 8e 8g#	.	1ryy	.	.	(4B#X\	-kry-	.
.	8GG#\J	8B#'/J 8e 8g#	.	.	.	.	.	.	.
.	[4C#\	4c#/ 4e 4g#	.	.	.	.	8c#\)	.	.
.	.	.	.	.	.	.	8B#\	-je	.
8C#/L]	2ryy	8A'/L 8f# 8a	.	.	.	.	(4A\	grób!	.
8GG#/J	.	8A'/J 8f# 8a	.	.	.	.	.	.	.
8C#/	.	8G#/ 8e 8g#	.	.	.	.	8G#\)	.	.
8r	.	8r	.	.	.	.	8r	.	.
*v	*v	*	*	*	*	*	*	*	*
*	*	*	*clefF4	*	*	*	*	*
=212	=212	=212	=212	=212	=212	=212	=212	=212
!	!	!	!LO:TX:a:t=(odchodzi i wraca)	!	!	!	!	!
(2FFn/ 2Fn	2A-X/ 2cn 2fnX 2a-X	pp	1r	.	.	1ryy	.	.
4.CCn/ 4.Cn	4.Gn/ 4.c 4.e-X 4.gn	.	.	.	.	.	.	.
8FF/) 8F	8A-/ 8c 8f 8a-	.	.	.	.	.	.	.
=213	=213	=213	=213	=213	=213	=213	=213	=213
(4FFn/ 4Fn	(2A-X/ 2cn 2fn 2a-X	.	1r	.	.	1ryy	.	.
4EE-X/ 4E-X	.	.	.	.	.	.	.	.
4DD#/ 4Dn	4An/ 4c 4f#X 4an	.	.	.	.	.	.	.
4GGG#X/) 4GG#X	4G#X/) 4B#X 4f# 4g#X	.	.	.	.	.	.	.
=214	=214	=214	=214	=214	=214	=214	=214	=214
(4EE/ 4E	8G#/L 8Bn 8e 8g#	.	4G#\	Lecz	.	1ryy	.	.
.	8G#/ 8B 8e 8g#	.	.	.	.	.	.	.
8CCn/L 8Cn	8G#/ 8B 8e 8g#	.	8r	.	.	.	.	.
8BBB/J 8BB	8G#/J 8B 8e 8g#	.	8G#\	za	.	.	.	.
4GGG#/ 4GG#	8B/L 8e 8b	.	(4E\	śmierć	.	.	.	.
.	8B/J 8e 8b	.	.	.	.	.	.	.
4BBB/) 4BB	8A/L 8d# 8f#	.	4D#\)	.	.	.	.	.
.	8A/J 8d# 8f#	.	.	.	.	.	.	.
=215	=215	=215	=215	=215	=215	=215	=215	=215
*	*^	*	*	*	*	*	*	*
!	!	!	!	!	!	!LO:HP:a	!	!	!
(4CC#/ 4C#	8G#/L 8c# 8e	2ryy	.	2E\	świad-	<	1ryy	.	.
.	8G#/ 8c# 8e	.	.	.	.	.	.	.	.
8BBB/L 8BB	8G#/ 8c# 8e	.	.	.	.	.	.	.	.
8AAA/J 8AA	8G#/J 8c# 8e	.	.	.	.	.	.	.	.
4GGG#/ 4GG#	2d#/ 2g#	(4B\	.	2G#\	-ka	[	.	.	.
4FFF#/) 4FF#	.	4B#X\)	.	.	.	.	.	.	.
=216	=216	=216	=216	=216	=216	=216	=216	=216	=216
*	*	*^	*	*	*	*	*	*	*
2EEE/ 2EE	(4b#X/	(4B#X\	2g#/	.	(4B#X\	dasz	.	1ryy	.	.
.	4dd#/	4d#\)	.	.	4d#\)	.	.	.	.	.
2AAA/ 2AA	4cc#/	2c#\ 2e	2ryy	.	4c#\	mi	.	.	.	.
.	4a/)	.	.	.	4A\	śmierć	.	.	.	.
*	*v	*v	*v	*	*	*	*	*	*	*
!!LO:LB:g=original	!	!	!	!	!	!	!	!
=217	=217	=217	=217	=217	=217	=217	=217	=217
2EE/ 2E	2B/ 2e 2gn	.	2e\	in-	.	1ryy	.	.
*tremolo	*tremolo	*	*	*	*	*	*	*
32EE/LLL	32e/LLL 32g	.	[2E\	-ną!	.	.	.	.
32E/	32B/	.	.	.	.	.	.	.
32EE/	32e/ 32g	.	.	.	.	.	.	.
32E/	32B/	.	.	.	.	.	.	.
32EE/	32e/ 32g	.	.	.	.	.	.	.
32E/	32B/	.	.	.	.	.	.	.
32EE/	32e/ 32g	.	.	.	.	.	.	.
32E/	32B/	.	.	.	.	.	.	.
32EE/	32e/ 32g	.	.	.	.	.	.	.
32E/	32B/	.	.	.	.	.	.	.
32EE/	32e/ 32g	.	.	.	.	.	.	.
32E/	32B/	.	.	.	.	.	.	.
32EE/	32e/ 32g	.	.	.	.	.	.	.
32E/	32B/	.	.	.	.	.	.	.
32EE/	32e/ 32g	.	.	.	.	.	.	.
32E/JJJ	32B/JJJ	.	.	.	.	.	.	.
=218	=218	=218	=218	=218	=218	=218	=218	=218
4EE/ 4E	4cn/ 4e 4gn	.	4E\]	.	.	1ryy	.	.
!	!	!	!LO:TX:a:t=(zbliża się zwolna do Livii która patrzy nań wzrokiem przerażonym.)	!	!	!	!	!
8r	4r	.	4r	.	.	.	.	.
8EE'/	.	.	.	.	.	.	.	.
8EE'/L	2r;	.	2r;	.	.	.	.	.
8CCn'/J	.	.	.	.	.	.	.	.
8EE'/	.	.	.	.	.	.	.	.
8r;	.	.	.	.	.	.	.	.
=219||	=219||	=219||	=219||	=219||	=219||	=219||	=219||	=219||
*k[]	*k[]	*	*k[]	*	*	*k[]	*	*
*	*^	*	*	*	*	*	*	*
4r	4r	4ryy	.	1r	.	.	1ryy	.	.
(4.BBB/ 4.BB	2f^^/ 2g	(4.d-X\	f	.	.	.	.	.	.
8CC/ 8C	.	8c\	.	.	.	.	.	.	.
16DD-X/LL 16D-X	4ryy	16B\LL	.	.	.	.	.	.	.
16DDn/ 16Dn	.	16B-X\	.	.	.	.	.	.	.
16DD-X/ 16D-X	.	16Bn\	.	.	.	.	.	.	.
16CC/JJ) 16C	.	16c\JJ)	.	.	.	.	.	.	.
=220	=220	=220	=220	=220	=220	=220	=220	=220	=220
(4BBB/ 4BB	2.f/ 2.g	(8dn\L	.	1r	.	.	1ryy	.	.
.	.	8d-X\	.	.	.	.	.	.	.
4CC/ 4C	.	8c\	.	.	.	.	.	.	.
.	.	8B\J	.	.	.	.	.	.	.
4DD-X/) 4D-X	.	4B-X\)	.	.	.	.	.	.	.
4r	4r	4ryy	.	.	.	.	.	.	.
*	*clefF4	*	*	*	*	*	*	*	*
=221	=221	=221	=221	=221	=221	=221	=221	=221	=221
4r	(2.B-X/	2A-X\	p	1r	.	.	1ryy	.	.
(2BBn/	.	.	.	.	.	.	.	.	.
.	.	4G-X\	.	.	.	.	.	.	.
4C/)	4A-X/)	4F\	.	.	.	.	.	.	.
=222	=222	=222	=222	=222	=222	=222	=222	=222	=222
2.CC/	2.E-/ 2.G	(2D\	.	1r	.	.	1ryy	.	.
.	.	4C\)	.	.	.	.	.	.	.
4r	4r	4ryy	.	.	.	.	.	.	.
*	*v	*v	*	*	*	*	*	*	*
!!LO:LB:g=original	!	!	!	!	!	!	!	!
*	*clefG2	*	*	*	*	*	*	*
=223||	=223||	=223||	=223||	=223||	=223||	=223||	=223||	=223||
*k[b-e-a-d-]	*k[b-e-a-d-]	*	*k[b-e-a-d-]	*	*	*k[b-e-a-d-]	*	*
*M6/8	*M6/8	*	*M6/8	*	*	*M6/8	*	*
!	!LO:TX:a:B:t=Andante.	!	!LO:TX:a:B:t=Andante.	!	!LO:DY:a	!	!	!
2.r	2.r	.	4.c\	Ten	p	2.ryy	.	.
.	.	.	4c\	co	.	.	.	.
.	.	.	8c\	w twem	.	.	.	.
=224	=224	=224	=224	=224	=224	=224	=224	=224
8FF/	8r	p	(4c\	ser-	.	2.ryy	.	.
8r	8cc'\L	.	.	.	.	.	.	.
8F\ 8A- 8c	8dd-'\J	.	8A-\)	.	.	.	.	.
8F\ 8A- 8c	(8ee-\	.	4F\	-cu	.	.	.	.
8r	4ff^^\)	.	.	.	.	.	.	.
8F\ 8A- 8c	.	.	8F\	ha-	.	.	.	.
=225	=225	=225	=225	=225	=225	=225	=225	=225
8F\ 8G 8B- 8d-	16.dd-\LL	.	8B-\	-nie-	.	2.ryy	.	.
.	32cc\JK	.	.	.	.	.	.	.
8r	8b-\	.	8F\	-bną	.	.	.	.
8F\ 8G 8B- 8d-	8cc\J	.	8r	.	.	.	.	.
8F\ 8G 8B- 8d-	(8dd-\	.	(8F\L	win-	.	.	.	.
8r	4ff^^\)	.	8B-\J)	.	.	.	.	.
8F\ 8G 8B- 8d-	.	.	8d-\	-ną	.	.	.	.
=226	=226	=226	=226	=226	=226	=226	=226	=226
8F\ 8G 8B- 8c	(4g/	.	8d-\	mi-	.	2.ryy	.	.
8r	.	.	8En\	-łość	.	.	.	.
8F\ 8G 8B- 8c	8a-/)	.	8F\	o-	.	.	.	.
8F\ 8G 8B- 8c	(16b-\LL	.	(4G\	-bu-	.	.	.	.
.	16cc\J	.	.	.	.	.	.	.
8r	8dd-\	.	.	.	.	.	.	.
8F\ 8G 8B- 8c	8ee-\J)	.	8c\)	.	.	.	.	.
=227	=227	=227	=227	=227	=227	=227	=227	=227
4F\ 4A- 4c	4cc\	.	4A-\	-dził	.	2.ryy	.	.
8r	8r	.	16r	.	.	.	.	.
!	!	!	!	!	!LO:DY:a	!	!	!
.	.	.	16c\	niech	pp	.	.	.
4r	4r	.	8c\	zgi-	.	.	.	.
.	.	.	8F\	-nie!	.	.	.	.
8r	8r	.	8r	.	.	.	.	.
*	*	*	*clefG2	*	*	*clefG2	*	*
!!LO:LB:g=original	!	!	!	!	!	!	!	!
=228	=228	=228	=228	=228	=228	=228	=228	=228
2.CC#X/ 2.C#X	2.r	fz	2.ryy	.	.	2.r	.	.
*kcancel	*kcancel	*	*kcancel	*	*	*kcancel	*	*
=229||	=229||	=229||	=229||	=229||	=229||	=229||	=229||	=229||
*k[]	*k[]	*	*k[]	*	*	*k[]	*	*
!	!	!	!	!	!	!LO:TX:a:t=(z rozpaczą)	!	!LO:DY:a
8FFF#X/L 8FF#X	32a/LLL 32cc#X 32ff#X	ff	2.ryy	.	.	[2.ff#X\	Ly-	ff
.	32f#X/	.	.	.	.	.	.	.
.	32a/ 32cc# 32ff#	.	.	.	.	.	.	.
.	32f#/	.	.	.	.	.	.	.
8CC#X/ 8C#X	32a/ 32cc# 32ff#	.	.	.	.	.	.	.
.	32f#/	.	.	.	.	.	.	.
.	32a/ 32cc# 32ff#	.	.	.	.	.	.	.
.	32f#/	.	.	.	.	.	.	.
8DD/J 8D	32a/ 32cc# 32ff#	.	.	.	.	.	.	.
.	32f#/	.	.	.	.	.	.	.
.	32a/ 32cc# 32ff#	.	.	.	.	.	.	.
.	32f#/	.	.	.	.	.	.	.
8EE/ 8E	32a/ 32cc# 32ff#	.	.	.	.	.	.	.
.	32f#/	.	.	.	.	.	.	.
.	32a/ 32cc# 32ff#	.	.	.	.	.	.	.
.	32f#/	.	.	.	.	.	.	.
[4FF#X^^/ [4F#X	32a/ 32cc# 32ff#	.	.	.	.	.	.	.
.	32f#/	.	.	.	.	.	.	.
.	32a/ 32cc# 32ff#	.	.	.	.	.	.	.
.	32f#/	.	.	.	.	.	.	.
.	32a/ 32cc# 32ff#	.	.	.	.	.	.	.
.	32f#/	.	.	.	.	.	.	.
.	32a/ 32cc# 32ff#	.	.	.	.	.	.	.
.	32f#X/JJJ	.	.	.	.	.	.	.
=230	=230	=230	=230	=230	=230	=230	=230	=230
8FF#/] 8F#]	8f#X\ 8a 8cc#X 8ff#X	.	2.ryy	.	.	4.ff#\]	.	.
8r	8r	.	.	.	.	.	.	.
8r	8r	.	.	.	.	.	.	.
4r	4r	.	.	.	.	4a/	-kon!	.
8r	8r	.	.	.	.	8r	.	.
=231	=231	=231	=231	=231	=231	=231	=231	=231
16DD/LL 16D	32dd\LLL 32ff#X 32aa	.	2.ryy	.	.	[2.aa\	Ach!	.
.	32a\	.	.	.	.	.	.	.
16CC#X/J 16C#X	32dd\ 32ff# 32aa	.	.	.	.	.	.	.
.	32a\	.	.	.	.	.	.	.
8BBB/ 8BB	32dd\ 32ff# 32aa	.	.	.	.	.	.	.
.	32a\	.	.	.	.	.	.	.
.	32dd\ 32ff# 32aa	.	.	.	.	.	.	.
.	32a\	.	.	.	.	.	.	.
8CC#/J 8C#	32dd\ 32ff# 32aa	.	.	.	.	.	.	.
.	32a\	.	.	.	.	.	.	.
.	32dd\ 32ff# 32aa	.	.	.	.	.	.	.
.	32a\	.	.	.	.	.	.	.
8DD/ 8D	32dd\ 32ff# 32aa	.	.	.	.	.	.	.
.	32a\	.	.	.	.	.	.	.
.	32dd\ 32ff# 32aa	.	.	.	.	.	.	.
.	32a\	.	.	.	.	.	.	.
4FF#X^^/ 4F#X	32dd\ 32ff# 32aa	.	.	.	.	.	.	.
.	32a\	.	.	.	.	.	.	.
.	32dd\ 32ff# 32aa	.	.	.	.	.	.	.
.	32a\	.	.	.	.	.	.	.
.	32dd\ 32ff# 32aa	.	.	.	.	.	.	.
.	32a\	.	.	.	.	.	.	.
.	32dd\ 32ff# 32aa	.	.	.	.	.	.	.
.	32a\JJJ	.	.	.	.	.	.	.
=232	=232	=232	=232	=232	=232	=232	=232	=232
8FFF#X^^/ 8FF#X	8a^^\ 8cc#X 8ff#X 8aa	.	2.ryy	.	.	4aa\]	.	.
8r	8r	.	.	.	.	.	.	.
8r	8r	.	.	.	.	4r	.	.
4r	4r	.	.	.	.	.	.	.
*	*	*	*	*	*	*clefF4	*	*
!	!	!	!	!	!	!LO:TX:a:t=Proculus.	!	!
.	.	.	.	.	.	8c#X\	Po-	.
8r	8r	.	.	.	.	8c#\	-słu-	.
=233	=233	=233	=233	=233	=233	=233	=233	=233
2.r	2.r	.	2.ryy	.	.	4f#X\	-szeń-	.
.	.	.	.	.	.	8e\	-stwo	.
.	.	.	.	.	.	(8c#X\L	o-	.
.	.	.	.	.	.	8qe/	.	.
.	.	.	.	.	.	8d\J)	.	.
.	.	.	.	.	.	8c#\	-każ	.
*	*	*	*clefF4	*	*	*	*	*
!!LO:LB:g=original	!	!	!	!	!	!	!	!
=234	=234	=234	=234	=234	=234	=234	=234	=234
2.r	2.r	.	4.A\	.	.	2.ryy	.	.
.	.	.	4F#X\	.	.	.	.	.
.	.	.	8r	.	.	.	.	.
=235	=235	=235	=235	=235	=235	=235	=235	=235
2.r	4g-X\ 4gg-X	mf <	2.r	.	.	2.ryy	.	.
.	16.g-\LL 16.gg-	.	.	.	.	.	.	.
.	32g-\JJk 32gg-	.	.	.	.	.	.	.
*	*Xtremolo	*	*	*	*	*	*	*
.	8g-\L 8gg-	.	.	.	.	.	.	.
.	8g-\ 8gg-	.	.	.	.	.	.	.
.	8g-\J 8gg-	[[	.	.	.	.	.	.
=236||	=236||	=236||	=236||	=236||	=236||	=236||	=236||	=236||
*k[b-e-a-d-g-]	*k[b-e-a-d-g-]	*	*k[b-e-a-d-g-]	*	*	*k[b-e-a-d-g-]	*	*
*M3/4	*M3/4	*	*M3/4	*	*	*M3/4	*	*
*	*tremolo	*	*	*	*	*	*	*
!	!LO:TX:a:B:t=Andante.	!	!LO:TX:a:B:t=Andante. 	!	!	!	!	!
!	!	!	!LO:TX:a:t=(Proculus zdejmuje z palca pierścień i podaje go Livii)	!	!	!	!	!
4.FF/	32cc\LLL 32ee- 32gg-	f	2.r	.	.	2.ryy	.	.
.	32an\	.	.	.	.	.	.	.
.	32cc\ 32ee- 32gg-	.	.	.	.	.	.	.
.	32a\	.	.	.	.	.	.	.
.	32cc\ 32ee- 32gg-	.	.	.	.	.	.	.
.	32a\	.	.	.	.	.	.	.
.	32cc\ 32ee- 32gg-	.	.	.	.	.	.	.
.	32a\	.	.	.	.	.	.	.
.	32cc\ 32ee- 32gg-	.	.	.	.	.	.	.
.	32a\	.	.	.	.	.	.	.
.	32cc\ 32ee- 32gg-	.	.	.	.	.	.	.
.	32a\	.	.	.	.	.	.	.
8AAn/	32cc\ 32ee- 32gg-	.	.	.	.	.	.	.
.	32a\	.	.	.	.	.	.	.
.	32cc\ 32ee- 32gg-	.	.	.	.	.	.	.
.	32anX\JJJ	.	.	.	.	.	.	.
!LO:TUP:b	!	!	!	!	!	!	!	!
12C/L	4a\ 4cc 4ee- 4ff	.	.	.	.	.	.	.
12D-/	.	.	.	.	.	.	.	.
12AA/J	.	.	.	.	.	.	.	.
=237	=237	=237	=237	=237	=237	=237	=237	=237
!	!	!	!LO:N:vis=1	!	!	!	!	!
8C/L	32b-\LLL 32ee-	.	2.r	.	.	2.ryy	.	.
.	32f\	.	.	.	.	.	.	.
.	32b-\ 32ee-	.	.	.	.	.	.	.
.	32f\	.	.	.	.	.	.	.
8BB-/J	32b-\ 32ee-	.	.	.	.	.	.	.
.	32f\	.	.	.	.	.	.	.
.	32b-\ 32ee-	.	.	.	.	.	.	.
.	32f\	.	.	.	.	.	.	.
2F\	32b-\ 32ee-	.	.	.	.	.	.	.
.	32f\	.	.	.	.	.	.	.
.	32b-\ 32ee-	.	.	.	.	.	.	.
.	32f\	.	.	.	.	.	.	.
.	32b-\ 32ee-	.	.	.	.	.	.	.
.	32f\	.	.	.	.	.	.	.
.	32b-\ 32ee-	.	.	.	.	.	.	.
.	32f\JJJ	.	.	.	.	.	.	.
.	4f/ 4b- 4dd-	.	.	.	.	.	.	.
=238	=238	=238	=238	=238	=238	=238	=238	=238
(>8qEE-/	.	.	.	.	.	.	.	.
!	!	!	!LO:N:vis=1	!	!	!	!	!
4.E-\)	4cc\ 4gg- 4ccc	.	2.r	.	.	2.ryy	.	.
.	4cc\ 4gg- 4bb-	.	.	.	.	.	.	.
8G-\	.	.	.	.	.	.	.	.
!LO:TUP:a	!	!	!	!	!	!	!	!
12B-\L	4b-\ 4ee- 4aa-X	.	.	.	.	.	.	.
12d-\	.	.	.	.	.	.	.	.
12c\J	.	.	.	.	.	.	.	.
=239	=239	=239	=239	=239	=239	=239	=239	=239
4C\ 4B-	(8b-\L 8ee- 8aa-	>	2.r	.	.	2.ryy	.	.
.	8gg-\	.	.	.	.	.	.	.
4r	8ff\	.	.	.	.	.	.	.
.	8ee-\	.	.	.	.	.	.	.
4r	8cc\	.	.	.	.	.	.	.
.	8b-\J)	]]	.	.	.	.	.	.
!!LO:LB:g=original	!	!	!	!	!	!	!	!
=240	=240	=240	=240	=240	=240	=240	=240	=240
*Xbrackettup	*	*	*	*	*	*	*	*
!LO:TUP:r=8:a	!	!	!	!	!	!	!	!
(24FF\LL 24F	8c/ 8f 8an	p	2.r	.	.	2.ryy	.	.
24G-\	.	.	.	.	.	.	.	.
24F\	.	.	.	.	.	.	.	.
!LO:TUP:r=8:a	!	!	!	!	!	!	!	!
24G-\	8r	.	.	.	.	.	.	.
24F\	.	.	.	.	.	.	.	.
24G-\JJ	.	.	.	.	.	.	.	.
!LO:TUP:r=8:a	!	!	!	!	!	!	!	!
24F\LL	4r	.	.	.	.	.	.	.
24G-\	.	.	.	.	.	.	.	.
24F\	.	.	.	.	.	.	.	.
!LO:TUP:r=8:a	!	!	!	!	!	!	!	!
24G-\	.	.	.	.	.	.	.	.
24F\	.	.	.	.	.	.	.	.
24En\JJ	.	.	.	.	.	.	.	.
!LO:TUP:r=8:a	!	!	!	!	!	!	!	!
24E-X\LL	4r	.	.	.	.	.	.	.
24Dn\	.	.	.	.	.	.	.	.
!LO:TUP:r=8:a	!	!	!	!	!	!	!	!
24D-X\	.	.	.	.	.	.	.	.
!LO:TUP:r=8:a	!	!	!	!	!	!	!	!
24C\	.	.	.	.	.	.	.	.
24D-\	.	.	.	.	.	.	.	.
24E-\JJ)	.	.	.	.	.	.	.	.
*	*clefF4	*	*	*	*	*	*	*
=241	=241	=241	=241	=241	=241	=241	=241	=241
*	*Xtremolo	*	*	*	*	*	*	*
*	*Xbrackettup	*	*	*	*	*	*	*
!	!LO:TUP:r=8:a	!	!	!	!	!	!	!
2.r	(24F\LL	p	4r	.	.	2.ryy	.	.
.	24G-\	.	.	.	.	.	.	.
.	24F\	.	.	.	.	.	.	.
!	!LO:TUP:r=8:a	!	!	!	!	!	!	!
.	24G-\	.	.	.	.	.	.	.
.	24F\	.	.	.	.	.	.	.
.	24G-\JJ	.	.	.	.	.	.	.
!	!	!	!	!	!LO:DY:a	!	!	!
*	*Xtuplet	*	*	*	*	*	*	*
.	24F\LL	.	4.c\	O-	p	.	.	.
.	24G-\	.	.	.	.	.	.	.
.	24F\	.	.	.	.	.	.	.
.	24G-\	.	.	.	.	.	.	.
.	24F\	.	.	.	.	.	.	.
.	24En\JJ	.	.	.	.	.	.	.
.	24E-X\LL	.	.	.	.	.	.	.
.	24Dn\	.	.	.	.	.	.	.
.	24D-X\	.	.	.	.	.	.	.
.	24C\	.	8d-\	-to	.	.	.	.
.	24D-\	.	.	.	.	.	.	.
.	24E-\JJ)	.	.	.	.	.	.	.
!!LO:LB:g=original	!	!	!	!	!	!	!	!
=242	=242	=242	=242	=242	=242	=242	=242	=242
!LO:TX:b:i:t=marcato	!	!	!	!	!	!	!	!
*	*tuplet	*	*	*	*	*	*	*
!	!LO:TUP:r=8:a	!	!	!	!	!	!	!
4.FF/	(24F\LL	.	4c\	pierś-	.	2.ryy	.	.
.	24G-\	.	.	.	.	.	.	.
.	24F\	.	.	.	.	.	.	.
!	!LO:TUP:r=8:a	!	!	!	!	!	!	!
.	24G-\	.	.	.	.	.	.	.
.	24F\	.	.	.	.	.	.	.
.	24G-\JJ	.	.	.	.	.	.	.
*	*Xtuplet	*	*	*	*	*	*	*
.	24F\LL	.	4F\	-cień,	.	.	.	.
.	24G-\	.	.	.	.	.	.	.
.	24F\	.	.	.	.	.	.	.
8AAn/	24G-\	.	.	.	.	.	.	.
.	24F\	.	.	.	.	.	.	.
.	24En\JJ	.	.	.	.	.	.	.
!LO:TUP:b	!	!	!	!	!	!	!	!
12C/L	24E-X\LL	.	4r	.	.	.	.	.
.	24Dn\	.	.	.	.	.	.	.
12D-/	24D-X\	.	.	.	.	.	.	.
.	24C\	.	.	.	.	.	.	.
12AA/J	24D-\	.	.	.	.	.	.	.
.	24E-\JJ)	.	.	.	.	.	.	.
=243	=243	=243	=243	=243	=243	=243	=243	=243
*	*tuplet	*	*	*	*	*	*	*
!	!LO:TUP:r=8:a	!	!	!	!	!	!	!
4C/	(24F\LL	.	4r	.	.	2.ryy	.	.
.	24G-\	.	.	.	.	.	.	.
.	24F\	.	.	.	.	.	.	.
!	!LO:TUP:r=8:a	!	!	!	!	!	!	!
.	24G-\	.	.	.	.	.	.	.
.	24F\	.	.	.	.	.	.	.
.	24G-\JJ	.	.	.	.	.	.	.
*	*Xtuplet	*	*	*	*	*	*	*
4FF/	24F\LL	.	4.An\	w per-	.	.	.	.
.	24G-\	.	.	.	.	.	.	.
.	24F\	.	.	.	.	.	.	.
.	24G-\	.	.	.	.	.	.	.
.	24F\	.	.	.	.	.	.	.
.	24En\JJ	.	.	.	.	.	.	.
4r	24E-X\LL	.	.	.	.	.	.	.
.	24Dn\	.	.	.	.	.	.	.
.	24D-X\	.	.	.	.	.	.	.
.	24C\	.	8A\	-le	.	.	.	.
.	24D-\	.	.	.	.	.	.	.
.	24E-\JJ)	.	.	.	.	.	.	.
!!LO:LB:g=original	!	!	!	!	!	!	!	!
=244	=244	=244	=244	=244	=244	=244	=244	=244
4.EEn/	(24En\LL	.	2c\	bla-	.	2.ryy	.	.
.	24F\	.	.	.	.	.	.	.
.	24E\	.	.	.	.	.	.	.
.	24F\	.	.	.	.	.	.	.
.	24E\	.	.	.	.	.	.	.
.	24F\JJ	.	.	.	.	.	.	.
.	24E\LL	.	.	.	.	.	.	.
.	24D#X\	.	.	.	.	.	.	.
.	24Dn\	.	.	.	.	.	.	.
8AAn/	24C\	.	.	.	.	.	.	.
.	24D\	.	.	.	.	.	.	.
.	24D#X\JJ	.	.	.	.	.	.	.
!LO:TUP:b	!	!	!	!	!	!	!	!
12C/L	24E\LL	.	4An\	-dej	.	.	.	.
.	24F\	.	.	.	.	.	.	.
12Dn/	24E\	.	.	.	.	.	.	.
.	24F\	.	.	.	.	.	.	.
12AA/J	24E\	.	.	.	.	.	.	.
.	24F\JJ)	.	.	.	.	.	.	.
=245	=245	=245	=245	=245	=245	=245	=245	=245
4C/	(24En\LL	.	4.En\	skry-	.	2.ryy	.	.
.	24F\	.	.	.	.	.	.	.
.	24E\	.	.	.	.	.	.	.
.	24F\	.	.	.	.	.	.	.
.	24E\	.	.	.	.	.	.	.
.	24F\JJ	.	.	.	.	.	.	.
4EEn/	24E\LL	.	.	.	.	.	.	.
.	24D#X\	.	.	.	.	.	.	.
.	24Dn\	.	.	.	.	.	.	.
.	24C\	.	8E-X\	-te	.	.	.	.
.	24D\	.	.	.	.	.	.	.
.	24D#X\JJ	.	.	.	.	.	.	.
4r	24E\LL	.	8Dn\	są	.	.	.	.
.	24F\	.	.	.	.	.	.	.
.	24E\	.	.	.	.	.	.	.
.	24F\	.	8E-\	tru-	.	.	.	.
.	24E\	.	.	.	.	.	.	.
.	24F\JJ)	.	.	.	.	.	.	.
!!LO:LB:g=original	!	!	!	!	!	!	!	!
=246	=246	=246	=246	=246	=246	=246	=246	=246
*	*tuplet	*	*	*	*	*	*	*
!	!LO:TUP:r=8:a	!	!	!	!	!	!	!
2.r	(24En\LL	.	(4En\	-ją-	.	2.ryy	.	.
.	24F\	.	.	.	.	.	.	.
.	24E\	.	.	.	.	.	.	.
*	*Xtuplet	*	*	*	*	*	*	*
.	24F\	.	.	.	.	.	.	.
.	24E\	.	.	.	.	.	.	.
.	24F\JJ	.	.	.	.	.	.	.
.	24E\LL	.	4An\)	.	.	.	.	.
.	24D#X\	.	.	.	.	.	.	.
.	24Dn\	.	.	.	.	.	.	.
.	24C\	.	.	.	.	.	.	.
.	24D\	.	.	.	.	.	.	.
.	24D#X\JJ	.	.	.	.	.	.	.
.	24E\LL	.	4c\	-ce	.	.	.	.
.	24F\	.	.	.	.	.	.	.
.	24E\	.	.	.	.	.	.	.
.	24F\	.	.	.	.	.	.	.
.	24E\	.	.	.	.	.	.	.
.	24F\JJ)	.	.	.	.	.	.	.
=247	=247	=247	=247	=247	=247	=247	=247	=247
!	!	!	!	!	!LO:DY:a	!	!	!
4.CC/	(24En\LL	.	2.d-X\	ja-	mf	2.ryy	.	.
.	24F\	.	.	.	.	.	.	.
.	24E\	.	.	.	.	.	.	.
.	24F\	.	.	.	.	.	.	.
.	24E\	.	.	.	.	.	.	.
.	24F\JJ	.	.	.	.	.	.	.
.	24E\LL	.	.	.	.	.	.	.
.	24D#X\	.	.	.	.	.	.	.
.	24Dn\	.	.	.	.	.	.	.
8EEn/	24C\	.	.	.	.	.	.	.
.	24D\	.	.	.	.	.	.	.
.	24D#X\JJ	.	.	.	.	.	.	.
!LO:TUP:b	!	!	!	!	!	!	!	!
12GGn/L	24E\LL	.	.	.	.	.	.	.
.	24F\	.	.	.	.	.	.	.
12AA-X/	24E\	.	.	.	.	.	.	.
.	24F\	.	.	.	.	.	.	.
12EE/J	24E\	.	.	.	.	.	.	.
.	24F\JJ)	.	.	.	.	.	.	.
!!LO:LB:g=original	!	!	!	!	!	!	!	!
=248	=248	=248	=248	=248	=248	=248	=248	=248
4GGn/	(24En\LL	.	4En\	-dy!	.	2.ryy	.	.
.	24F\	.	.	.	.	.	.	.
.	24E\	.	.	.	.	.	.	.
.	24F\	.	.	.	.	.	.	.
.	24E\	.	.	.	.	.	.	.
.	24F\JJ	.	.	.	.	.	.	.
4CC/	24E\LL	.	4r	.	.	.	.	.
.	24D#X\	.	.	.	.	.	.	.
.	24Dn\	.	.	.	.	.	.	.
.	24C\	.	.	.	.	.	.	.
.	24D\	.	.	.	.	.	.	.
.	24D#X\JJ	.	.	.	.	.	.	.
8r	24E\LL	.	4Gn\	Niech	.	.	.	.
.	24F\	.	.	.	.	.	.	.
.	24E\	.	.	.	.	.	.	.
8CC/ 8C	24F\	.	.	.	.	.	.	.
.	24E\	.	.	.	.	.	.	.
.	24F\JJ)	.	.	.	.	.	.	.
=249	=249	=249	=249	=249	=249	=249	=249	=249
8CC'/ 8C	32Gn\LLL	.	2.B-\	znim	.	2.ryy	.	.
.	32En\	.	.	.	.	.	.	.
.	32G\	.	.	.	.	.	.	.
.	32E\	.	.	.	.	.	.	.
8r	32G\	.	.	.	.	.	.	.
.	32E\	.	.	.	.	.	.	.
.	32G\	.	.	.	.	.	.	.
.	32E\JJJ	.	.	.	.	.	.	.
*	*tremolo	*	*	*	*	*	*	*
8r	32B-\LLL	.	.	.	.	.	.	.
.	32G\	.	.	.	.	.	.	.
.	32B-\	.	.	.	.	.	.	.
.	32G\	.	.	.	.	.	.	.
8CC'/ 8C	32B-\	.	.	.	.	.	.	.
.	32G\	.	.	.	.	.	.	.
.	32B-\	.	.	.	.	.	.	.
.	32G\JJJ	.	.	.	.	.	.	.
8CC'/ 8C	32c\LLL	.	.	.	.	.	.	.
.	32A-\	.	.	.	.	.	.	.
.	32c\	.	.	.	.	.	.	.
.	32A-\	.	.	.	.	.	.	.
8r	32c\	.	.	.	.	.	.	.
.	32A-\	.	.	.	.	.	.	.
.	32c\	.	.	.	.	.	.	.
.	32A-\JJJ	.	.	.	.	.	.	.
=250	=250	=250	=250	=250	=250	=250	=250	=250
8r	32d-\LLL	.	2D-\	zgi-	.	2.ryy	.	.
.	32B-\	.	.	.	.	.	.	.
.	32d-\	.	.	.	.	.	.	.
.	32B-\	.	.	.	.	.	.	.
8CC/ 8C	32d-\	.	.	.	.	.	.	.
.	32B-\	.	.	.	.	.	.	.
.	32d-\	.	.	.	.	.	.	.
.	32B-\JJJ	.	.	.	.	.	.	.
8CC/ 8C	32f\LLL	.	.	.	.	.	.	.
.	32d-\	.	.	.	.	.	.	.
.	32f\	.	.	.	.	.	.	.
.	32d-\	.	.	.	.	.	.	.
8r	32f\	.	.	.	.	.	.	.
.	32d-\	.	.	.	.	.	.	.
.	32f\	.	.	.	.	.	.	.
.	32d-\	.	.	.	.	.	.	.
4r	32f\	.	4A-\	-nie	.	.	.	.
.	32d-\	.	.	.	.	.	.	.
.	32f\	.	.	.	.	.	.	.
.	32d-\	.	.	.	.	.	.	.
.	32f\	.	.	.	.	.	.	.
.	32d-\	.	.	.	.	.	.	.
.	32f\	.	.	.	.	.	.	.
.	32d-\JJJ	.	.	.	.	.	.	.
!!LO:LB:g=original	!	!	!	!	!	!	!	!
=251	=251	=251	=251	=251	=251	=251	=251	=251
8r	32d-\LLL	.	(4Gn\	ślad	.	2.ryy	.	.
.	32B-\	.	.	.	.	.	.	.
.	32d-\	.	.	.	.	.	.	.
.	32B-\	.	.	.	.	.	.	.
8CC/ 8C	32c\	.	.	.	.	.	.	.
.	32A-\	.	.	.	.	.	.	.
.	32c\	.	.	.	.	.	.	.
.	32A-\JJJ	.	.	.	.	.	.	.
8CC/ 8C	32B-\LLL	.	4D-\)	.	.	.	.	.
.	32Gn\	.	.	.	.	.	.	.
.	32B-\	.	.	.	.	.	.	.
.	32G\	.	.	.	.	.	.	.
8r	32B-\	.	.	.	.	.	.	.
.	32G\	.	.	.	.	.	.	.
.	32B-\	.	.	.	.	.	.	.
.	32GnX\JJJ	.	.	.	.	.	.	.
8r	32c\LLL	.	4F\	prze-	.	.	.	.
.	32A-\	.	.	.	.	.	.	.
.	32c\	.	.	.	.	.	.	.
.	32A-\	.	.	.	.	.	.	.
8CC/ 8C	32c\	.	.	.	.	.	.	.
.	32A-\	.	.	.	.	.	.	.
.	32c\	.	.	.	.	.	.	.
.	32A-X\JJJ	.	.	.	.	.	.	.
=252	=252	=252	=252	=252	=252	=252	=252	=252
8CC/ 8C	32d-\LLL	.	(2E-\	-szłoś-	.	2.ryy	.	.
.	32B-\	.	.	.	.	.	.	.
.	32d-\	.	.	.	.	.	.	.
.	32B-\	.	.	.	.	.	.	.
8r	32d-\	.	.	.	.	.	.	.
.	32B-\	.	.	.	.	.	.	.
.	32d-\	.	.	.	.	.	.	.
.	32B-\JJJ	.	.	.	.	.	.	.
4r	32f\LLL	.	.	.	.	.	.	.
.	32d-\	.	.	.	.	.	.	.
.	32f\	.	.	.	.	.	.	.
.	32d-\	.	.	.	.	.	.	.
.	32f\	.	.	.	.	.	.	.
.	32d-\	.	.	.	.	.	.	.
.	32f\	.	.	.	.	.	.	.
.	32d-\	.	.	.	.	.	.	.
4r	32f\	.	4D-\)	.	.	.	.	.
.	32d-\	.	.	.	.	.	.	.
.	32f\	.	.	.	.	.	.	.
.	32d-\	.	.	.	.	.	.	.
.	32f\	.	.	.	.	.	.	.
.	32d-\	.	.	.	.	.	.	.
.	32f\	.	.	.	.	.	.	.
.	32d-\JJJ	.	.	.	.	.	.	.
*	*clefG2	*	*	*	*	*	*	*
=253	=253	=253	=253	=253	=253	=253	=253	=253
8FFF/ 8FF	32g-X/LLL	pp	2C/	-ci	.	2.ryy	.	.
.	32e-/	.	.	.	.	.	.	.
.	32g-/	.	.	.	.	.	.	.
.	32e-/	.	.	.	.	.	.	.
8r	32g-/	.	.	.	.	.	.	.
.	32e-/	.	.	.	.	.	.	.
.	32g-/	.	.	.	.	.	.	.
.	32e-/JJJ	.	.	.	.	.	.	.
8r	32c/LLL	.	.	.	.	.	.	.
.	32An/	.	.	.	.	.	.	.
.	32c/	.	.	.	.	.	.	.
.	32A/	.	.	.	.	.	.	.
8FFF/ 8FF	32c/	.	.	.	.	.	.	.
.	32A/	.	.	.	.	.	.	.
.	32c/	.	.	.	.	.	.	.
.	32AnX/JJJ	.	.	.	.	.	.	.
8FFF/ 8FF	32d-/LLL	.	4r	.	.	.	.	.
.	32B-/	.	.	.	.	.	.	.
.	32d-/	.	.	.	.	.	.	.
.	32B-/	.	.	.	.	.	.	.
8r	32d-/	.	.	.	.	.	.	.
.	32B-/	.	.	.	.	.	.	.
.	32d-/	.	.	.	.	.	.	.
.	32B-/JJJ	.	.	.	.	.	.	.
=254	=254	=254	=254	=254	=254	=254	=254	=254
8r	32e-/LLL	.	2.r	.	.	2.ryy	.	.
.	32c/	.	.	.	.	.	.	.
.	32e-/	.	.	.	.	.	.	.
.	32c/	.	.	.	.	.	.	.
8FFF/ 8FF	32e-/	.	.	.	.	.	.	.
.	32c/	.	.	.	.	.	.	.
.	32e-/	.	.	.	.	.	.	.
.	32c/JJJ	.	.	.	.	.	.	.
8FFF/ 8FF	32g-/LLL	.	.	.	.	.	.	.
.	32e-/	.	.	.	.	.	.	.
.	32g-/	.	.	.	.	.	.	.
.	32e-/	.	.	.	.	.	.	.
8r	32g-/	.	.	.	.	.	.	.
.	32e-/	.	.	.	.	.	.	.
.	32g-/	.	.	.	.	.	.	.
.	32e-/JJJ	.	.	.	.	.	.	.
4r	32g-/LLL	.	.	.	.	.	.	.
.	32e-/	.	.	.	.	.	.	.
.	32g-/	.	.	.	.	.	.	.
.	32e-/	.	.	.	.	.	.	.
.	32f/	.	.	.	.	.	.	.
.	32dn/	.	.	.	.	.	.	.
.	32f/	.	.	.	.	.	.	.
.	32d/JJJ	.	.	.	.	.	.	.
*	*	*	*clefG2	*	*	*clefG2	*	*
!!LO:LB:g=original	!	!	!	!	!	!	!	!
=255	=255	=255	=255	=255	=255	=255	=255	=255
*	*Xtremolo	*	*	*	*	*	*	*
!	!	!	!	!	!	!LO:TX:a:t=Livia.	!	!
4FFF/ 4FF	8e-/ 8g-	.	2.ryy	.	.	2.r	.	.
.	4cc\	<	.	.	.	.	.	.
4E-\ 4F 4An 4c	.	.	.	.	.	.	.	.
.	[8cc\	.	.	.	.	.	.	.
4E-\ 4F 4A 4c	16cc\LL]	.	.	.	.	.	.	.
.	(16cc\	.	.	.	.	.	.	.
.	16dd-\	.	.	.	.	.	.	.
.	16ee-\JJ)	.	.	.	.	.	.	.
=256	=256	=256	=256	=256	=256	=256	=256	=256
4FFF/ 4FF	8ee-\	.	2.ryy	.	.	4r	.	.
.	4gg-\	.	.	.	.	.	.	.
4F\ 4An 4e-	.	.	.	.	.	4r	.	.
.	[8gg-\	.	.	.	.	.	.	.
!	!	!	!	!	!	!	!	!LO:DY:a
4F\ 4A 4e-	16gg-\LL]	.	.	.	.	8.gg-\	Ach!	f
.	(16an\	.	.	.	.	.	.	.
.	16b-\	.	.	.	.	.	.	.
.	16cc\JJ)	.	.	.	.	16ff\	li-	.
=257	=257	=257	=257	=257	=257	=257	=257	=257
4FFF/ 4FF	8f\ 8b- 8ee-	.	2.ryy	.	.	(8aa-\L	-toś-	.
.	4f/ 4b- 4dd-	.	.	.	.	8gg-\J)	.	.
4D-\ 4F 4B-	.	.	.	.	.	4ff\	-ci!	.
.	[8f/ [8b- [8dd-	.	.	.	.	.	.	.
4F\ 4B- 4d-	16f\LL] 16b-] 16dd-]	.	.	.	.	4r	.	.
.	(16ee-\	.	.	.	.	.	.	.
.	16ff\	.	.	.	.	.	.	.
.	16b-\JJ) 16bb-	.	.	.	.	.	.	.
=258	=258	=258	=258	=258	=258	=258	=258	=258
4FFF/ 4FF	8b-\ 8bb-	.	2.ryy	.	.	4r	.	.
.	4an\ 4ee- 4aan	.	.	.	.	.	.	.
4E-\ 4An 4c	.	.	.	.	.	4r	.	.
.	[8a\ [8ee- [8aa	.	.	.	.	.	.	.
4A\ 4c 4f	16a\LL] 16ee-] 16aa]	.	.	.	.	8.ff\	Ach!	.
.	(16b-\ 16bb-	.	.	.	.	.	.	.
.	16cc\ 16ccc	.	.	.	.	.	.	.
.	16ee-\JJ) 16eee-	.	.	.	.	16ee-\	li-	.
*	*	*	*clefF4	*	*	*	*	*
!!LO:PB:g=original	!	!	!	!	!	!	!	!
=259	=259	=259	=259	=259	=259	=259	=259	=259
!	!	!	!LO:TX:a:t=Proculus.	!	!	!	!	!
4FFF/ 4FF	8ee-\ 8eee-	mf	2.r	.	.	(8gg-\L	-toś-	.
.	4dd-\ 4ddd-	.	.	.	.	8ff\J)	.	.
4F\ 4B- 4d-	.	.	.	.	.	4dd-\	-ci!	.
.	[8dd-\ [8ddd-	.	.	.	.	.	.	.
4B-\ 4d- 4f	16dd-\LL] 16ddd-]	.	.	.	.	4r	.	.
.	(16an\ 16aan	.	.	.	.	.	.	.
.	16b-\ 16bb-	.	.	.	.	.	.	.
.	16dd-\JJ) 16ddd-	.	.	.	.	.	.	.
=260	=260	=260	=260	=260	=260	=260	=260	=260
4FFF/ 4FF	8ff\ 8fff	<	2.r	.	.	4r	.	.
.	4ee-\ 4eee-	.	.	.	.	.	.	.
4G-\ 4An 4e-	.	.	.	.	.	4r	.	.
.	[8ee-\ [8eee-	.	.	.	.	.	.	.
4A\ 4e- 4g-	16ee-\LL] 16eee-]	.	.	.	.	8r	.	.
.	(16cc\ 16ccc	.	.	.	.	.	.	.
.	16dd-\ 16ddd-	.	.	.	.	16ryy	.	.
.	16ee-\JJ) 16eee-	.	.	.	.	16ee-\	li-	.
=261	=261	=261	=261	=261	=261	=261	=261	=261
4FFF/ 4FF	8ff\ 8fff	.	2.r	.	.	(4bb-\	-toś-	.
.	4ee-\ 4eee-	.	.	.	.	.	.	.
4G-\ 4An 4e-	.	.	.	.	.	4aan\	.	.
.	[8ee-\ [8eee-	.	.	.	.	.	.	.
4A\ 4e- 4g-	16ee-\LL] 16eee-]	<	.	.	.	4gg-\)	.	.
.	(16ddn\ 16dddn	.	.	.	.	.	.	.
.	16ee-\ 16eee-	.	.	.	.	.	.	.
.	16gg-\JJ) 16ggg-	[[	.	.	.	.	.	.
=262	=262	=262	=262	=262	=262	=262	=262	=262
*	*8va	*	*	*	*	*	*	*
4FFF/ 4FF	8bb-\ 8bbb-	f	[2.f\	Ach!	.	4ff\	-ci!	.
.	4aan\ 4aaan	.	.	.	.	.	.	.
4F\ 4An 4e-	.	.	.	.	.	4r	.	.
*	*X8va	*	*	*	*	*	*	*
.	8cc\ 8ccc	.	.	.	.	.	.	.
4A\ 4e- 4f	8ff\L 8fff	.	.	.	.	4r	.	.
.	8ee-\J 8eee-	.	.	.	.	.	.	.
=263	=263	=263	=263	=263	=263	=263	=263	=263
4FF/ 4C 4E- 4An	8dd-\L 8ddd-	.	2.f\]	.	.	2.r	.	.
.	8cc\ 8ccc	.	.	.	.	.	.	.
4r	8b-\ 8bb-	.	.	.	.	.	.	.
.	8an\ 8aan	.	.	.	.	.	.	.
4r	8dd-\ 8ddd-	.	.	.	.	.	.	.
!	!LO:TX:b:i:t=rall.	!	!	!	!	!	!	!
.	8cc\J 8ccc	.	.	.	.	.	.	.
!!LO:LB:g=original	!	!	!	!	!	!	!	!
=264	=264	=264	=264	=264	=264	=264	=264	=264
!LO:TX:t=P:problem:mixed beam	!LO:TX:b:i:t=grandioso	!	!LO:TX:a:i:t=grandioso	!	!	!	!	!
8FFF/L 8FF	4.f\ 4.ff	.	4.F\	Ten,	.	2.ryy	.	.
8E-\J 8F 8An	.	.	.	.	.	.	.	.
8F\L 8A 8c	.	.	.	.	.	.	.	.
8F\J 8A 8e-	8an\ 8aan	.	8An\	co	.	.	.	.
*	*tuplet	*	*	*	*	*	*	*
!	!LO:TUP:b	!	!	!	!	!	!	!
8A\ 8e- 8f	12cc\L 12ccc	.	(12c\L	two-	.	.	.	.
.	12dd-\ 12ddd-	.	12d-\J)	.	.	.	.	.
8r	.	.	.	.	.	.	.	.
.	12a\J 12aa	.	12A\	-ją	.	.	.	.
=265	=265	=265	=265	=265	=265	=265	=265	=265
8BBB-\L 8BB-	8cc\L 8ccc	.	8c\	mi-	.	2.ryy	.	.
8D-\J 8F 8B-	8b-\J 8bb-	.	8B-\	-łość	.	.	.	.
8F\L 8B- 8d-	2ff\ 2fff	.	2f\	skradł,	.	.	.	.
8B-\J 8d- 8f	.	.	.	.	.	.	.	.
8d->\ 8f> 8b->	.	.	.	.	.	.	.	.
8r	.	.	.	.	.	.	.	.
=266	=266	=266	=266	=266	=266	=266	=266	=266
8BBB-\L 8BB-	4.ee-\ 4.eee-	.	4.e-\	chcę,	.	2.ryy	.	.
8E-\ 8G-	.	.	.	.	.	.	.	.
8E-\ 8G- 8B-	.	.	.	.	.	.	.	.
8G-\J 8B- 8e-	8ff\ 8fff	.	8f\	by	.	.	.	.
!	!LO:TUP:a	!	!	!	!	!	!	!
8B-\ 8e- 8g-	12ee-\L 12eee-	.	(12e-\L	z two-	.	.	.	.
.	12b-\ 12bb-	.	12B-\J)	.	.	.	.	.
8r	.	.	.	.	.	.	.	.
.	12cc\J 12ccc	.	12c\	-jej	.	.	.	.
=267	=267	=267	=267	=267	=267	=267	=267	=267
8BBB-/L 8BB-	8dd-\L 8ddd-	.	8d-\	rę-	.	2.ryy	.	.
8BB-/J 8D- 8F	8b-\J 8bb-	.	8B-\	-ki	.	.	.	.
8D-\L 8F 8B-	2f\ 2ff	.	2F\	padł,	.	.	.	.
8F\J 8B- 8d-	.	.	.	.	.	.	.	.
8F\ 8B- 8d-	.	.	.	.	.	.	.	.
8r	.	.	.	.	.	.	.	.
!!LO:LB:g=original	!	!	!	!	!	!	!	!
=268	=268	=268	=268	=268	=268	=268	=268	=268
8GGG-/L 8GG-	4.e-/ 4.ee-	.	4.E-\	śmierć	.	2.ryy	.	.
8C/J 8E- 8B-	.	.	.	.	.	.	.	.
8E-\ 8B- 8c	.	.	.	.	.	.	.	.
8r	8f\ 8ff	.	8F\	mu	.	.	.	.
!	!LO:TUP:b	!	!	!	!	!	!	!
4r	12g-\L 12gg-	.	(12G-\L	za-	.	.	.	.
.	12a-\ 12aa-	.	12A-\J)	.	.	.	.	.
.	12b-\J 12bb-	.	12B-\	-da	.	.	.	.
=269	=269	=269	=269	=269	=269	=269	=269	=269
8EE-\L 8E-	4.cc\ 4.ccc	.	4.c\	włas-	.	2.ryy	.	.
8G-\J 8B- 8c	.	.	.	.	.	.	.	.
8B-\ 8c 8g-	.	.	.	.	.	.	.	.
8r	8dd-\ 8ddd-	.	8d-\	-na	.	.	.	.
!	!LO:TUP:b	!	!	!	!	!	!	!
4r	12ee-\L 12eee-	.	(12e-\L	rę-	.	.	.	.
.	12ff\ 12fff	.	12f\J)	.	.	.	.	.
.	12gg-\J 12ggg-	.	12g-\	-ka	.	.	.	.
=270	=270	=270	=270	=270	=270	=270	=270	=270
8r	8gg-\ 8ggg-	p	[2.g-\	twa.	.	2.ryy	.	.
*Xtremolo	*	*	*	*	*	*	*	*
32BB-\LLL	32g-/LLL 32b-	.	.	.	.	.	.	.
32B-\	32e-/	.	.	.	.	.	.	.
32BB-\	32g-/ 32b-	.	.	.	.	.	.	.
32B-\JJJ	32e-/JJJ	.	.	.	.	.	.	.
32EE-/LLL	32g-/LLL 32b- 32cc	.	.	.	.	.	.	.
32E-/	32c/	.	.	.	.	.	.	.
32EE-/	32g-/ 32b- 32cc	.	.	.	.	.	.	.
32E-/JJJ	32c/JJJ	.	.	.	.	.	.	.
32C\LLL	32g-/LLL 32b- 32ee-	<	.	.	.	.	.	.
32c\	32e-/	.	.	.	.	.	.	.
32C\	32g-/ 32b- 32ee-	.	.	.	.	.	.	.
32c\JJJ	32e-/JJJ	.	.	.	.	.	.	.
32BB-\LLL	32g-/LLL 32cc	.	.	.	.	.	.	.
32B-\	32e-/	.	.	.	.	.	.	.
32BB-\	32g-/ 32cc	.	.	.	.	.	.	.
32B-\JJJ	32e-/JJJ	.	.	.	.	.	.	.
32EE-/LLL	32b-\LLL 32cc 32gg-	.	.	.	.	.	.	.
32E-/	32g-\	.	.	.	.	.	.	.
32EE-/	32b-\ 32cc 32gg-	.	.	.	.	.	.	.
32E-/JJJ	32g-\JJJ	.	.	.	.	.	.	.
!!LO:LB:g=original	!	!	!	!	!	!	!	!
=271	=271	=271	=271	=271	=271	=271	=271	=271
8CC/ 8C	8b-\L 8ee- 8gg- 8bb-	.	8g-\]	.	.	2.ryy	.	.
8r	8ddn\ 8dddn	f	8dn\	Nie-	.	.	.	.
4r	8ff\ 8fff	.	8f\	-wol-	.	.	.	.
.	8ee-\ 8eee-	.	8e-\	-nik	.	.	.	.
4r	8dd-X\ 8ddd-X	.	8d-X\	ten	.	.	.	.
.	8cc\J 8ccc	.	8c\	ach	.	.	.	.
=272	=272	=272	=272	=272	=272	=272	=272	=272
4.FFF/ 4.FF	8.b-\L 8.dd- 8.bb-	.	8.B-\	bia-	.	2.ryy	.	.
.	16g-\Jk 16gg-	.	16G-\	-da	.	.	.	.
.	2f\ 2ff	.	2F\	mu!	.	.	.	.
8D-\ 8F 8B-	.	.	.	.	.	.	.	.
4F\ 4B- 4d-	.	.	.	.	.	.	.	.
=273	=273	=273	=273	=273	=273	=273	=273	=273
4.FFF/ 4.FF	8.dd-\L 8.ddd-	.	8.d-\	bia-	.	2.ryy	.	.
.	16g-\Jk 16gg-	.	16G-\	-da	.	.	.	.
.	2f\ 2ff	.	2F\	mu!	.	.	.	.
8D-\ 8F 8B-	.	.	.	.	.	.	.	.
4F\ 4B- 4d-	.	.	.	.	.	.	.	.
=274	=274	=274	=274	=274	=274	=274	=274	=274
!	!LO:TUP:a	!	!	!	!	!	!	!
4.FFF/ 4.FF	12dd-\L 12ddd-	.	12d-\	Ko-	.	2.ryy	.	.
.	12cc\ 12ccc	.	12c\	-cha-	.	.	.	.
.	12dd-\J 12ddd-	.	12d-\	-nek	.	.	.	.
.	[2ee-\ [2eee-	.	[2e-\	twój!	.	.	.	.
8E-\ 8G- 8B- 8c	.	.	.	.	.	.	.	.
8.G-\L 8.B- 8.c 8.e-	.	.	.	.	.	.	.	.
16B-\Jk 16c 16e- 16g-	.	.	.	.	.	.	.	.
=275	=275	=275	=275	=275	=275	=275	=275	=275
8B-\ 8c 8e- 8g-	8ee-\L] 8eee-]	.	8e-\]	.	.	2.ryy	.	.
!	!LO:TX:b:i:t=colla parte	!	!	!	!	!	!	!
8r	8e-\J 8ee-	.	8E-\	on	.	.	.	.
4r	8dd-\L 8ddd-	.	8d-\	dzi-	.	.	.	.
.	8cc\J 8ccc	.	8c\	-siaj	.	.	.	.
8FF/ 8C 8E- 8An	8g-\ 8cc 8ee- 8gg-	.	8.g-;\	sko-	.	.	.	.
8r;	8r;	.	.	.	.	.	.	.
.	.	.	16An\	-nać	.	.	.	.
!!LO:LB:g=original	!	!	!	!	!	!	!	!
=276	=276	=276	=276	=276	=276	=276	=276	=276
4BBB-/ 4BB-	8b-\ 8bb-	f	[2.B-\	ma!	.	2.ryy	.	.
.	4b-\ 4bb-	.	.	.	.	.	.	.
4D-\ 4F 4B-	.	.	.	.	.	.	.	.
.	[8b-\ [8bb-	.	.	.	.	.	.	.
4F\ 4B- 4d-	16b-\LL] 16bb-]	.	.	.	.	.	.	.
.	(16cc\ 16ccc	.	.	.	.	.	.	.
.	16dd-\ 16ddd-	.	.	.	.	.	.	.
.	16ff\JJ) 16fff	.	.	.	.	.	.	.
=277	=277	=277	=277	=277	=277	=277	=277	=277
*	*8va	*	*	*	*	*	*	*
!LO:N:vis=8	!	!	!	!	!	!	!	!
4BBB-/ 4BB-	8bb-\ 8bbb-	.	4B-\]	.	.	2.ryy	.	.
.	4aan\ 4aaan	.	.	.	.	.	.	.
!	!	!	!LO:TX:a:t=(odchodzi.)	!	!	!	!	!
4G-\ 4An 4e-	.	.	4r	.	.	.	.	.
.	[8aa\ [8aaa	.	.	.	.	.	.	.
4A\ 4e- 4g-	16aa\LL] 16aaa]	.	4r	.	.	.	.	.
.	(16gg-\ 16ggg-	.	.	.	.	.	.	.
*	*X8va	*	*	*	*	*	*	*
.	16ee-\ 16eee-	.	.	.	.	.	.	.
.	16dd-\JJ) 16ddd-	.	.	.	.	.	.	.
=278	=278	=278	=278	=278	=278	=278	=278	=278
4BB-\ 4B-	8cc\ 8ccc	.	2.r	.	.	2.ryy	.	.
.	4b-\ 4bb-	.	.	.	.	.	.	.
4F\ 4B- 4d-	.	.	.	.	.	.	.	.
.	[8b-\ [8bb-	.	.	.	.	.	.	.
4B-\ 4d- 4f	16b-\LL] 16bb-]	.	.	.	.	.	.	.
.	(16cc\ 16ccc	.	.	.	.	.	.	.
.	16dd-\ 16ddd-	.	.	.	.	.	.	.
.	16ff\JJ) 16fff	.	.	.	.	.	.	.
=279	=279	=279	=279	=279	=279	=279	=279	=279
*	*8va	*	*	*	*	*	*	*
*	*tremolo	*	*	*	*	*	*	*
!	!LO:TX:b:i:t=marcato	!	!LO:TX:a:t=(Tu się na chwilę odwraca i grozi ręką)	!	!	!	!	!
4.BBB-/ 4.BB-	32ddd-\LLL 32fff 32bbb-	.	2.r	.	.	2.ryy	.	.
.	32bb-\	.	.	.	.	.	.	.
.	32ddd-\ 32fff 32bbb-	.	.	.	.	.	.	.
.	32bb-\	.	.	.	.	.	.	.
.	32ddd-\ 32fff 32bbb-	.	.	.	.	.	.	.
.	32bb-\	.	.	.	.	.	.	.
.	32ddd-\ 32fff 32bbb-	.	.	.	.	.	.	.
.	32bb-\	.	.	.	.	.	.	.
.	32ddd-\ 32fff 32bbb-	.	.	.	.	.	.	.
.	32bb-\	.	.	.	.	.	.	.
.	32ddd-\ 32fff 32bbb-	.	.	.	.	.	.	.
.	32bb-\	.	.	.	.	.	.	.
8DD-/ 8D-	32ddd-\ 32fff 32bbb-	.	.	.	.	.	.	.
.	32bb-\	.	.	.	.	.	.	.
.	32ddd-\ 32fff 32bbb-	.	.	.	.	.	.	.
.	32bb-\	.	.	.	.	.	.	.
!LO:TUP:b	!	!	!	!	!	!	!	!
12FF/L 12F	32ddd-\ 32fff 32bbb-	.	.	.	.	.	.	.
.	32bb-\	.	.	.	.	.	.	.
.	32ddd-\ 32fff 32bbb-	.	.	.	.	.	.	.
12GG-/ 12G-	.	.	.	.	.	.	.	.
.	32bb-\	.	.	.	.	.	.	.
.	32ddd-\ 32fff 32bbb-	.	.	.	.	.	.	.
.	32bb-\	.	.	.	.	.	.	.
12EEn/J 12En	.	.	.	.	.	.	.	.
.	32ddd-\ 32fff 32bbb-	.	.	.	.	.	.	.
.	32bb-\JJJ	.	.	.	.	.	.	.
=280	=280	=280	=280	=280	=280	=280	=280	=280
8GG-/L 8G-	32ddd-\LLL 32fff 32bbb-	.	2.r	.	.	2.ryy	.	.
.	32bb-\	.	.	.	.	.	.	.
.	32ddd-\ 32fff 32bbb-	.	.	.	.	.	.	.
.	32bb-\	.	.	.	.	.	.	.
8FF/J 8F	32ddd-\ 32fff 32bbb-	.	.	.	.	.	.	.
.	32bb-\	.	.	.	.	.	.	.
.	32ddd-\ 32fff 32bbb-	.	.	.	.	.	.	.
.	32bb-\	.	.	.	.	.	.	.
2D-^^\ 2d-	32ddd-\ 32fff 32bbb-	.	.	.	.	.	.	.
.	32bb-\	.	.	.	.	.	.	.
.	32ddd-\ 32fff 32bbb-	.	.	.	.	.	.	.
.	32bb-\	.	.	.	.	.	.	.
.	32ddd-\ 32fff 32bbb-	.	.	.	.	.	.	.
.	32bb-\	.	.	.	.	.	.	.
.	32ddd-\ 32fff 32bbb-	.	.	.	.	.	.	.
.	32bb-\	.	.	.	.	.	.	.
.	32ddd-\ 32fff 32bbb-	.	.	.	.	.	.	.
.	32bb-\	.	.	.	.	.	.	.
.	32ddd-\ 32fff 32bbb-	.	.	.	.	.	.	.
.	32bb-\	.	.	.	.	.	.	.
.	32ddd-\ 32fff 32bbb-	.	.	.	.	.	.	.
.	32bb-\	.	.	.	.	.	.	.
.	32ddd-\ 32fff 32bbb-	.	.	.	.	.	.	.
.	32bb-\JJJ	.	.	.	.	.	.	.
=281	=281	=281	=281	=281	=281	=281	=281	=281
8GG-/L 8G-	32ddd-\LLL 32fff 32bbb-	.	2.r	.	.	2.ryy	.	.
.	32bb-\	.	.	.	.	.	.	.
.	32ddd-\ 32fff 32bbb-	.	.	.	.	.	.	.
.	32bb-\	.	.	.	.	.	.	.
8FF/J 8F	32ddd-\ 32fff 32bbb-	.	.	.	.	.	.	.
.	32bb-\	.	.	.	.	.	.	.
.	32ddd-\ 32fff 32bbb-	.	.	.	.	.	.	.
.	32bb-\	.	.	.	.	.	.	.
4BB-\ 4B-	32ddd-\ 32fff 32bbb-	.	.	.	.	.	.	.
.	32bb-\	.	.	.	.	.	.	.
.	32ddd-\ 32fff 32bbb-	.	.	.	.	.	.	.
.	32bb-\	.	.	.	.	.	.	.
.	32ddd-\ 32fff 32bbb-	.	.	.	.	.	.	.
.	32bb-\	.	.	.	.	.	.	.
.	32ddd-\ 32fff 32bbb-	.	.	.	.	.	.	.
.	32bb-\	.	.	.	.	.	.	.
!LO:TUP:a	!	!	!	!	!	!	!	!
12GG-/L 12G-	32ddd-\ 32fff 32bbb-	.	.	.	.	.	.	.
.	32bb-\	.	.	.	.	.	.	.
.	32ddd-\ 32fff 32bbb-	.	.	.	.	.	.	.
12FF/ 12F	.	.	.	.	.	.	.	.
.	32bb-\	.	.	.	.	.	.	.
.	32ddd-\ 32fff 32bbb-	.	.	.	.	.	.	.
.	32bb-\	.	.	.	.	.	.	.
12DD-/J 12D-	.	.	.	.	.	.	.	.
.	32ddd-\ 32fff 32bbb-	.	.	.	.	.	.	.
.	32bb-\JJJ	.	.	.	.	.	.	.
*	*X8va	*	*	*	*	*	*	*
=282||	=282||	=282||	=282||	=282||	=282||	=282||	=282||	=282||
*k[]	*k[]	*	*k[]	*	*	*k[]	*	*
*M4/4	*M4/4	*	*M4/4	*	*	*M4/4	*	*
*met(c)	*met(c)	*	*met(c)	*	*	*met(c)	*	*
2ryy	2ryy	.	2ryy	.	.	2ryy	.	.
4ryy	4ryy	.	4ryy	.	.	4ryy	.	.
4ryy	4ryy	.	4ryy	.	.	4ryy	.	.
=	=	=	=	=	=	=	=	=
*-	*-	*-	*-	*-	*-	*-	*-	*-
!!!system-decoration: s1,s2{(s3,s4)}
!!!RDF**kern: > = above
!!!RDF**kern: < = below
!!!ENC: Andrzej Gręziak
!!!END: 2022-10-18
!!!ENC: Natalia Wrzos
!!!END: 2022-10-21
!!!YEC: Copyright 2022 Narodowy Instytut Fryderyka Chopina (https://polishscores.org)
!!!YEM: License CC-BY-4.0 (https://creativecommons.org/licenses/by/4.0)
